data/luts/Agfalike D.cube
# Baked from the Lightroom preset "JSZ-CEDAR D" by scripts/lightroom-preset-lut.lisp
# Colour only; not in this LUT (add the node instead):
#   Clarity +33
#   Dehaze +21
#   Vignette -10, midpoint 0, feather 100, roundness +7
#   Grain 12, size 33
#   Sharpening 60, radius 1.4
TITLE "Agfalike D"
LUT_3D_SIZE 5
DOMAIN_MIN 0.0 0.0 0.0
DOMAIN_MAX 1.0 1.0 1.0
0.175649 0.168808 0.163576
0.367804 0.266818 0.253830
0.595712 0.370227 0.356195
0.726773 0.472644 0.429767
0.861316 0.585704 0.503622
0.261038 0.347737 0.206598
0.364589 0.353112 0.211833
0.588342 0.473946 0.355177
0.708355 0.551008 0.427337
0.861751 0.637591 0.504068
0.368533 0.546186 0.181872
0.447611 0.542521 0.180677
0.576794 0.550951 0.205086
0.676640 0.595916 0.270924
0.885996 0.696332 0.416198
0.527442 0.632231 0.210271
0.554862 0.632414 0.210257
0.607216 0.636801 0.211521
0.671414 0.656731 0.228007
0.931231 0.771485 0.401882
0.492451 0.891337 0.294015
0.507851 0.892933 0.294476
0.553049 0.897711 0.295861
0.738978 0.894846 0.294322
0.938556 0.902071 0.321256
0.262543 0.259049 0.372578
0.362420 0.267179 0.372351
0.586618 0.353133 0.449192
0.713069 0.450575 0.503512
0.855439 0.558976 0.565832
0.259641 0.352700 0.350413
0.335130 0.331560 0.328830
0.576487 0.447411 0.442433
0.693757 0.525939 0.499106
0.856338 0.613959 0.571469
0.370935 0.546290 0.370185
0.445431 0.542818 0.368366
0.566467 0.548032 0.388393
0.661918 0.595620 0.458508
0.881353 0.694715 0.581613
0.527211 0.633391 0.308246
0.553055 0.633779 0.310133
0.602504 0.638619 0.317294
0.668183 0.656439 0.339762
0.929085 0.777853 0.523098
0.496209 0.892640 0.294422
0.510545 0.894254 0.294893
0.562328 0.898534 0.296095
0.746038 0.895314 0.294452
0.941545 0.903495 0.323088
0.345157 0.353602 0.574473
0.438842 0.353940 0.574016
0.576637 0.359984 0.572678
0.684899 0.442634 0.607093
0.852727 0.549270 0.665583
0.343496 0.434973 0.565696
0.436421 0.434875 0.565111
0.562194 0.440380 0.562689
0.664053 0.501860 0.594786
0.854392 0.591879 0.663858
0.390370 0.546878 0.542580
0.445168 0.538882 0.536115
0.509265 0.507957 0.507032
0.602716 0.550051 0.545663
0.880252 0.661220 0.669450
0.512526 0.634677 0.555695
0.528640 0.629678 0.549133
0.562147 0.629972 0.539926
0.642137 0.643726 0.544978
0.923456 0.780406 0.698259
0.451089 0.896471 0.599832
0.467884 0.898126 0.600512
0.561999 0.900629 0.601384
0.736508 0.896333 0.573963
0.928082 0.899662 0.592805
0.473513 0.428201 0.718580
0.531830 0.429070 0.718417
0.622429 0.443987 0.717743
0.673289 0.485416 0.716816
0.865013 0.553576 0.763574
0.468193 0.501145 0.710361
0.522174 0.502227 0.710107
0.607255 0.510840 0.709535
0.657355 0.534346 0.709360
0.869009 0.589060 0.760865
0.481222 0.596701 0.689327
0.519156 0.595797 0.689447
0.574605 0.585145 0.679603
0.625490 0.583380 0.676283
0.898407 0.651322 0.762913
0.517339 0.652597 0.661713
0.531250 0.651900 0.659803
0.553214 0.648994 0.651742
0.626864 0.624027 0.622135
0.929693 0.761815 0.757986
0.337784 0.904004 0.711528
0.395691 0.905288 0.711927
0.583942 0.904175 0.711112
0.755793 0.898048 0.692549
0.930776 0.903098 0.712376
0.557838 0.550926 0.962283
0.593654 0.555102 0.961815
0.653867 0.571285 0.960550
0.707064 0.600075 0.958794
0.900058 0.598627 0.956491
0.541563 0.609057 0.957016
0.576986 0.611168 0.956648
0.636756 0.620014 0.955787
0.704200 0.634621 0.954730
0.903092 0.622974 0.953258
0.530964 0.686555 0.945998
0.559205 0.686397 0.945935
0.610426 0.687333 0.945947
0.721661 0.683585 0.945981
0.921353 0.658425 0.945998
0.519133 0.754878 0.930768
0.533090 0.756658 0.930609
0.579915 0.761976 0.930061
0.752062 0.758429 0.924446
0.921017 0.755120 0.918669
0.310842 0.911106 0.898730
0.310647 0.910549 0.898491
0.577643 0.907680 0.896452
0.753900 0.886753 0.879049
0.849402 0.841926 0.836941
