data/luts/Agfalike D.cube
# Baked from the Lightroom preset "JSZ-CEDAR D" by scripts/lightroom-preset-lut.lisp
# Colour only; not in this LUT (add the node instead):
#   Clarity +33
#   Dehaze +21
#   Vignette -10, midpoint 0, feather 100, roundness +7
#   Grain 12, size 33
#   Sharpening 60, radius 1.4
TITLE "Agfalike D"
LUT_3D_SIZE 9
DOMAIN_MIN 0.0 0.0 0.0
DOMAIN_MAX 1.0 1.0 1.0
0.175649 0.168808 0.163576
0.276216 0.217349 0.211967
0.367804 0.266818 0.253830
0.481473 0.319766 0.304538
0.595712 0.370227 0.356195
0.678151 0.419044 0.397755
0.726773 0.472644 0.429767
0.748829 0.523061 0.453111
0.861316 0.585704 0.503622
0.219136 0.258131 0.192765
0.271088 0.260366 0.197601
0.364211 0.310477 0.258990
0.481765 0.361187 0.309483
0.594188 0.408794 0.359754
0.674013 0.454864 0.400615
0.721205 0.501792 0.431116
0.743093 0.543384 0.452879
0.860963 0.603411 0.504447
0.261038 0.347737 0.206598
0.296520 0.347794 0.205568
0.364589 0.353112 0.211833
0.482521 0.410920 0.288668
0.588342 0.473946 0.355177
0.663114 0.516507 0.396759
0.708355 0.551008 0.427337
0.735190 0.580942 0.449922
0.861751 0.637591 0.504068
0.294249 0.460988 0.203440
0.328817 0.460634 0.201618
0.396881 0.459350 0.196527
0.481937 0.465992 0.202477
0.577988 0.507950 0.253049
0.647985 0.544797 0.279771
0.691604 0.573277 0.318323
0.733737 0.604046 0.389265
0.868161 0.677497 0.496351
0.368533 0.546186 0.181872
0.395314 0.545065 0.181511
0.447611 0.542521 0.180677
0.509877 0.539183 0.179562
0.576794 0.550951 0.205086
0.636739 0.575941 0.245507
0.676640 0.595916 0.270924
0.745599 0.628766 0.317090
0.885996 0.696332 0.416198
0.458316 0.594498 0.198004
0.473851 0.593372 0.197613
0.506439 0.590838 0.196733
0.548234 0.587366 0.195525
0.589935 0.585536 0.197222
0.636477 0.601543 0.229288
0.668573 0.614648 0.250760
0.774281 0.657264 0.325242
0.917616 0.723111 0.428439
0.527442 0.632231 0.210271
0.535993 0.632211 0.210242
0.554862 0.632414 0.210257
0.580687 0.633567 0.210556
0.607216 0.636801 0.211521
0.629704 0.643251 0.213532
0.671414 0.656731 0.228007
0.794945 0.706772 0.310487
0.931231 0.771485 0.401882
0.539009 0.759757 0.251443
0.544760 0.760278 0.251589
0.557660 0.761713 0.252004
0.575752 0.764606 0.252869
0.594532 0.769601 0.254408
0.614792 0.776808 0.256655
0.698163 0.778998 0.257052
0.798448 0.784106 0.265933
0.932360 0.837133 0.355531
0.492451 0.891337 0.294015
0.497239 0.891775 0.294140
0.507851 0.892933 0.294476
0.522272 0.895130 0.295134
0.553049 0.897711 0.295861
0.641151 0.897209 0.295402
0.738978 0.894846 0.294322
0.837889 0.890512 0.292615
0.938556 0.902071 0.321256
0.217977 0.213655 0.266084
0.270629 0.215027 0.265029
0.361104 0.257251 0.296895
0.477985 0.309819 0.344080
0.592394 0.360940 0.391383
0.674481 0.408936 0.426983
0.722756 0.461160 0.452657
0.744637 0.514080 0.474344
0.859729 0.577476 0.524559
0.218622 0.256204 0.251780
0.248501 0.243073 0.238923
0.354394 0.293401 0.289732
0.478009 0.345624 0.343453
0.590515 0.393403 0.390529
0.670040 0.442140 0.427721
0.717047 0.491570 0.455599
0.738829 0.535180 0.475335
0.859400 0.595590 0.526382
0.264071 0.349035 0.275386
0.292411 0.348985 0.269273
0.360311 0.352442 0.275131
0.478343 0.414850 0.355385
0.583442 0.464539 0.399417
0.658360 0.506656 0.433233
0.703841 0.542747 0.457705
0.732477 0.574456 0.477031
0.860232 0.630426 0.529056
0.293824 0.461710 0.269635
0.328810 0.461296 0.269985
0.396466 0.459985 0.270647
0.479688 0.465730 0.285500
0.574185 0.509774 0.352669
0.642933 0.549454 0.400832
0.686262 0.578688 0.430742
0.730980 0.609254 0.462410
0.866632 0.670443 0.529925
0.375126 0.546253 0.181899
0.400582 0.545146 0.181541
0.450817 0.542636 0.185862
0.510920 0.539380 0.203901
0.575757 0.550829 0.251331
0.633907 0.575751 0.308691
0.672352 0.595969 0.349380
0.742421 0.631551 0.411022
0.884338 0.706529 0.524098
0.462809 0.594345 0.197948
0.477845 0.593239 0.197564
0.509505 0.590754 0.196701
0.550307 0.587351 0.195517
0.591670 0.586174 0.198374
0.637439 0.601990 0.229893
0.668205 0.614576 0.250461
0.774139 0.657091 0.325226
0.916573 0.725478 0.463588
0.529814 0.632577 0.210378
0.538170 0.632576 0.210355
0.556638 0.632821 0.210384
0.581946 0.634039 0.210706
0.608024 0.637342 0.211693
0.630144 0.643857 0.213726
0.673449 0.657726 0.229215
0.797027 0.707909 0.311734
0.932972 0.772556 0.402897
0.540473 0.760269 0.251602
0.546112 0.760797 0.251751
0.558771 0.762247 0.252172
0.576542 0.765163 0.253045
0.594989 0.770183 0.254594
0.616648 0.777238 0.256786
0.699988 0.779381 0.257168
0.800578 0.785076 0.267229
0.933967 0.838033 0.356477
0.493544 0.891705 0.294130
0.498234 0.892145 0.294255
0.508635 0.893307 0.294594
0.522768 0.895507 0.295254
0.555698 0.897945 0.295928
0.643505 0.897392 0.295453
0.740979 0.894980 0.294359
0.839474 0.890622 0.292646
0.939972 0.902687 0.322157
0.262543 0.259049 0.372578
0.301519 0.261996 0.372435
0.362420 0.267179 0.372351
0.474568 0.303103 0.405579
0.586618 0.353133 0.449192
0.666372 0.400596 0.482101
0.713069 0.450575 0.503512
0.733947 0.496862 0.516248
0.855439 0.558976 0.565832
0.258769 0.299287 0.365812
0.295751 0.298577 0.365205
0.356871 0.297654 0.363942
0.474599 0.336890 0.403236
0.584481 0.383910 0.446985
0.661610 0.430129 0.479191
0.707206 0.475109 0.500370
0.730554 0.515698 0.514304
0.855208 0.576470 0.566578
0.259641 0.352700 0.350413
0.289897 0.350100 0.347703
0.335130 0.331560 0.328830
0.468149 0.394087 0.392035
0.576487 0.447411 0.442433
0.649456 0.488968 0.475407
0.693757 0.525939 0.499106
0.726087 0.559896 0.519076
0.856338 0.613959 0.571469
0.301629 0.463396 0.375924
0.335807 0.462883 0.375870
0.392469 0.459931 0.366694
0.473030 0.463934 0.375832
0.566352 0.512428 0.440755
0.633669 0.551008 0.479099
0.676143 0.576900 0.499723
0.725292 0.605036 0.523208
0.863176 0.656573 0.576864
0.370935 0.546290 0.370185
0.395059 0.545227 0.368579
0.445431 0.542818 0.368366
0.504983 0.539787 0.368514
0.566467 0.548032 0.388393
0.623940 0.574373 0.430084
0.661918 0.595620 0.458508
0.737801 0.637244 0.514922
0.881353 0.694715 0.581613
0.458875 0.593840 0.350543
0.473512 0.592783 0.350578
0.504348 0.590413 0.350800
0.544115 0.587175 0.351611
0.582750 0.584169 0.353601
0.625931 0.598143 0.385590
0.656103 0.611299 0.411809
0.770081 0.663763 0.498983
0.914078 0.727265 0.585059
0.527211 0.633391 0.308246
0.535258 0.633433 0.308756
0.553055 0.633779 0.310133
0.577394 0.635153 0.312833
0.602504 0.638619 0.317294
0.623587 0.645292 0.323862
0.668183 0.656439 0.339762
0.793086 0.708909 0.427493
0.929085 0.777853 0.523098
0.540590 0.761558 0.252017
0.545892 0.762102 0.252172
0.557797 0.763589 0.252608
0.574482 0.766558 0.253502
0.591660 0.771636 0.255074
0.616415 0.778296 0.257128
0.700044 0.780305 0.257466
0.799966 0.785402 0.266515
0.932198 0.837729 0.354983
0.496209 0.892640 0.294422
0.500662 0.893084 0.294550
0.510545 0.894254 0.294893
0.523966 0.896465 0.295560
0.562328 0.898534 0.296095
0.649469 0.897848 0.295581
0.746038 0.895314 0.294452
0.843165 0.890897 0.292725
0.941545 0.903495 0.323088
0.298993 0.312972 0.492731
0.334457 0.314209 0.492694
0.398095 0.316332 0.492567
0.479508 0.317208 0.492305
0.577956 0.349415 0.519932
0.653618 0.393459 0.546667
0.697905 0.442239 0.563655
0.724376 0.487947 0.574645
0.851021 0.550515 0.622719
0.295702 0.345884 0.488968
0.331195 0.346009 0.489005
0.397169 0.345926 0.489001
0.477933 0.345256 0.488864
0.575091 0.377137 0.516830
0.648256 0.421439 0.543169
0.691763 0.465041 0.560036
0.721802 0.505882 0.572566
0.850864 0.565501 0.621854
0.293202 0.400085 0.479680
0.328489 0.400236 0.479700
0.392591 0.396479 0.475738
0.466553 0.395122 0.473241
0.565421 0.435266 0.508038
0.635165 0.474087 0.534576
0.677701 0.508071 0.551830
0.717321 0.541606 0.568607
0.852128 0.595908 0.620609
0.299262 0.466136 0.463261
0.334168 0.465566 0.463090
0.388027 0.455961 0.454212
0.436733 0.435074 0.433814
0.534241 0.478003 0.475970
0.610079 0.521105 0.515275
0.656229 0.552730 0.540414
0.717282 0.586930 0.569588
0.859197 0.635434 0.622965
0.378464 0.546439 0.480930
0.401601 0.545446 0.480610
0.442449 0.538771 0.474842
0.482435 0.524888 0.458678
0.537269 0.528818 0.466243
0.601643 0.564566 0.511301
0.642245 0.591492 0.541182
0.730923 0.629250 0.578607
0.877578 0.675944 0.632549
0.461084 0.592902 0.483282
0.472491 0.590243 0.481002
0.492529 0.587303 0.471071
0.530459 0.583855 0.470412
0.567081 0.580527 0.470206
0.605948 0.589633 0.488548
0.636731 0.604697 0.512222
0.764270 0.663914 0.590134
0.910270 0.708565 0.643167
0.514766 0.634876 0.465514
0.522643 0.634993 0.465667
0.540058 0.635513 0.466137
0.563785 0.637157 0.467244
0.588368 0.640911 0.469370
0.608842 0.647866 0.472906
0.657475 0.653732 0.476542
0.786552 0.711652 0.563905
0.924039 0.787722 0.654839
0.520549 0.763715 0.456856
0.525954 0.764287 0.457196
0.538047 0.765840 0.458102
0.554885 0.768905 0.459840
0.572012 0.774089 0.462683
0.605491 0.780043 0.466028
0.693608 0.781811 0.467734
0.793416 0.783927 0.472739
0.926221 0.839565 0.563375
0.465615 0.894178 0.399176
0.470298 0.894628 0.399876
0.480558 0.895810 0.401676
0.494134 0.898032 0.404942
0.547970 0.899406 0.408700
0.640446 0.898477 0.412346
0.739612 0.895722 0.416373
0.837784 0.891227 0.420887
0.933913 0.901109 0.453016
0.345157 0.353602 0.574473
0.375951 0.353995 0.574363
0.438842 0.353940 0.574016
0.512430 0.354383 0.573326
0.576637 0.359984 0.572678
0.644601 0.400697 0.594881
0.684899 0.442634 0.607093
0.721265 0.487174 0.618866
0.852727 0.549270 0.665583
0.343265 0.381611 0.572076
0.375660 0.381424 0.571988
0.438663 0.380606 0.571677
0.510848 0.380560 0.570997
0.572575 0.386777 0.569829
0.638669 0.425225 0.591144
0.678549 0.462569 0.603245
0.718859 0.503910 0.616823
0.852751 0.563278 0.664838
0.343496 0.434973 0.565696
0.376142 0.434899 0.565552
0.436421 0.434875 0.565111
0.504308 0.436000 0.564237
0.562194 0.440380 0.562689
0.624739 0.471168 0.582033
0.664053 0.501860 0.594786
0.715239 0.537287 0.612937
0.854392 0.591879 0.663858
0.352052 0.498608 0.554080
0.381129 0.498210 0.553947
0.434710 0.497013 0.553172
0.477388 0.477920 0.533557
0.528810 0.477823 0.531375
0.593503 0.508144 0.556393
0.635349 0.534369 0.573597
0.714464 0.575053 0.608065
0.861836 0.627361 0.664626
0.390370 0.546878 0.542580
0.410513 0.546005 0.542203
0.445168 0.538882 0.536115
0.474833 0.518450 0.516898
0.509265 0.507957 0.507032
0.563230 0.529194 0.527408
0.602716 0.550051 0.545663
0.723256 0.605429 0.603890
0.880252 0.661220 0.669450
0.461140 0.591939 0.551657
0.471464 0.589544 0.549682
0.489365 0.580294 0.541126
0.508920 0.564411 0.526064
0.533586 0.555157 0.517549
0.563512 0.557207 0.521219
0.610359 0.579956 0.547983
0.762904 0.648345 0.624910
0.912511 0.691282 0.680495
0.512526 0.634677 0.555695
0.517818 0.633293 0.553917
0.528640 0.629678 0.549133
0.541906 0.625019 0.541148
0.562147 0.629972 0.539926
0.582293 0.638680 0.543419
0.642137 0.643726 0.544978
0.785776 0.718192 0.640191
0.923456 0.780406 0.698259
0.519436 0.767121 0.584165
0.524458 0.767733 0.584348
0.535681 0.769375 0.584856
0.551277 0.772572 0.585885
0.567073 0.777901 0.587672
0.597987 0.782727 0.572512
0.690893 0.784160 0.571910
0.791271 0.784564 0.571231
0.923485 0.842649 0.658376
0.451089 0.896471 0.599832
0.456437 0.896928 0.600017
0.467884 0.898126 0.600512
0.482485 0.900365 0.601468
0.561999 0.900629 0.601384
0.634048 0.899391 0.575206
0.736508 0.896333 0.573963
0.835446 0.891800 0.572302
0.928082 0.899662 0.592805
0.410282 0.381371 0.618452
0.435047 0.381120 0.618269
0.484399 0.380784 0.617765
0.543832 0.381915 0.616832
0.596135 0.389781 0.615368
0.642484 0.416835 0.622337
0.677221 0.454760 0.632245
0.728196 0.495613 0.647044
0.863468 0.555959 0.693412
0.411050 0.405713 0.616584
0.435409 0.405408 0.616393
0.483511 0.405326 0.615854
0.541161 0.407544 0.614809
0.591900 0.415553 0.613216
0.636256 0.438600 0.618807
0.670859 0.472154 0.628682
0.726395 0.510906 0.645325
0.863763 0.568853 0.692858
0.409950 0.458140 0.611182
0.433024 0.458128 0.610947
0.478705 0.458418 0.610334
0.533229 0.460154 0.609258
0.581728 0.465244 0.607746
0.621940 0.479677 0.610431
0.656289 0.505809 0.620388
0.724213 0.541717 0.642167
0.865966 0.595417 0.692290
0.413049 0.518300 0.602088
0.433770 0.517973 0.601886
0.474195 0.516714 0.600664
0.511189 0.504539 0.587425
0.554850 0.505230 0.585388
0.588022 0.509039 0.583645
0.624618 0.530715 0.596959
0.725862 0.577759 0.638750
0.874011 0.628706 0.693591
0.436099 0.563058 0.592201
0.451476 0.562563 0.592072
0.479621 0.557870 0.588096
0.505784 0.542897 0.573750
0.529984 0.529003 0.559686
0.559199 0.529429 0.558617
0.591071 0.544291 0.570127
0.737604 0.608360 0.637249
0.892582 0.660726 0.698996
0.473543 0.589109 0.583966
0.480798 0.585925 0.581182
0.494442 0.576941 0.573101
0.510970 0.563399 0.560796
0.529756 0.552418 0.550909
0.550317 0.548753 0.547694
0.610497 0.569759 0.570427
0.772080 0.639063 0.647827
0.923123 0.689770 0.709004
0.515281 0.638874 0.595705
0.519918 0.637927 0.594359
0.529614 0.635483 0.590778
0.542394 0.632123 0.585095
0.555880 0.630689 0.579690
0.568285 0.634690 0.577610
0.635218 0.633020 0.571287
0.791586 0.717557 0.665141
0.931548 0.780201 0.723605
0.511591 0.772064 0.631163
0.516161 0.772722 0.631304
0.526376 0.774471 0.631698
0.540519 0.777823 0.632510
0.554596 0.783323 0.633944
0.618260 0.785966 0.633375
0.698106 0.785896 0.618067
0.800063 0.789051 0.621383
0.929208 0.849406 0.705643
0.415279 0.899768 0.658037
0.421413 0.900232 0.658136
0.434124 0.901444 0.658413
0.478991 0.902724 0.658470
0.569940 0.902301 0.657513
0.647107 0.900629 0.638794
0.745018 0.897234 0.632746
0.841686 0.892731 0.629830
0.930217 0.901491 0.649429
0.473513 0.428201 0.718580
0.492620 0.428223 0.718542
0.531830 0.429070 0.718417
0.579376 0.433327 0.718153
0.622429 0.443987 0.717743
0.654103 0.462008 0.717251
0.673289 0.485416 0.716816
0.724297 0.503983 0.717994
0.865013 0.553576 0.763574
0.472510 0.451626 0.716358
0.491134 0.451965 0.716290
0.529224 0.453347 0.716108
0.575554 0.457616 0.715787
0.617815 0.466872 0.715359
0.649185 0.481964 0.714921
0.668369 0.501930 0.714591
0.723382 0.517043 0.716234
0.865762 0.564645 0.762456
0.468193 0.501145 0.710361
0.486032 0.501350 0.710286
0.522174 0.502227 0.710107
0.566455 0.504889 0.709837
0.607255 0.510840 0.709535
0.638013 0.520809 0.709327
0.657355 0.534346 0.709360
0.723292 0.543708 0.712782
0.869009 0.589060 0.760865
0.467336 0.555842 0.700678
0.483110 0.555730 0.700642
0.515501 0.555696 0.700574
0.554813 0.555268 0.699365
0.592104 0.556967 0.698715
0.620811 0.560936 0.698138
0.638282 0.566804 0.697214
0.727891 0.575241 0.708037
0.878507 0.620439 0.760325
0.481222 0.596701 0.689327
0.493385 0.596394 0.689355
0.519156 0.595797 0.689447
0.550795 0.593439 0.687808
0.574605 0.585145 0.679603
0.595988 0.581887 0.675447
0.625490 0.583380 0.676283
0.744030 0.603539 0.704793
0.898407 0.651322 0.762913
0.508776 0.620252 0.677769
0.516997 0.619917 0.677855
0.534415 0.618602 0.677491
0.554120 0.613090 0.673302
0.571273 0.604544 0.666103
0.584604 0.597136 0.659670
0.635998 0.589588 0.657226
0.782188 0.633372 0.711759
0.927608 0.684146 0.768288
0.517339 0.652597 0.661713
0.521870 0.652551 0.661346
0.531250 0.651900 0.659803
0.542823 0.650258 0.656316
0.553214 0.648994 0.651742
0.569394 0.643632 0.642322
0.626864 0.624027 0.622135
0.776573 0.686869 0.684204
0.929693 0.761815 0.757986
0.495303 0.778585 0.686702
0.499366 0.779292 0.686959
0.508395 0.781153 0.687643
0.520683 0.784670 0.688958
0.546723 0.789264 0.690631
0.624949 0.790196 0.690049
0.691170 0.772141 0.663621
0.791584 0.778060 0.671422
0.929920 0.855382 0.767979
0.337784 0.904004 0.711528
0.350049 0.904468 0.711696
0.395691 0.905288 0.711927
0.493339 0.905076 0.711609
0.583942 0.904175 0.711112
0.675739 0.901982 0.710197
0.755793 0.898048 0.692549
0.848323 0.893491 0.691112
0.930776 0.903098 0.712376
0.521136 0.493915 0.861661
0.536686 0.494718 0.861579
0.568509 0.497281 0.861375
0.607910 0.503265 0.861029
0.644288 0.514268 0.860563
0.671543 0.530590 0.860047
0.687568 0.551281 0.859571
0.763092 0.560088 0.858921
0.861372 0.559499 0.858418
0.517692 0.516545 0.859703
0.532993 0.517285 0.859614
0.564347 0.519546 0.859401
0.603272 0.524628 0.859059
0.639333 0.533820 0.858634
0.666536 0.547663 0.858192
0.682667 0.565430 0.857847
0.762612 0.571214 0.857346
0.861714 0.568633 0.857015
0.509836 0.561156 0.854859
0.524624 0.561588 0.854778
0.554986 0.562964 0.854593
0.592864 0.566159 0.854327
0.628148 0.572141 0.854049
0.655290 0.581358 0.853864
0.673208 0.593380 0.853875
0.762803 0.593557 0.853701
0.865206 0.588929 0.855465
0.503908 0.610558 0.847373
0.517404 0.610602 0.847333
0.545400 0.610907 0.847260
0.580809 0.612014 0.847207
0.614257 0.614680 0.847258
0.640663 0.619392 0.847493
0.672622 0.624327 0.847908
0.767175 0.619500 0.848208
0.875647 0.615526 0.855325
0.511679 0.648353 0.838771
0.522453 0.648173 0.838791
0.545389 0.647857 0.838864
0.575112 0.647750 0.839054
0.604529 0.648354 0.839434
0.628257 0.650171 0.840077
0.682261 0.648932 0.840796
0.780176 0.640107 0.841558
0.896108 0.641617 0.857679
0.533873 0.670978 0.829973
0.541249 0.670744 0.830044
0.557483 0.670248 0.830238
0.579831 0.669660 0.830620
0.602888 0.669344 0.831259
0.621694 0.669729 0.832223
0.705640 0.660942 0.831347
0.803085 0.652152 0.833555
0.922279 0.674752 0.860255
0.529135 0.709844 0.816730
0.533768 0.710266 0.816739
0.544035 0.711412 0.816768
0.557984 0.713691 0.816837
0.571311 0.717585 0.816971
0.627657 0.719926 0.816891
0.695139 0.701042 0.797347
0.782970 0.696621 0.793103
0.919130 0.747568 0.842295
0.423964 0.789820 0.792854
0.428513 0.790328 0.792853
0.438150 0.791657 0.792860
0.449970 0.794139 0.792898
0.525902 0.795476 0.792631
0.616777 0.796167 0.792291
0.685879 0.771124 0.767176
0.753018 0.747439 0.743720
0.878940 0.798920 0.793293
0.309708 0.908178 0.818014
0.309697 0.908146 0.818030
0.309647 0.908004 0.818048
0.465994 0.907355 0.817408
0.573567 0.905911 0.816719
0.671549 0.903306 0.815705
0.751184 0.886034 0.799552
0.810653 0.859733 0.771639
0.881515 0.864836 0.779884
0.557838 0.550926 0.962283
0.569381 0.552034 0.962147
0.593654 0.555102 0.961815
0.624674 0.561222 0.961267
0.653867 0.571285 0.960550
0.676080 0.585559 0.959719
0.707064 0.600075 0.958794
0.799943 0.602668 0.957601
0.900058 0.598627 0.956491
0.552729 0.570483 0.960705
0.564255 0.571395 0.960572
0.588486 0.573922 0.960253
0.619413 0.579020 0.959747
0.648548 0.587642 0.959092
0.670893 0.599806 0.958364
0.705693 0.611529 0.957552
0.800135 0.612202 0.956486
0.900717 0.606596 0.955510
0.541563 0.609057 0.957016
0.552984 0.609607 0.956905
0.576986 0.611168 0.956648
0.607544 0.614426 0.956257
0.636756 0.620014 0.955787
0.659379 0.628229 0.955306
0.704200 0.634621 0.954730
0.801830 0.631612 0.953942
0.903092 0.622974 0.953258
0.530587 0.652264 0.951736
0.541413 0.652420 0.951667
0.564195 0.652954 0.951516
0.593371 0.654315 0.951309
0.621859 0.656991 0.951097
0.644106 0.661406 0.950941
0.707368 0.661677 0.950636
0.808271 0.654502 0.950221
0.909293 0.642398 0.949933
0.530964 0.686555 0.945998
0.539938 0.686481 0.945975
0.559205 0.686397 0.945935
0.584863 0.686548 0.945909
0.610426 0.687333 0.945947
0.630492 0.689179 0.946103
0.721661 0.683585 0.945981
0.823160 0.673146 0.945907
0.921353 0.658425 0.945998
0.545686 0.708101 0.940501
0.552212 0.707933 0.940516
0.566636 0.707580 0.940566
0.586457 0.707181 0.940686
0.606645 0.707032 0.940923
0.657788 0.704345 0.941131
0.750653 0.695829 0.941246
0.844948 0.691618 0.940513
0.933213 0.687874 0.939619
0.519133 0.754878 0.930768
0.523522 0.755364 0.930721
0.533090 0.756658 0.930609
0.545591 0.759151 0.930427
0.579915 0.761976 0.930061
0.664118 0.762576 0.929325
0.752062 0.758429 0.924446
0.840962 0.754766 0.920333
0.921017 0.755120 0.918669
0.311926 0.837061 0.913851
0.311923 0.837583 0.913814
0.311916 0.838939 0.913721
0.454602 0.839570 0.912951
0.560079 0.840091 0.912213
0.658651 0.840206 0.911373
0.747977 0.833169 0.903768
0.804550 0.800786 0.870687
0.872136 0.800418 0.867839
0.310842 0.911106 0.898730
0.310793 0.910968 0.898670
0.310647 0.910549 0.898491
0.463804 0.909507 0.897555
0.577643 0.907680 0.896452
0.676729 0.904803 0.894990
0.753900 0.886753 0.879049
0.802073 0.853073 0.847597
0.849402 0.841926 0.836941
