data/luts/Agfalike G.cube
# Baked from the Lightroom preset "JSZ-CEDAR G" by scripts/lightroom-preset-lut.lisp
# Colour only; not in this LUT (add the node instead):
#   Clarity +20
#   Sharpening 60, radius 1.4
#   White balance 4600 K, tint -3, taken relative to 5500 K daylight
TITLE "Agfalike G"
LUT_3D_SIZE 33
DOMAIN_MIN 0.0 0.0 0.0
DOMAIN_MAX 1.0 1.0 1.0
0.135672 0.128187 0.122464
0.150953 0.132978 0.127302
0.166126 0.137794 0.132144
0.181981 0.143406 0.137405
0.196652 0.149600 0.142624
0.210989 0.156488 0.147997
0.225691 0.163953 0.153663
0.241434 0.171291 0.159697
0.258460 0.178521 0.166175
0.276837 0.185694 0.173129
0.296932 0.192866 0.180659
0.325678 0.200507 0.190509
0.361888 0.207964 0.202141
0.402129 0.215528 0.215500
0.443433 0.222385 0.229465
0.483498 0.227851 0.242944
0.521795 0.231933 0.255788
0.557960 0.234744 0.267904
0.591501 0.236609 0.279163
0.622108 0.238108 0.289499
0.649612 0.240109 0.298891
0.674123 0.244347 0.307370
0.696586 0.255245 0.315039
0.717729 0.271578 0.322083
0.737521 0.291094 0.328490
0.756043 0.312021 0.334278
0.792142 0.327394 0.344699
0.827977 0.343781 0.354756
0.863347 0.360768 0.364426
0.898318 0.378759 0.374535
0.932830 0.397886 0.385485
0.966319 0.416772 0.396056
0.998556 0.435615 0.406246
0.136212 0.140371 0.126878
0.148992 0.142473 0.128665
0.164211 0.147668 0.134352
0.179619 0.153675 0.140059
0.194234 0.159662 0.145439
0.208781 0.165611 0.150718
0.223862 0.171611 0.156136
0.239957 0.177845 0.162006
0.257275 0.184286 0.168376
0.275886 0.190894 0.175255
0.296334 0.197686 0.182776
0.325655 0.205191 0.192623
0.362194 0.212665 0.204176
0.402316 0.219523 0.216660
0.443644 0.226539 0.230515
0.483670 0.232259 0.243886
0.521916 0.236705 0.256636
0.558012 0.240006 0.268667
0.591473 0.242493 0.279852
0.621998 0.244712 0.290125
0.649422 0.247434 0.299463
0.673744 0.253579 0.307787
0.696055 0.265585 0.315289
0.717095 0.281765 0.322185
0.736817 0.300501 0.328464
0.755587 0.320391 0.334222
0.791691 0.335754 0.344568
0.827543 0.351924 0.354566
0.863192 0.369390 0.365043
0.898514 0.387976 0.376190
0.933020 0.406423 0.386997
0.966498 0.424691 0.397440
0.998721 0.442932 0.407511
0.136262 0.151391 0.131319
0.148559 0.153069 0.132205
0.162985 0.156616 0.135359
0.177798 0.161445 0.141540
0.192195 0.167194 0.147994
0.206999 0.172684 0.153387
0.222293 0.178091 0.158707
0.238597 0.183766 0.164448
0.256126 0.189765 0.170733
0.274924 0.196031 0.177554
0.295788 0.202632 0.185019
0.325725 0.210127 0.194832
0.362593 0.217676 0.206329
0.402758 0.224401 0.218458
0.443902 0.231011 0.231627
0.483875 0.236999 0.244890
0.522060 0.241811 0.257545
0.558074 0.245591 0.269488
0.591446 0.248659 0.280596
0.621879 0.251526 0.290799
0.649182 0.255183 0.300049
0.673259 0.263379 0.308161
0.695422 0.276162 0.315489
0.716357 0.292163 0.322234
0.736007 0.310212 0.328385
0.755066 0.329172 0.334118
0.791181 0.344497 0.344389
0.827439 0.361760 0.355617
0.863378 0.379683 0.366911
0.898702 0.397644 0.377914
0.933206 0.415425 0.388583
0.966676 0.433108 0.398903
0.998886 0.450745 0.408857
0.137900 0.162357 0.137092
0.148669 0.162605 0.136253
0.161756 0.166198 0.139294
0.176487 0.170155 0.142669
0.190836 0.174418 0.149023
0.204981 0.180092 0.156694
0.220518 0.185441 0.162183
0.236970 0.190781 0.167774
0.254705 0.196507 0.173919
0.273746 0.202594 0.180554
0.295226 0.209135 0.187930
0.325954 0.216717 0.197746
0.363234 0.224430 0.209200
0.403569 0.231417 0.221272
0.444331 0.237198 0.233219
0.484181 0.243416 0.246232
0.522273 0.248686 0.258766
0.558169 0.253041 0.270596
0.591411 0.256783 0.281601
0.621713 0.260382 0.291711
0.648692 0.266352 0.300702
0.672468 0.276440 0.308540
0.694452 0.289837 0.315646
0.715260 0.305562 0.322200
0.734826 0.322829 0.328185
0.754733 0.342194 0.335328
0.791273 0.358777 0.346843
0.827634 0.375884 0.358204
0.863588 0.393147 0.369327
0.898922 0.410345 0.380160
0.933429 0.427350 0.390668
0.966892 0.444318 0.400840
0.999088 0.461200 0.410654
0.141267 0.173587 0.144035
0.151194 0.173051 0.143528
0.160298 0.175253 0.143906
0.173736 0.179138 0.147092
0.189147 0.183464 0.150660
0.203935 0.187499 0.157256
0.218821 0.193081 0.165425
0.235242 0.198820 0.171814
0.253176 0.204474 0.177678
0.272441 0.210513 0.184095
0.294762 0.217134 0.191453
0.326430 0.224926 0.201320
0.364184 0.232903 0.212752
0.404695 0.240242 0.224776
0.445427 0.246493 0.236670
0.484635 0.251566 0.247978
0.522563 0.257253 0.260278
0.558298 0.262227 0.271975
0.591366 0.266677 0.282854
0.621285 0.272422 0.292667
0.647808 0.281006 0.301278
0.671254 0.292488 0.308802
0.693049 0.306210 0.315656
0.713719 0.321537 0.321995
0.733887 0.340268 0.330059
0.754831 0.359965 0.338704
0.791407 0.376281 0.350071
0.827804 0.392807 0.361256
0.863788 0.409324 0.372196
0.899144 0.425668 0.382846
0.933660 0.441890 0.393187
0.967123 0.458047 0.403200
0.999308 0.474068 0.412861
0.145270 0.185668 0.151752
0.153223 0.184824 0.151162
0.160758 0.184663 0.150845
0.171063 0.188416 0.151832
0.185501 0.192782 0.155125
0.202296 0.197671 0.158830
0.218197 0.201674 0.165679
0.234150 0.207208 0.174271
0.251598 0.213547 0.181905
0.271031 0.219649 0.188094
0.294504 0.226516 0.195523
0.327224 0.234644 0.205480
0.365485 0.242975 0.216913
0.406159 0.250737 0.228897
0.446812 0.257511 0.240734
0.485870 0.263221 0.252008
0.523137 0.267970 0.262679
0.558420 0.273085 0.273554
0.590966 0.279852 0.284030
0.620315 0.288295 0.293384
0.646379 0.298690 0.301605
0.669524 0.311056 0.308882
0.691715 0.326737 0.317403
0.712966 0.343814 0.325818
0.733175 0.361860 0.334018
0.754811 0.380064 0.342423
0.791453 0.395938 0.353622
0.827909 0.411804 0.364626
0.863943 0.427519 0.375383
0.899336 0.443046 0.385861
0.933871 0.458487 0.396040
0.967341 0.473784 0.405896
0.999521 0.488887 0.415408
0.148411 0.198986 0.159661
0.155276 0.198170 0.159175
0.161802 0.197518 0.158676
0.168582 0.198544 0.156716
0.182022 0.202884 0.159701
0.197955 0.207827 0.163108
0.216630 0.213361 0.166932
0.233940 0.217318 0.174073
0.250959 0.222663 0.183047
0.269495 0.229840 0.192511
0.294548 0.237164 0.200107
0.328387 0.245748 0.210173
0.367162 0.254511 0.221619
0.407965 0.262741 0.233565
0.448479 0.270057 0.245337
0.487321 0.276510 0.256577
0.524241 0.283239 0.267350
0.558796 0.290860 0.277637
0.590643 0.299798 0.287428
0.619573 0.310384 0.296735
0.645499 0.322764 0.305569
0.668783 0.336805 0.313993
0.690840 0.352061 0.322227
0.711975 0.368209 0.330280
0.732080 0.384980 0.338086
0.754629 0.401704 0.346323
0.791373 0.417014 0.357352
0.827919 0.432164 0.368185
0.864025 0.447103 0.378778
0.899466 0.461918 0.389103
0.934035 0.476560 0.399133
0.967524 0.490981 0.408848
0.999707 0.505148 0.418229
0.150439 0.213697 0.167855
0.156824 0.213121 0.167516
0.162995 0.212470 0.167109
0.170598 0.211629 0.166491
0.178713 0.214072 0.164628
0.193761 0.218963 0.167691
0.211512 0.224472 0.171143
0.232263 0.230591 0.174981
0.251053 0.234415 0.182345
0.269300 0.239628 0.191873
0.294978 0.248926 0.205195
0.329955 0.258090 0.215365
0.369219 0.267370 0.226821
0.409971 0.276587 0.238745
0.450037 0.285719 0.250523
0.488319 0.294896 0.261865
0.524746 0.304375 0.272770
0.558854 0.314409 0.283159
0.590291 0.325240 0.292988
0.618840 0.337053 0.302239
0.644429 0.349917 0.310905
0.667501 0.363749 0.319054
0.689461 0.378315 0.326969
0.710511 0.393412 0.334668
0.730548 0.408819 0.342107
0.754261 0.424167 0.350277
0.791149 0.438839 0.361155
0.827814 0.453308 0.371842
0.864007 0.467619 0.382299
0.899516 0.481719 0.392493
0.934136 0.495562 0.402399
0.967657 0.509113 0.411998
0.999838 0.522352 0.421290
0.151081 0.229877 0.176413
0.157291 0.229456 0.176165
0.163473 0.228981 0.175873
0.171203 0.228266 0.175411
0.180097 0.227225 0.174673
0.189911 0.231384 0.172880
0.206762 0.236727 0.175918
0.226385 0.242667 0.179282
0.248918 0.249292 0.182944
0.269860 0.253399 0.190470
0.296755 0.260940 0.204421
0.331068 0.273489 0.221076
0.370413 0.284806 0.232574
0.410890 0.296139 0.244508
0.450495 0.307305 0.256269
0.488368 0.318382 0.267609
0.524408 0.329547 0.278500
0.558129 0.340943 0.288837
0.589190 0.352714 0.298561
0.617394 0.364969 0.307628
0.642698 0.377754 0.316024
0.665611 0.391038 0.323872
0.687527 0.404697 0.331480
0.708545 0.418618 0.338861
0.728557 0.432686 0.345987
0.753709 0.446828 0.354212
0.790774 0.460946 0.364970
0.827576 0.474873 0.375544
0.863884 0.488553 0.385893
0.899484 0.501940 0.395986
0.934173 0.514997 0.405799
0.967730 0.527699 0.415327
0.999907 0.540036 0.424574
0.148432 0.249450 0.185854
0.154832 0.249298 0.185710
0.161286 0.249135 0.185543
0.169470 0.248903 0.185289
0.179028 0.248557 0.184896
0.189241 0.248171 0.183974
0.200174 0.253722 0.181706
0.218110 0.259891 0.184427
0.238337 0.266639 0.187288
0.264036 0.274467 0.190512
0.297417 0.281528 0.199013
0.332012 0.291257 0.216780
0.370103 0.306186 0.236887
0.410309 0.319781 0.250443
0.449669 0.332294 0.262100
0.487321 0.344531 0.273350
0.523091 0.356629 0.284132
0.556507 0.368677 0.294327
0.587272 0.380767 0.303848
0.615201 0.392959 0.312658
0.640275 0.405280 0.320770
0.663113 0.417760 0.328342
0.685051 0.430421 0.335690
0.706089 0.443194 0.342815
0.726111 0.456071 0.349693
0.752973 0.469377 0.358102
0.790246 0.483023 0.368774
0.827222 0.496397 0.379269
0.863671 0.509448 0.389545
0.899385 0.522136 0.399574
0.934153 0.534431 0.409340
0.967742 0.546317 0.418851
0.999924 0.557787 0.428087
0.132160 0.278376 0.197563
0.140649 0.278407 0.197483
0.148913 0.278460 0.197399
0.159101 0.278551 0.197279
0.170737 0.278674 0.197104
0.183351 0.278790 0.196835
0.196574 0.278811 0.196398
0.206797 0.284099 0.191307
0.226258 0.290828 0.193574
0.253529 0.298949 0.196208
0.290547 0.308384 0.199132
0.331848 0.316654 0.207520
0.370371 0.327026 0.227335
0.409525 0.341765 0.247749
0.447553 0.358218 0.267580
0.485160 0.371245 0.278774
0.520788 0.383837 0.289403
0.554028 0.396093 0.299396
0.584598 0.408092 0.308685
0.612319 0.419903 0.317245
0.637222 0.431584 0.325105
0.660071 0.443237 0.332462
0.682072 0.455013 0.339614
0.703149 0.466880 0.346545
0.723199 0.478789 0.353234
0.752084 0.491476 0.361954
0.789608 0.504645 0.372583
0.826791 0.517472 0.383038
0.863409 0.529909 0.393282
0.899251 0.541923 0.403292
0.934093 0.553492 0.413071
0.967722 0.564601 0.422602
0.999900 0.575217 0.431983
0.098426 0.312972 0.210315
0.098538 0.313365 0.210438
0.107788 0.313585 0.210452
0.127058 0.313678 0.210338
0.147333 0.313826 0.210179
0.166011 0.314093 0.210006
0.183886 0.314421 0.209773
0.201244 0.314722 0.209420
0.213278 0.319121 0.201439
0.243959 0.327650 0.203580
0.281743 0.336909 0.205706
0.325013 0.346428 0.207674
0.369391 0.354649 0.215664
0.408744 0.364736 0.235990
0.446807 0.378293 0.255710
0.483353 0.393331 0.274582
0.517986 0.408816 0.292264
0.550890 0.421947 0.304007
0.581319 0.433725 0.313090
0.608857 0.445135 0.321436
0.633604 0.456274 0.329088
0.656513 0.467313 0.336292
0.678605 0.478382 0.343304
0.699759 0.489447 0.350100
0.719876 0.500469 0.356663
0.751123 0.512742 0.365830
0.788934 0.525452 0.376458
0.826351 0.537754 0.386917
0.863155 0.549607 0.397173
0.899120 0.560985 0.407224
0.934038 0.571863 0.417077
0.967673 0.582167 0.426980
0.999790 0.591874 0.436985
0.108522 0.348397 0.222467
0.108628 0.348771 0.222577
0.108749 0.349194 0.222701
0.108922 0.349801 0.222878
0.109153 0.350613 0.223115
0.115803 0.351467 0.223323
0.153010 0.351467 0.223000
0.181168 0.351615 0.222659
0.210165 0.351028 0.221833
0.234362 0.357651 0.211762
0.274530 0.366896 0.213279
0.317826 0.375972 0.214549
0.363357 0.384781 0.215570
0.407178 0.392333 0.223546
0.445391 0.401718 0.243408
0.482011 0.413978 0.262375
0.516577 0.427452 0.280084
0.548741 0.441237 0.296301
0.578274 0.454813 0.310878
0.605041 0.467872 0.323738
0.629466 0.479279 0.332817
0.652525 0.489778 0.339935
0.674753 0.500215 0.346867
0.696022 0.510563 0.353587
0.716241 0.520794 0.360084
0.750203 0.532875 0.369834
0.788327 0.545160 0.380503
0.825995 0.556973 0.391007
0.862974 0.568279 0.401344
0.899030 0.579012 0.411720
0.933961 0.589133 0.422193
0.967569 0.598629 0.432732
0.999628 0.607525 0.443294
0.118447 0.383235 0.234242
0.118538 0.383556 0.234334
0.118642 0.383919 0.234438
0.118789 0.384438 0.234587
0.118987 0.385131 0.234786
0.119237 0.386008 0.235037
0.119541 0.387076 0.235342
0.136631 0.387663 0.235367
0.194954 0.386017 0.234148
0.226239 0.386965 0.222019
0.268340 0.396475 0.221295
0.312660 0.405324 0.222049
0.357373 0.413653 0.222566
0.401860 0.421536 0.222897
0.443530 0.428411 0.231117
0.480215 0.437104 0.250226
0.514700 0.448051 0.268034
0.546684 0.459927 0.284341
0.575977 0.471990 0.299028
0.602488 0.483811 0.312044
0.626506 0.495236 0.323566
0.649318 0.506523 0.334351
0.671318 0.517722 0.344645
0.692387 0.528745 0.354405
0.712435 0.539521 0.363603
0.749470 0.551660 0.374106
0.787907 0.563552 0.384906
0.825775 0.574866 0.395789
0.862854 0.585569 0.406763
0.898956 0.595638 0.417802
0.933892 0.605080 0.428869
0.967464 0.613912 0.439924
0.999451 0.622150 0.450916
0.127946 0.416564 0.245593
0.128023 0.416835 0.245672
0.128111 0.417141 0.245760
0.128235 0.417577 0.245887
0.128401 0.418159 0.246055
0.128610 0.418893 0.246267
0.128841 0.419703 0.246488
0.129044 0.420413 0.246640
0.169473 0.419511 0.245961
0.229336 0.416486 0.244072
0.262847 0.425042 0.229550
0.308774 0.433799 0.229909
0.353242 0.441752 0.230062
0.396524 0.449127 0.230053
0.439097 0.456104 0.229918
0.478286 0.462302 0.238790
0.512645 0.470199 0.256777
0.544415 0.479808 0.273247
0.573442 0.490098 0.288107
0.599697 0.500488 0.301347
0.623627 0.510753 0.313235
0.646567 0.521072 0.324547
0.668661 0.531388 0.335386
0.689793 0.541597 0.345765
0.711149 0.552017 0.356580
0.749229 0.567854 0.377259
0.787666 0.580323 0.390917
0.825677 0.591142 0.402443
0.862835 0.601327 0.414000
0.898966 0.610865 0.425554
0.933884 0.619785 0.437060
0.967377 0.628222 0.448462
0.999227 0.636220 0.459709
0.136899 0.447938 0.256623
0.136962 0.448155 0.256690
0.137031 0.448400 0.256766
0.137131 0.448749 0.256874
0.137263 0.449211 0.257018
0.137408 0.449717 0.257165
0.137538 0.450174 0.257273
0.137641 0.450534 0.257321
0.137706 0.450760 0.257292
0.221844 0.447024 0.255234
0.258597 0.451950 0.238019
0.306268 0.460664 0.238078
0.350758 0.468287 0.237956
0.393332 0.475224 0.237716
0.434747 0.481702 0.237394
0.474856 0.487823 0.237040
0.510775 0.493338 0.247022
0.542249 0.500395 0.263673
0.570946 0.508709 0.278723
0.596916 0.517515 0.292255
0.620800 0.526507 0.304769
0.643819 0.535738 0.316997
0.665937 0.545077 0.328952
0.687049 0.554401 0.340606
0.711679 0.564955 0.354534
0.749938 0.579915 0.376458
0.787721 0.595253 0.398478
0.825786 0.605930 0.410962
0.862972 0.615790 0.422915
0.899060 0.625096 0.434786
0.933880 0.633871 0.446536
0.967247 0.642145 0.458124
0.998946 0.649951 0.469499
0.145155 0.476814 0.267470
0.145202 0.476978 0.267530
0.145255 0.477163 0.267596
0.145322 0.477397 0.267679
0.145393 0.477647 0.267761
0.145458 0.477873 0.267826
0.145504 0.478034 0.267853
0.145521 0.478094 0.267828
0.145501 0.478024 0.267739
0.215405 0.474806 0.266085
0.256522 0.476810 0.246763
0.305599 0.485453 0.246593
0.350034 0.492767 0.246297
0.392107 0.499316 0.245955
0.432532 0.505338 0.245643
0.471322 0.510961 0.245428
0.508298 0.516276 0.245377
0.540427 0.521122 0.257206
0.568634 0.527309 0.272917
0.594203 0.534418 0.287282
0.618049 0.542064 0.300838
0.641081 0.550147 0.314122
0.663179 0.558481 0.327087
0.684249 0.566915 0.339700
0.712503 0.577625 0.356560
0.750858 0.591802 0.379288
0.788639 0.606530 0.401952
0.826023 0.619914 0.421011
0.863162 0.629693 0.433168
0.899171 0.638889 0.445198
0.933884 0.647527 0.457063
0.967116 0.655637 0.468719
0.998652 0.663254 0.480115
0.152625 0.502854 0.278544
0.152647 0.502930 0.278597
0.152667 0.503000 0.278650
0.152688 0.503072 0.278715
0.152703 0.503125 0.278785
0.152704 0.503127 0.278849
0.152681 0.503048 0.278898
0.152626 0.502859 0.278923
0.152534 0.502539 0.278921
0.213042 0.499567 0.277638
0.260022 0.499185 0.259675
0.306984 0.507662 0.257004
0.351102 0.514673 0.257003
0.392505 0.520876 0.257043
0.431899 0.526523 0.257180
0.469438 0.531754 0.257469
0.505046 0.536670 0.257966
0.538546 0.541347 0.258727
0.566633 0.545560 0.272479
0.591719 0.550968 0.287329
0.615518 0.557298 0.301568
0.638462 0.564293 0.315453
0.660437 0.571722 0.328930
0.681356 0.579408 0.341957
0.713536 0.590368 0.361435
0.751899 0.603842 0.384554
0.789634 0.617984 0.407551
0.826571 0.632539 0.430343
0.863445 0.643109 0.444483
0.899363 0.652189 0.456555
0.933954 0.660686 0.468426
0.967036 0.668633 0.480050
0.998391 0.676061 0.491377
0.159300 0.525926 0.292240
0.159298 0.525917 0.292302
0.159291 0.525896 0.292368
0.159277 0.525847 0.292455
0.159249 0.525750 0.292559
0.159200 0.525582 0.292674
0.159123 0.525318 0.292795
0.159012 0.524938 0.292917
0.158863 0.524427 0.293040
0.216815 0.521438 0.291961
0.273271 0.518735 0.282664
0.310311 0.527068 0.270903
0.353762 0.533922 0.271234
0.394196 0.539942 0.271641
0.432406 0.545399 0.272171
0.468623 0.550449 0.272872
0.502829 0.555195 0.273789
0.534897 0.559717 0.274965
0.564740 0.564084 0.276434
0.589408 0.567897 0.290852
0.613029 0.572914 0.305330
0.635791 0.578811 0.319438
0.657584 0.585305 0.333120
0.678325 0.592180 0.346335
0.714815 0.603245 0.368461
0.753145 0.615970 0.391789
0.790806 0.629494 0.414942
0.827636 0.643522 0.437843
0.863901 0.655991 0.456606
0.899706 0.664948 0.468623
0.934155 0.673300 0.480410
0.967064 0.681079 0.491922
0.997929 0.689545 0.502996
0.165388 0.546790 0.308521
0.165370 0.546730 0.308586
0.165348 0.546655 0.308657
0.165313 0.546535 0.308754
0.165260 0.546354 0.308875
0.165183 0.546093 0.309019
0.165078 0.545736 0.309181
0.164941 0.545270 0.309361
0.164772 0.544692 0.309563
0.225130 0.541614 0.308512
0.287069 0.537125 0.306717
0.314808 0.544840 0.287267
0.357143 0.551677 0.287907
0.396336 0.557664 0.288625
0.433209 0.563076 0.289470
0.468026 0.568070 0.290484
0.500806 0.572747 0.291705
0.531455 0.577183 0.293169
0.560040 0.581452 0.294899
0.587279 0.585652 0.296887
0.610672 0.589135 0.311342
0.633199 0.593766 0.325489
0.654769 0.599201 0.339205
0.677691 0.605599 0.353776
0.716467 0.616136 0.377283
0.754713 0.628070 0.400657
0.792257 0.640948 0.423820
0.828942 0.654432 0.446692
0.864620 0.668260 0.469198
0.899470 0.679590 0.480871
0.932825 0.691102 0.492153
0.964658 0.702368 0.503165
0.994731 0.713408 0.513852
0.171241 0.566688 0.326569
0.171214 0.566594 0.326633
0.171181 0.566482 0.326704
0.171131 0.566314 0.326801
0.171060 0.566075 0.326926
0.170964 0.565752 0.327078
0.170840 0.565332 0.327258
0.170687 0.564813 0.327466
0.170504 0.564196 0.327710
0.235627 0.560954 0.326580
0.294964 0.556711 0.324928
0.320053 0.561482 0.305150
0.360982 0.568300 0.306070
0.398772 0.574264 0.307055
0.434222 0.579646 0.308156
0.467604 0.584597 0.309410
0.498955 0.589218 0.310853
0.528235 0.593582 0.312514
0.555654 0.597769 0.314408
0.582355 0.601909 0.316517
0.608653 0.606005 0.319181
0.630867 0.609168 0.333210
0.652153 0.613396 0.346815
0.679961 0.619463 0.364132
0.718293 0.629604 0.386723
0.755565 0.642454 0.407578
0.792206 0.656254 0.428135
0.828051 0.670676 0.448301
0.862937 0.685466 0.467988
0.896702 0.700421 0.487102
0.929421 0.714326 0.503340
0.961153 0.725667 0.514204
0.991069 0.736714 0.524718
0.176833 0.585545 0.345631
0.176798 0.585425 0.345690
0.176756 0.585286 0.345755
0.176695 0.585081 0.345847
0.176611 0.584799 0.345967
0.176501 0.584431 0.346116
0.176364 0.583971 0.346297
0.176200 0.583417 0.346514
0.176009 0.582776 0.346773
0.248299 0.579283 0.345462
0.304069 0.575290 0.343919
0.326153 0.576961 0.323796
0.365385 0.583736 0.324969
0.401599 0.589668 0.326184
0.435525 0.595018 0.327493
0.467418 0.599929 0.328935
0.497318 0.604497 0.330540
0.525298 0.608800 0.332332
0.550641 0.614489 0.334181
0.575513 0.620304 0.336168
0.599899 0.626215 0.338302
0.623621 0.632226 0.340595
0.645567 0.637915 0.345941
0.677952 0.644242 0.364006
0.715864 0.653385 0.385133
0.753281 0.664465 0.406013
0.790018 0.676865 0.426554
0.825908 0.690145 0.446668
0.860794 0.703978 0.466271
0.894513 0.718111 0.485271
0.926888 0.732332 0.503567
0.957715 0.746459 0.521038
0.986988 0.759349 0.535486
0.182654 0.605017 0.365258
0.182653 0.605013 0.365323
0.182652 0.605008 0.365395
0.182649 0.604999 0.365498
0.182645 0.604986 0.365636
0.182640 0.604969 0.365812
0.182635 0.604952 0.366031
0.182632 0.604943 0.366297
0.182634 0.604948 0.366615
0.248831 0.602569 0.365530
0.305830 0.599667 0.364149
0.344985 0.596989 0.362674
0.362579 0.604860 0.343980
0.397026 0.611936 0.345280
0.429025 0.618499 0.346621
0.458841 0.624697 0.348040
0.486545 0.630630 0.349565
0.512345 0.636390 0.351215
0.537121 0.642118 0.352990
0.561476 0.647901 0.354890
0.585253 0.653747 0.356931
0.608310 0.659659 0.359119
0.630719 0.665661 0.361455
0.674872 0.673405 0.363401
0.713263 0.679627 0.383533
0.750797 0.688404 0.404416
0.787612 0.699025 0.424925
0.823537 0.710883 0.444976
0.858414 0.723546 0.464486
0.892079 0.736689 0.483364
0.924352 0.750054 0.501512
0.955024 0.763420 0.518821
0.983844 0.776590 0.535144
0.192580 0.637873 0.386192
0.192579 0.637869 0.386254
0.192578 0.637865 0.386323
0.192576 0.637859 0.386424
0.192574 0.637854 0.386559
0.192573 0.637851 0.386732
0.192575 0.637855 0.386949
0.192579 0.637868 0.387213
0.192588 0.637898 0.387527
0.192606 0.637958 0.387900
0.288491 0.634322 0.385975
0.335712 0.631742 0.384754
0.365555 0.631162 0.377623
0.385606 0.638618 0.364157
0.417390 0.645381 0.365487
0.446599 0.651676 0.366875
0.473569 0.657645 0.368349
0.498778 0.663418 0.369928
0.523365 0.669173 0.371619
0.547392 0.674940 0.373426
0.570746 0.680730 0.375357
0.593315 0.686549 0.377419
0.622721 0.693090 0.379453
0.666279 0.700832 0.381277
0.710261 0.708500 0.383169
0.748270 0.714518 0.402760
0.785121 0.722889 0.423232
0.821052 0.732987 0.443229
0.855894 0.744228 0.462668
0.889479 0.756188 0.481460
0.921624 0.768543 0.499506
0.952116 0.781028 0.516684
0.980695 0.793409 0.532845
0.202548 0.670456 0.406881
0.202548 0.670454 0.406939
0.202547 0.670452 0.407004
0.202547 0.670452 0.407100
0.202548 0.670454 0.407228
0.202549 0.670459 0.407393
0.202553 0.670471 0.407598
0.202561 0.670496 0.407848
0.202576 0.670545 0.408149
0.202603 0.670630 0.408507
0.251937 0.669089 0.407831
0.318850 0.666251 0.406347
0.360388 0.663982 0.405272
0.386022 0.664151 0.397088
0.403587 0.671234 0.383949
0.432622 0.677690 0.385297
0.459243 0.683744 0.386720
0.484531 0.689616 0.388231
0.509156 0.695428 0.389836
0.533062 0.701201 0.391544
0.556176 0.706950 0.393365
0.578420 0.712688 0.395306
0.615561 0.719973 0.397076
0.658712 0.727711 0.398797
0.702030 0.735327 0.400583
0.745457 0.742847 0.402447
0.782679 0.748607 0.421681
0.818563 0.756540 0.441638
0.853330 0.766065 0.461015
0.886804 0.776622 0.479721
0.918793 0.787798 0.497655
0.949075 0.799266 0.514692
0.977389 0.810752 0.530684
0.212472 0.702498 0.427049
0.212472 0.702497 0.427103
0.212471 0.702496 0.427163
0.212471 0.702496 0.427251
0.212472 0.702498 0.427370
0.212475 0.702505 0.427523
0.212480 0.702523 0.427715
0.212491 0.702557 0.427951
0.212511 0.702619 0.428236
0.212543 0.702721 0.428577
0.212594 0.702883 0.428984
0.287530 0.700424 0.427639
0.342411 0.698066 0.426410
0.380001 0.696141 0.425508
0.406133 0.695669 0.420844
0.416494 0.702434 0.403201
0.443474 0.708687 0.404601
0.469342 0.714737 0.406069
0.494266 0.720647 0.407615
0.518266 0.726454 0.409251
0.541326 0.732184 0.410986
0.566156 0.738170 0.412786
0.609197 0.746128 0.414375
0.652099 0.753865 0.416005
0.694915 0.761427 0.417688
0.737630 0.768850 0.419439
0.780170 0.776158 0.421269
0.816225 0.781605 0.440304
0.850864 0.789076 0.459601
0.884182 0.797981 0.478207
0.915975 0.807788 0.496017
0.946010 0.818092 0.512903
0.974076 0.828579 0.528745
0.222265 0.733748 0.446667
0.222265 0.733746 0.446717
0.222264 0.733744 0.446774
0.222264 0.733744 0.446856
0.222265 0.733746 0.446968
0.222268 0.733755 0.447113
0.222275 0.733776 0.447295
0.222288 0.733817 0.447519
0.222310 0.733886 0.447791
0.222346 0.733999 0.448118
0.222401 0.734172 0.448508
0.222480 0.734423 0.448971
0.311009 0.731516 0.447267
0.359686 0.729540 0.446264
0.394439 0.727973 0.445563
0.422471 0.726623 0.445025
0.427448 0.732190 0.423372
0.452937 0.738515 0.423425
