data/luts/Agfalike G.cube
# Baked from the Lightroom preset "JSZ-CEDAR G" by scripts/lightroom-preset-lut.lisp
# Colour only; not in this LUT (add the node instead):
#   Clarity +20
#   Sharpening 60, radius 1.4
#   White balance 4600 K, tint -3, taken relative to 5500 K daylight
TITLE "Agfalike G"
LUT_3D_SIZE 9
DOMAIN_MIN 0.0 0.0 0.0
DOMAIN_MAX 1.0 1.0 1.0
0.135672 0.128187 0.122464
0.196652 0.149600 0.142624
0.258460 0.178521 0.166175
0.361888 0.207964 0.202141
0.521795 0.231933 0.255788
0.649612 0.240109 0.298891
0.737521 0.291094 0.328490
0.863347 0.360768 0.364426
0.998556 0.435615 0.406246
0.141267 0.173587 0.144035
0.189147 0.183464 0.150660
0.253176 0.204474 0.177678
0.364184 0.232903 0.212752
0.522563 0.257253 0.260278
0.647808 0.281006 0.301278
0.733887 0.340268 0.330059
0.863788 0.409324 0.372196
0.999308 0.474068 0.412861
0.151081 0.229877 0.176413
0.180097 0.227225 0.174673
0.248918 0.249292 0.182944
0.370413 0.284806 0.232574
0.524408 0.329547 0.278500
0.642698 0.377754 0.316024
0.728557 0.432686 0.345987
0.863884 0.488553 0.385893
0.999907 0.540036 0.424574
0.108522 0.348397 0.222467
0.109153 0.350613 0.223115
0.210165 0.351028 0.221833
0.363357 0.384781 0.215570
0.516577 0.427452 0.280084
0.629466 0.479279 0.332817
0.716241 0.520794 0.360084
0.862974 0.568279 0.401344
0.999628 0.607525 0.443294
0.145155 0.476814 0.267470
0.145393 0.477647 0.267761
0.145501 0.478024 0.267739
0.350034 0.492767 0.246297
0.508298 0.516276 0.245377
0.618049 0.542064 0.300838
0.712503 0.577625 0.356560
0.863162 0.629693 0.433168
0.998652 0.663254 0.480115
0.171241 0.566688 0.326569
0.171060 0.566075 0.326926
0.170504 0.564196 0.327710
0.360982 0.568300 0.306070
0.498955 0.589218 0.310853
0.608653 0.606005 0.319181
0.718293 0.629604 0.386723
0.862937 0.685466 0.467988
0.991069 0.736714 0.524718
0.202548 0.670456 0.406881
0.202548 0.670454 0.407228
0.202576 0.670545 0.408149
0.360388 0.663982 0.405272
0.459243 0.683744 0.386720
0.556176 0.706950 0.393365
0.702030 0.735327 0.400583
0.853330 0.766065 0.461015
0.977389 0.810752 0.530684
0.240950 0.792966 0.484112
0.240947 0.792956 0.484370
0.240990 0.793090 0.485092
0.241258 0.793932 0.486620
0.415462 0.788509 0.484055
0.506623 0.801748 0.460517
0.680434 0.833622 0.466041
0.841181 0.860579 0.472108
0.965642 0.883628 0.525646
0.272615 0.893046 0.549361
0.272614 0.893042 0.549539
0.272655 0.893169 0.550045
0.272817 0.893677 0.551050
0.273186 0.894841 0.552693
0.526783 0.882209 0.538250
0.677785 0.914561 0.520865
0.827324 0.940047 0.525162
0.956205 0.962256 0.530063
0.151372 0.147447 0.176806
0.189872 0.150598 0.176948
0.253031 0.176807 0.196692
0.362431 0.208420 0.231414
0.522701 0.232900 0.281836
0.649530 0.241987 0.322362
0.736860 0.294667 0.350620
0.863599 0.363563 0.387072
0.997029 0.432364 0.424558
0.147097 0.180065 0.178427
0.181816 0.179959 0.178840
0.246547 0.197874 0.196848
0.363795 0.229232 0.234122
0.523568 0.258118 0.284434
0.647601 0.283144 0.323754
0.732520 0.340387 0.349722
0.862515 0.406265 0.389783
0.997777 0.470535 0.431520
0.150425 0.233002 0.199596
0.180655 0.231656 0.198600
0.240680 0.243169 0.204587
0.370322 0.282448 0.249483
0.523575 0.326762 0.295233
0.640889 0.375150 0.332764
0.726501 0.430116 0.363077
0.862747 0.485570 0.403970
0.998075 0.535743 0.446116
0.109274 0.351133 0.243222
0.109902 0.353337 0.243888
0.211021 0.354305 0.242869
0.364424 0.385375 0.240823
0.515648 0.428735 0.304561
0.627990 0.477747 0.350560
0.714185 0.518522 0.379617
0.861224 0.564484 0.425240
0.997021 0.602086 0.470530
0.145737 0.478952 0.292198
0.145953 0.479706 0.292760
0.146027 0.479966 0.293529
0.349105 0.489592 0.277129
0.507256 0.516398 0.282703
0.615059 0.541660 0.338136
0.709577 0.578172 0.394705
0.860733 0.625656 0.459980
0.995830 0.658291 0.505798
0.171771 0.568516 0.357515
0.171581 0.567876 0.357828
0.171018 0.565974 0.358514
0.357633 0.562077 0.338486
0.494722 0.586368 0.346320
0.605929 0.605823 0.355897
0.715534 0.629281 0.419619
0.859614 0.686297 0.498707
0.988560 0.733685 0.545502
0.203092 0.672167 0.431300
0.203091 0.672166 0.431584
0.203122 0.672262 0.432346
0.357851 0.666585 0.429488
0.454522 0.679061 0.411626
0.551512 0.703969 0.419212
0.700139 0.734820 0.427756
0.851448 0.765761 0.485975
0.974950 0.810820 0.553619
0.241369 0.794215 0.502167
0.241367 0.794207 0.502374
0.241413 0.794352 0.502967
0.241686 0.795211 0.504260
0.412340 0.790426 0.501584
0.504789 0.798209 0.477922
0.678638 0.831945 0.484593
0.840194 0.860414 0.491255
0.964410 0.883400 0.542897
0.272900 0.893892 0.561630
0.272900 0.893893 0.561772
0.272944 0.894029 0.562186
0.273105 0.894536 0.563022
0.273474 0.895700 0.564418
0.533340 0.881295 0.556050
0.676967 0.913010 0.533042
0.826493 0.939386 0.537713
0.955676 0.962291 0.542772
0.173990 0.174430 0.241467
0.203032 0.177037 0.241694
0.249244 0.181260 0.242666
0.366510 0.211271 0.278887
0.525133 0.235403 0.329953
0.648758 0.246500 0.371672
0.734160 0.302926 0.403069
0.862900 0.369908 0.446728
0.995031 0.435229 0.491512
0.165788 0.201923 0.244186
0.196187 0.202232 0.244765
0.245679 0.203467 0.246253
0.367911 0.231586 0.282324
0.525649 0.260184 0.333524
0.646116 0.288393 0.374321
0.729472 0.345947 0.404356
0.860376 0.406611 0.448220
0.993123 0.464382 0.493202
0.149147 0.244646 0.254771
0.182800 0.245098 0.255548
0.237361 0.247134 0.257308
0.368871 0.277108 0.290644
0.520860 0.322444 0.339663
0.634446 0.368074 0.377480
0.717817 0.419184 0.409079
0.855990 0.472594 0.456418
0.990376 0.520778 0.502507
0.111208 0.358177 0.299316
0.111830 0.360362 0.300387
0.206630 0.362971 0.301475
0.357122 0.379562 0.306886
0.507990 0.427455 0.365474
0.619114 0.469169 0.402169
0.704439 0.508408 0.433791
0.854079 0.552246 0.481404
0.989443 0.588212 0.525748
0.147265 0.484562 0.360893
0.147406 0.485056 0.361456
0.147381 0.484973 0.362359
0.348564 0.473221 0.356184
0.499822 0.514808 0.367554
0.604641 0.539522 0.415405
0.701116 0.576975 0.464947
0.854128 0.615663 0.511117
0.988962 0.646973 0.553781
0.172848 0.572206 0.418749
0.172639 0.571505 0.418874
0.172059 0.569552 0.419125
0.368067 0.558262 0.413745
0.482394 0.576976 0.410857
0.597928 0.604431 0.426219
0.708668 0.628378 0.481363
0.853529 0.682353 0.544875
0.982758 0.727007 0.585307
0.204249 0.675800 0.479546
0.204249 0.675802 0.479717
0.204286 0.675920 0.480194
0.351123 0.671950 0.477549
0.460264 0.666938 0.473837
0.540146 0.695898 0.467752
0.695775 0.733412 0.480661
0.847333 0.765167 0.534674
0.969574 0.811059 0.598301
0.242264 0.796892 0.538358
0.242265 0.796896 0.538470
0.242321 0.797070 0.538817
0.242609 0.797980 0.539668
0.405183 0.794430 0.536858
0.519327 0.790029 0.529113
0.675071 0.828117 0.521145
0.838349 0.860110 0.529646
0.961932 0.883024 0.577654
0.273525 0.895760 0.587171
0.273530 0.895774 0.587262
0.273581 0.895936 0.587545
0.273744 0.896452 0.588138
0.274117 0.897630 0.589188
0.535420 0.883829 0.580519
0.675460 0.909426 0.558906
0.824706 0.937829 0.565152
0.954498 0.962393 0.571237
0.160084 0.225332 0.380567
0.203894 0.226628 0.381287
0.264890 0.228992 0.382982
0.370199 0.221864 0.385735
0.519771 0.236656 0.426884
0.640014 0.253697 0.467324
0.723958 0.314429 0.497304
0.858307 0.379156 0.541245
0.990645 0.442292 0.583636
0.137975 0.247922 0.384517
0.193715 0.248404 0.385323
0.260799 0.249493 0.387075
0.372222 0.242283 0.389827
0.519893 0.260851 0.429960
0.636475 0.295667 0.469005
0.719015 0.353621 0.497786
0.855827 0.412986 0.541858
0.988795 0.469548 0.584149
0.124030 0.289923 0.394596
0.160292 0.290838 0.395258
0.252553 0.293284 0.396847
0.373694 0.292855 0.398996
0.512585 0.326208 0.433820
0.623593 0.372240 0.470176
0.706123 0.420028 0.497845
0.850141 0.471885 0.543339
0.984693 0.519083 0.585857
0.126091 0.380979 0.406711
0.126157 0.382576 0.407024
0.184529 0.385073 0.407967
0.355801 0.386667 0.409735
0.488843 0.411680 0.434238
0.599606 0.452410 0.469774
0.690144 0.490599 0.499364
0.842991 0.535585 0.547136
0.979826 0.573488 0.590670
0.149352 0.492120 0.445247
0.149388 0.492246 0.445480
0.149219 0.491659 0.445736
0.349630 0.486631 0.443364
0.471371 0.492901 0.447125
0.581975 0.528867 0.487115
0.689766 0.563299 0.521871
0.843854 0.599810 0.565986
0.978938 0.630510 0.605888
0.174161 0.576664 0.488807
0.173931 0.575893 0.488720
0.173341 0.573915 0.488491
0.366684 0.566546 0.484619
0.470788 0.559016 0.478905
0.573707 0.588577 0.496282
0.697725 0.626636 0.547988
0.845869 0.674058 0.591529
0.974906 0.718124 0.629703
0.205821 0.680733 0.535438
0.205825 0.680746 0.535474
0.205880 0.680923 0.535620
0.342683 0.678721 0.533292
0.456939 0.676198 0.529867
0.523143 0.680765 0.516794
0.690491 0.730896 0.539778
0.842562 0.764840 0.589950
0.962767 0.811884 0.648981
0.243491 0.800589 0.581598
0.243501 0.800619 0.581633
0.243577 0.800861 0.581787
0.243899 0.801879 0.582292
0.396009 0.799678 0.579630
0.526365 0.794042 0.574677
0.671360 0.822447 0.564607
0.836709 0.859876 0.577620
0.958864 0.882764 0.622336
0.274468 0.898594 0.622675
0.274480 0.898631 0.622733
0.274544 0.898834 0.622921
0.274716 0.899377 0.623328
0.275102 0.900597 0.624093
0.539876 0.887477 0.615192
0.673799 0.903612 0.594509
0.822309 0.935325 0.603624
0.953006 0.962645 0.611646
0.158438 0.272705 0.509548
0.158497 0.273261 0.509779
0.269860 0.273267 0.510799
0.404241 0.262273 0.512055
0.516160 0.241489 0.513453
0.629075 0.267907 0.548246
0.711767 0.330463 0.575028
0.854811 0.392515 0.618450
0.987133 0.452880 0.657386
0.158669 0.291729 0.511403
0.158732 0.292039 0.511633
0.269561 0.291375 0.512629
0.406024 0.281624 0.513872
0.516206 0.267529 0.515199
0.624885 0.307713 0.548142
0.706777 0.365139 0.574083
0.852565 0.422911 0.617880
0.985462 0.477722 0.656794
0.159232 0.333182 0.515660
0.159254 0.334454 0.515806
0.264479 0.336035 0.516499
0.404189 0.335754 0.517250
0.509786 0.338774 0.517797
0.611629 0.379391 0.545719
0.698380 0.426410 0.572286
0.847472 0.477899 0.616502
0.981808 0.523956 0.655823
0.158743 0.422116 0.518969
0.158734 0.423076 0.518989
0.186339 0.424260 0.519086
0.384090 0.425227 0.519704
0.493200 0.427797 0.519929
0.588448 0.455079 0.540116
0.687642 0.494032 0.570090
0.841491 0.538514 0.615604
0.977721 0.575709 0.656077
0.158682 0.506473 0.522687
0.158696 0.506317 0.522726
0.158730 0.505594 0.522818
0.362140 0.504344 0.523378
0.475580 0.503620 0.523906
0.563887 0.516314 0.535800
0.682125 0.551671 0.571537
0.839232 0.591780 0.618180
0.974894 0.625455 0.658820
0.175414 0.580876 0.547431
0.175175 0.580078 0.547217
0.174593 0.578133 0.546705
0.371362 0.573735 0.544565
0.474293 0.569818 0.542131
0.552808 0.572931 0.544300
0.686998 0.615369 0.584936
0.839189 0.665188 0.630817
0.967513 0.709349 0.668309
0.207655 0.686486 0.586298
0.207670 0.686536 0.586287
0.207765 0.686841 0.586325
0.338971 0.686030 0.584543
0.454390 0.685722 0.582062
0.531435 0.686118 0.578927
0.682489 0.721820 0.590688
0.838090 0.764959 0.642328
0.957312 0.809431 0.689328
0.245023 0.805233 0.628042
0.245048 0.805314 0.628207
0.245168 0.805691 0.628694
0.245549 0.806893 0.629768
0.382862 0.806146 0.628751
0.532047 0.800890 0.624885
0.664607 0.811637 0.614614
0.832066 0.857776 0.639569
0.952478 0.881615 0.683966
0.275981 0.903133 0.681360
0.276007 0.903213 0.681555
0.276089 0.903473 0.682071
0.276289 0.904102 0.683055
0.276563 0.904966 0.684505
0.540000 0.894306 0.677967
0.666150 0.885287 0.659068
0.809083 0.925333 0.674810
0.943186 0.960302 0.693667
0.184312 0.308845 0.598778
0.184336 0.308805 0.598859
0.305411 0.304877 0.599465
0.440186 0.292488 0.600066
0.544000 0.275728 0.600575
0.622254 0.290515 0.606085
0.710098 0.350706 0.634716
0.854965 0.409876 0.679721
0.985345 0.466639 0.719701
0.184297 0.325906 0.599700
0.184323 0.325582 0.599770
0.308332 0.321769 0.600374
0.441486 0.311712 0.600957
0.542329 0.306928 0.601243
0.617178 0.326045 0.605696
0.706773 0.381033 0.634628
0.852658 0.436626 0.679646
0.983611 0.488666 0.719698
0.184058 0.370444 0.601406
0.184039 0.371129 0.601378
0.302902 0.371717 0.601714
0.435478 0.372652 0.602752
0.533786 0.377867 0.603961
0.604291 0.392173 0.605509
0.698891 0.436703 0.634251
0.847470 0.486607 0.679698
0.979797 0.530680 0.720264
0.184246 0.457173 0.606596
0.184279 0.457596 0.606726
0.244963 0.458205 0.607228
0.414612 0.459255 0.608174
0.516578 0.462464 0.609262
0.588744 0.470302 0.610860
0.688244 0.499548 0.634711
0.841398 0.542789 0.681477
0.975368 0.578766 0.723107
0.186228 0.537850 0.615685
0.186283 0.537562 0.615866
0.186427 0.536805 0.616335
0.392386 0.535735 0.617318
0.498419 0.535612 0.618708
0.573758 0.537693 0.620806
0.682461 0.553970 0.639952
0.838328 0.593587 0.687673
0.971448 0.626649 0.729357
0.190828 0.598634 0.631245
0.190896 0.598141 0.631473
0.191070 0.596982 0.632061
0.385051 0.595423 0.632935
0.486188 0.594661 0.634437
0.561852 0.596211 0.636482
0.677594 0.610121 0.648203
0.828920 0.657380 0.693446
0.955159 0.700343 0.731749
0.210287 0.694671 0.662140
0.210327 0.694797 0.662273
0.210491 0.695322 0.662683
0.299275 0.696578 0.663021
0.437295 0.699141 0.663376
0.531718 0.702519 0.663896
0.663642 0.705411 0.664039
0.810319 0.746371 0.704594
0.937371 0.791597 0.747135
0.247471 0.812611 0.712009
0.247516 0.812754 0.712163
0.247683 0.813280 0.712614
0.248104 0.814611 0.713564
0.306570 0.816386 0.714408
0.528617 0.812317 0.710852
0.666084 0.804660 0.704286
0.801230 0.832659 0.719768
0.927935 0.868740 0.762144
0.278011 0.909234 0.759142
0.278042 0.909333 0.759296
0.278136 0.909630 0.759706
0.278357 0.910328 0.760497
0.278389 0.910427 0.761337
0.534818 0.902909 0.756376
0.677714 0.892178 0.749504
0.787774 0.903446 0.746347
0.916485 0.941828 0.772836
0.224223 0.357909 0.736003
0.224301 0.356094 0.736166
0.329571 0.350182 0.736968
0.472635 0.339367 0.738182
0.570646 0.336539 0.739479
0.639784 0.356062 0.740932
0.712291 0.382888 0.742326
0.845537 0.426005 0.773357
0.975315 0.479431 0.812437
0.224447 0.373798 0.737622
0.224518 0.372275 0.737779
0.331708 0.368566 0.738545
0.471215 0.365081 0.739600
0.567338 0.369319 0.740661
0.635854 0.388407 0.741847
0.710255 0.410177 0.743076
0.843326 0.449230 0.773056
0.973650 0.498638 0.812250
0.224603 0.426058 0.740864
0.224626 0.426365 0.740953
0.311474 0.427040 0.741438
0.460382 0.429177 0.742134
0.556504 0.435781 0.742837
0.625695 0.449627 0.743769
0.705669 0.462875 0.744878
0.838506 0.493887 0.772605
0.970071 0.536158 0.812284
0.224985 0.508042 0.744793
0.225009 0.508172 0.744874
0.225070 0.508518 0.745085
0.435966 0.509583 0.745601
0.536985 0.513127 0.746221
0.609511 0.520436 0.747206
0.700506 0.524535 0.748495
0.833242 0.545247 0.773424
0.965941 0.580567 0.813840
0.226767 0.582183 0.750981
0.226805 0.581834 0.751110
0.226904 0.581010 0.751449
0.409588 0.580009 0.751863
0.516299 0.580156 0.752668
0.593731 0.582130 0.753959
0.700096 0.579638 0.755500
0.830674 0.593807 0.777423
0.962043 0.626582 0.817619
0.230327 0.639160 0.761597
0.230371 0.638693 0.761756
0.230485 0.637658 0.762167
0.393934 0.636365 0.762489
0.500653 0.635818 0.763309
0.576303 0.641196 0.763999
0.698598 0.643013 0.764485
0.819153 0.659899 0.778952
0.943734 0.702723 0.815969
0.234166 0.723258 0.770434
0.234193 0.723446 0.770510
0.234264 0.724081 0.770711
0.234405 0.725729 0.771086
0.417674 0.728660 0.770972
0.545285 0.731720 0.771240
0.680104 0.732623 0.771609
0.792951 0.737793 0.775653
0.917502 0.778520 0.812810
0.250173 0.820808 0.792290
0.250242 0.821024 0.792422
0.250455 0.821699 0.792801
0.250896 0.823094 0.793546
0.251681 0.825576 0.794807
0.525131 0.823321 0.792801
0.670944 0.820106 0.790609
0.784085 0.821355 0.791472
0.895352 0.846548 0.816504
0.280162 0.915753 0.832174
0.280200 0.915872 0.832279
0.280310 0.916221 0.832565
0.280559 0.917011 0.833132
0.280263 0.916068 0.833223
0.531838 0.911118 0.829738
0.680552 0.904557 0.825353
0.787788 0.902444 0.822109
0.887664 0.918921 0.832682
0.260271 0.400692 0.859622
0.260312 0.398938 0.859674
0.359629 0.395656 0.860120
0.497975 0.394105 0.860653
0.587860 0.402170 0.861051
0.654646 0.423527 0.861357
0.742104 0.441499 0.861451
0.846021 0.451685 0.861423
0.966162 0.493530 0.891232
0.260228 0.421874 0.860425
0.260244 0.421389 0.860457
0.353371 0.420884 0.860781
0.493625 0.422646 0.861146
0.583173 0.431898 0.861373
0.650343 0.450480 0.861547
0.740235 0.464750 0.861579
0.844805 0.472257 0.861557
0.964657 0.509991 0.890811
0.260078 0.478766 0.861639
0.260078 0.479094 0.861644
0.314680 0.480140 0.861730
0.478605 0.483035 0.861839
0.570305 0.490363 0.861875
0.639648 0.503117 0.861951
0.736129 0.510953 0.861954
0.842392 0.513055 0.862068
0.961528 0.542871 0.890217
0.260319 0.553935 0.862887
0.260324 0.554009 0.862902
0.260339 0.554319 0.862949
0.449973 0.555537 0.862844
0.548652 0.559300 0.862849
0.623073 0.565661 0.863038
0.731975 0.565671 0.863267
0.840525 0.561369 0.863837
0.957899 0.583778 0.890361
0.261527 0.620779 0.865550
0.261542 0.620423 0.865612
0.261585 0.619672 0.865778
0.418325 0.618922 0.865678
0.526953 0.619406 0.865824
0.606648 0.621318 0.866299
0.731989 0.616228 0.866759
0.840846 0.609780 0.867580
0.954546 0.627764 0.891830
0.263868 0.673925 0.871050
0.263888 0.673533 0.871137
0.263944 0.672717 0.871363
0.390695 0.671814 0.871325
0.503780 0.675504 0.871052
0.602583 0.679976 0.870858
0.727458 0.681484 0.870518
0.832594 0.684412 0.870305
0.934151 0.707008 0.886234
0.266102 0.759772 0.873727
0.266113 0.760040 0.873745
0.266142 0.760865 0.873796
0.266204 0.762656 0.873899
0.393584 0.765633 0.873567
0.572614 0.767143 0.873034
0.708010 0.767807 0.872721
0.815721 0.769501 0.872647
0.908372 0.780785 0.879958
0.268661 0.843567 0.877333
0.268677 0.843775 0.877374
0.268720 0.844335 0.877482
0.268800 0.845452 0.877683
0.268907 0.846471 0.877976
0.542783 0.845463 0.877285
0.690027 0.844399 0.877276
0.799658 0.844054 0.877635
0.886048 0.845355 0.878359
0.282386 0.922551 0.895837
0.282432 0.922698 0.895927
0.282564 0.923118 0.896172
0.282619 0.923291 0.896410
0.282129 0.921735 0.896136
0.536404 0.918842 0.894256
0.685683 0.915805 0.892668
0.791601 0.914728 0.891940
0.879445 0.916931 0.893376
0.289598 0.448261 0.959780
0.289599 0.448259 0.959785
0.397920 0.449096 0.959950
0.517768 0.453526 0.960016
0.598159 0.465690 0.959955
0.664191 0.484803 0.959792
0.771127 0.494132 0.959388
0.874137 0.501376 0.958996
0.961010 0.510000 0.958962
0.289540 0.473116 0.960073
0.289537 0.473505 0.960067
0.385598 0.475055 0.960129
0.511063 0.479825 0.960082
0.592642 0.490628 0.959941
0.659673 0.506858 0.959743
0.769507 0.513823 0.959319
0.873101 0.518686 0.959010
0.960249 0.524406 0.959117
0.289556 0.527448 0.960394
0.289553 0.527875 0.960382
0.335733 0.529235 0.960341
0.492387 0.532815 0.960118
0.578647 0.540431 0.959897
0.648568 0.551717 0.959693
0.766114 0.553678 0.959364
0.871103 0.553725 0.959323
0.958828 0.553968 0.959769
0.290027 0.594862 0.960795
0.290031 0.594970 0.960804
0.290044 0.595455 0.960834
0.458296 0.597022 0.960471
0.556292 0.600647 0.960291
0.639666 0.605131 0.960297
0.763196 0.601669 0.960316
0.869708 0.596633 0.960687
0.957315 0.593476 0.961438
0.291307 0.654689 0.962609
0.291319 0.654440 0.962661
0.291354 0.654019 0.962798
0.417509 0.653914 0.962601
0.533632 0.654665 0.962576
0.638374 0.654314 0.962752
0.763748 0.648718 0.963012
0.869891 0.642235 0.963622
0.954474 0.644401 0.964010
0.293401 0.706179 0.966762
0.293410 0.706516 0.966772
0.293436 0.707562 0.966800
0.340645 0.709849 0.966675
0.497452 0.713761 0.966153
0.632059 0.716292 0.965700
0.755897 0.717866 0.965297
0.858421 0.721109 0.965043
0.940726 0.727847 0.964995
0.295366 0.795032 0.968173
0.295378 0.795397 0.968192
0.295410 0.796376 0.968242
0.295473 0.798275 0.968338
0.357637 0.800915 0.968242
0.602362 0.801205 0.967447
0.735867 0.801882 0.967193
0.840516 0.803782 0.967207
0.923811 0.807979 0.967535
0.297859 0.876644 0.971737
0.297877 0.876866 0.971783
0.297924 0.877464 0.971906
0.298013 0.878645 0.972135
0.298097 0.878281 0.972431
0.573660 0.877175 0.971869
0.717575 0.876202 0.972014
0.823403 0.876179 0.972550
0.908786 0.877612 0.973463
0.301375 0.945092 0.979708
0.301399 0.945244 0.979780
0.301454 0.945398 0.979955
0.301528 0.944727 0.980232
0.301640 0.943719 0.980653
0.557396 0.942341 0.980438
0.704590 0.941260 0.980846
0.808268 0.941274 0.981659
0.895050 0.942353 0.982809
