data/luts/Agfalike C.cube
# Baked from the Lightroom preset "JSZ-CEDAR C" by scripts/lightroom-preset-lut.lisp
# Colour only; not in this LUT (add the node instead):
#   Clarity +30
#   Vignette -12, midpoint 0, feather 74, roundness +14
#   Grain 8, size 33
TITLE "Agfalike C"
LUT_3D_SIZE 9
DOMAIN_MIN 0.0 0.0 0.0
DOMAIN_MAX 1.0 1.0 1.0
0.148072 0.148072 0.148072
0.207767 0.169898 0.165116
0.263116 0.194345 0.179319
0.376987 0.229508 0.208123
0.555833 0.250050 0.236288
0.709965 0.224495 0.230138
0.841622 0.228885 0.239808
0.967044 0.326105 0.297845
1.000000 0.417137 0.329200
0.155054 0.191854 0.185574
0.186961 0.182363 0.164056
0.238381 0.197836 0.177929
0.367227 0.240371 0.213747
0.552227 0.278106 0.257135
0.703420 0.275244 0.262689
0.828200 0.328646 0.300034
0.943545 0.397412 0.332210
1.000000 0.453923 0.340137
0.163381 0.239279 0.233318
0.199237 0.238706 0.225351
0.238126 0.229453 0.201575
0.341007 0.257935 0.219288
0.520244 0.311665 0.263543
0.660081 0.356865 0.294855
0.774318 0.405399 0.318913
0.892563 0.458498 0.341432
1.000000 0.510643 0.357339
0.095066 0.323445 0.314449
0.168477 0.327109 0.312081
0.258878 0.336925 0.315673
0.343507 0.324933 0.262682
0.440142 0.345126 0.257999
0.582439 0.407921 0.298048
0.705875 0.460810 0.327102
0.835582 0.513093 0.353325
0.964598 0.562823 0.373841
0.151093 0.453661 0.425503
0.152157 0.455281 0.426694
0.154513 0.458592 0.429019
0.330285 0.465867 0.324557
0.478008 0.443386 0.328029
0.556326 0.460223 0.320905
0.642323 0.488147 0.326307
0.781959 0.547742 0.360219
0.920054 0.602208 0.388536
0.196779 0.568811 0.529012
0.197300 0.569482 0.529464
0.198014 0.569786 0.529383
0.384256 0.575268 0.517380
0.493279 0.573122 0.395714
0.590486 0.545573 0.396651
0.666870 0.561308 0.389273
0.756390 0.586924 0.392066
0.877046 0.634807 0.415439
0.226388 0.672550 0.629313
0.226572 0.672583 0.629237
0.226860 0.672245 0.628673
0.270037 0.672291 0.625729
0.470831 0.679409 0.509882
0.609883 0.680288 0.480174
0.699580 0.649009 0.479977
0.777908 0.662844 0.469512
0.865135 0.687368 0.471063
0.258059 0.782151 0.735143
0.258158 0.782050 0.734964
0.258383 0.781727 0.734451
0.258879 0.781363 0.733718
0.497107 0.789611 0.731057
0.559214 0.793880 0.574227
0.725938 0.795047 0.568851
0.815164 0.757952 0.566929
0.889065 0.769189 0.554377
0.293162 0.893209 0.840507
0.293220 0.893071 0.840311
0.293400 0.892793 0.839876
0.293876 0.892656 0.839415
0.294873 0.893098 0.839289
0.631445 0.906038 0.827355
0.673375 0.905905 0.643509
0.855131 0.905174 0.652515
0.927019 0.862148 0.647863
0.149307 0.155587 0.185391
0.216984 0.172231 0.196111
0.280388 0.195929 0.203156
0.390640 0.218417 0.219074
0.561899 0.229687 0.237907
0.715104 0.217388 0.245821
0.846303 0.223666 0.256212
0.972480 0.298170 0.291995
1.000000 0.415298 0.357543
0.144070 0.185998 0.189859
0.181536 0.181536 0.181536
0.258976 0.209604 0.204741
0.384882 0.246269 0.236917
0.557708 0.257207 0.252851
0.707789 0.257907 0.262197
0.832613 0.307438 0.295520
0.957677 0.398010 0.353249
1.000000 0.453437 0.364135
0.153251 0.238170 0.237013
0.190534 0.237673 0.230294
0.233643 0.227385 0.202701
0.352034 0.263253 0.234049
0.530794 0.315071 0.278870
0.669781 0.359282 0.309839
0.783808 0.407245 0.333907
0.902670 0.459706 0.357285
1.000000 0.510598 0.375666
0.085994 0.323579 0.318869
0.157296 0.326967 0.315831
0.251596 0.336335 0.319602
0.342397 0.325497 0.270171
0.445181 0.348816 0.268941
0.588200 0.410817 0.309233
0.712375 0.463138 0.338877
0.843192 0.515025 0.366560
0.974086 0.564539 0.390179
0.145368 0.453624 0.429137
0.146388 0.455235 0.430331
0.148599 0.458462 0.432617
0.333830 0.466260 0.340600
0.476742 0.443975 0.336630
0.552132 0.457866 0.327325
0.645544 0.490380 0.338006
0.788604 0.551360 0.375424
0.928834 0.605763 0.406886
0.188206 0.568281 0.533678
0.188679 0.568916 0.534107
0.189285 0.569163 0.534009
0.380508 0.574442 0.531652
0.488701 0.573352 0.408943
0.588184 0.546147 0.408842
0.661265 0.558330 0.398582
0.749265 0.582367 0.400985
0.884774 0.639371 0.434529
0.218775 0.672011 0.633506
0.218938 0.672032 0.633426
0.219175 0.671677 0.632864
0.246323 0.671271 0.630300
0.482195 0.679613 0.539658
0.605746 0.680500 0.491874
0.697536 0.649522 0.490685
0.773011 0.660278 0.477562
0.859040 0.683549 0.478613
0.252147 0.781737 0.738469
0.252236 0.781632 0.738291
0.252437 0.781307 0.737784
0.252896 0.780948 0.737071
0.486626 0.788691 0.732784
0.568105 0.794065 0.597048
0.722886 0.795226 0.577965
0.813584 0.758349 0.575204
0.885434 0.767397 0.560685
0.288637 0.892895 0.843061
0.288691 0.892757 0.842867
0.288859 0.892482 0.842440
0.289315 0.892349 0.841991
0.290281 0.892793 0.841878
0.634274 0.905917 0.841573
0.670171 0.906037 0.650363
0.853008 0.905305 0.659515
0.925788 0.862425 0.654159
0.153432 0.166061 0.231381
0.211681 0.174729 0.242761
0.294147 0.197438 0.243279
0.402040 0.213066 0.245314
0.570951 0.221522 0.260847
0.722408 0.208857 0.268855
0.852668 0.219713 0.281191
0.979873 0.286642 0.310863
1.000000 0.379158 0.357138
0.146221 0.192687 0.232394
0.182600 0.190901 0.228008
0.273040 0.211853 0.242904
0.397340 0.232962 0.252264
0.567024 0.245520 0.270027
0.715117 0.251057 0.283867
0.839873 0.289427 0.305540
0.967071 0.364441 0.349378
1.000000 0.453351 0.401947
0.133232 0.226472 0.238125
0.171573 0.229977 0.237332
0.225816 0.225816 0.225816
0.383676 0.277226 0.271960
0.551907 0.313378 0.302827
0.691050 0.362333 0.339598
0.804791 0.411957 0.366026
0.923841 0.463602 0.390495
1.000000 0.511514 0.409838
0.073883 0.318698 0.324161
0.125668 0.326794 0.326842
0.228397 0.334775 0.325360
0.338116 0.325315 0.284504
0.459872 0.359190 0.297528
0.604045 0.417757 0.336729
0.729566 0.468520 0.367505
0.862421 0.519279 0.397771
0.996205 0.567970 0.425890
0.127485 0.453169 0.441165
0.128408 0.454756 0.442355
0.130298 0.457766 0.444509
0.362130 0.467234 0.412706
0.471340 0.444922 0.362126
0.536728 0.448311 0.343866
0.661114 0.500889 0.375775
0.808175 0.561097 0.416375
0.952029 0.613480 0.450356
0.168773 0.567141 0.545391
0.169154 0.567673 0.545745
0.169577 0.567796 0.545590
0.347837 0.571245 0.537564
0.476461 0.573934 0.438827
0.582172 0.546970 0.435677
0.646625 0.549743 0.417036
0.753654 0.585822 0.432280
0.902672 0.649809 0.475659
0.202090 0.670886 0.643433
0.202213 0.670878 0.643338
0.202362 0.670485 0.642773
0.202493 0.669470 0.641494
0.507200 0.680131 0.607714
0.595740 0.681039 0.517511
0.692637 0.650411 0.513770
0.761074 0.653525 0.493701
0.844671 0.674166 0.493408
0.239101 0.780872 0.746218
0.239172 0.780761 0.746040
0.239331 0.780431 0.745545
0.239725 0.780089 0.744875
0.462762 0.786752 0.737489
0.587799 0.794537 0.648565
0.715808 0.795684 0.598100
0.809912 0.759117 0.593285
0.876825 0.762892 0.573895
0.278244 0.892203 0.849155
0.278288 0.892066 0.848966
0.278435 0.891799 0.848556
0.278852 0.891676 0.848132
0.279756 0.892127 0.848047
0.616821 0.904065 0.843597
0.666138 0.906374 0.669830
0.848001 0.905641 0.675592
0.922856 0.862994 0.668502
0.143037 0.179815 0.305353
0.176507 0.176709 0.306599
0.276065 0.191869 0.325697
0.419319 0.202242 0.306369
0.585051 0.206020 0.307845
0.733780 0.193057 0.313766
0.862871 0.211335 0.327798
0.991596 0.276638 0.356607
1.000000 0.342152 0.379574
0.131876 0.202907 0.309210
0.171531 0.204469 0.309140
0.255056 0.209387 0.323045
0.418135 0.223769 0.315498
0.582207 0.230420 0.317605
0.727125 0.237382 0.329118
0.852038 0.277034 0.349890
0.980703 0.335853 0.378012
1.000000 0.389843 0.399181
0.104962 0.237422 0.320684
0.151656 0.240715 0.320576
0.222667 0.244844 0.320083
0.414014 0.271810 0.337917
0.569999 0.291902 0.341391
0.706388 0.327096 0.361406
0.828870 0.373884 0.386170
0.958896 0.436251 0.425189
1.000000 0.502508 0.468866
0.052492 0.300224 0.338453
0.052590 0.301630 0.338024
0.169195 0.316506 0.336909
0.319155 0.319155 0.319155
0.518422 0.394279 0.381297
0.653275 0.438631 0.410563
0.775915 0.483489 0.438085
0.908674 0.530649 0.468526
1.000000 0.573834 0.495766
0.098864 0.441150 0.452579
0.099697 0.443105 0.454130
0.101225 0.446509 0.456746
0.334256 0.462232 0.451356
0.457174 0.441519 0.389036
0.541833 0.454985 0.391036
0.694032 0.520339 0.438871
0.845134 0.574921 0.478143
0.991671 0.623639 0.513459
0.141862 0.565774 0.564361
0.142134 0.566149 0.564588
0.142367 0.566072 0.564305
0.296902 0.567192 0.551814
0.476365 0.573278 0.502528
0.571974 0.547199 0.472086
0.619526 0.531568 0.436112
0.778878 0.603450 0.488171
0.931727 0.664118 0.531079
0.179389 0.669537 0.658653
0.179469 0.669486 0.658530
0.179531 0.669039 0.657948
0.179550 0.668028 0.656728
0.492650 0.677069 0.644512
0.579608 0.682003 0.552703
0.685061 0.651181 0.544758
0.741283 0.641048 0.512155
0.857546 0.684308 0.534422
0.220463 0.779770 0.758296
0.220510 0.779650 0.758118
0.220621 0.779316 0.757641
0.220949 0.779011 0.757037
0.426517 0.784221 0.746417
0.616276 0.795382 0.725979
0.704669 0.796503 0.627158
0.804146 0.759959 0.618964
0.862651 0.754779 0.591111
0.262820 0.891268 0.858806
0.262852 0.891134 0.858626
0.262974 0.890883 0.858244
0.263342 0.890780 0.857861
0.264164 0.891243 0.857817
0.590453 0.901472 0.848017
0.689786 0.906978 0.729685
0.840179 0.906243 0.699667
0.918185 0.863679 0.689732
0.060729 0.199423 0.423824
0.129265 0.201726 0.423827
0.207445 0.193954 0.428273
0.424250 0.199962 0.462048
0.591814 0.183915 0.407968
0.746837 0.167284 0.395356
0.875442 0.195214 0.406057
1.000000 0.259391 0.429572
1.000000 0.321583 0.448232
0.052021 0.218459 0.427123
0.114191 0.220485 0.427137
0.203265 0.221875 0.427177
0.418427 0.219633 0.464636
0.591232 0.208740 0.416144
0.741206 0.214866 0.409473
0.866712 0.257537 0.424201
0.997120 0.316087 0.447573
1.000000 0.367571 0.464524
0.055689 0.253310 0.435846
0.062407 0.253722 0.435718
0.188818 0.259081 0.435720
0.395169 0.262994 0.466606
0.585697 0.276679 0.437402
0.724071 0.309162 0.437803
0.847046 0.355396 0.454544
0.978131 0.405557 0.477574
1.000000 0.445865 0.494315
0.062769 0.323282 0.448136
0.062879 0.324792 0.447822
0.106896 0.331341 0.447039
0.320052 0.345689 0.444600
0.559807 0.392475 0.472820
0.688094 0.421337 0.472094
0.813837 0.459681 0.489777
0.949884 0.499817 0.513060
1.000000 0.534085 0.532716
0.072259 0.416631 0.461647
0.072327 0.417610 0.461334
0.072378 0.418822 0.460484
0.275192 0.438960 0.458897
0.435459 0.435459 0.435459
0.610296 0.497611 0.486736
0.758555 0.554731 0.530607
0.904651 0.599344 0.564238
1.000000 0.639420 0.593931
0.114202 0.542129 0.564816
0.114377 0.542452 0.565024
0.114436 0.542249 0.564689
0.236627 0.553686 0.563933
0.453895 0.562811 0.544340
0.552818 0.538778 0.481647
0.645597 0.555038 0.498170
0.818713 0.626207 0.552996
0.972558 0.680639 0.593588
0.155032 0.659498 0.668426
0.155070 0.659450 0.668323
0.155058 0.659039 0.667814
0.155005 0.658221 0.666831
0.447652 0.672260 0.654930
0.568351 0.673262 0.595868
0.673978 0.649047 0.568848
0.714075 0.621942 0.526791
0.883167 0.703385 0.588078
0.199111 0.778753 0.773673
0.199139 0.778623 0.773494
0.199209 0.778293 0.773041
0.199491 0.778054 0.772527
0.381229 0.781778 0.759987
0.600175 0.792214 0.757719
0.689462 0.797395 0.660070
0.796727 0.760513 0.648244
0.842770 0.742164 0.607780
0.242502 0.890130 0.872553
0.242522 0.890002 0.872386
0.242618 0.889778 0.872046
0.242932 0.889705 0.871718
0.243662 0.890181 0.871725
0.553804 0.898234 0.856341
0.721272 0.907882 0.812564
0.828573 0.907145 0.731690
0.911257 0.864197 0.717549
0.060571 0.220663 0.533446
0.060609 0.221258 0.533304
0.157050 0.222331 0.533300
0.388410 0.204796 0.563666
0.590351 0.183132 0.548805
0.737842 0.161719 0.502480
0.885102 0.184752 0.489590
1.000000 0.247549 0.504863
1.000000 0.306707 0.517640
0.062170 0.237825 0.535499
0.062172 0.237956 0.535380
0.150187 0.238895 0.535355
0.380394 0.222668 0.563230
0.592279 0.207316 0.557826
0.735759 0.207348 0.512216
0.878265 0.243116 0.504793
1.000000 0.300686 0.519770
1.000000 0.350169 0.530982
0.065465 0.271910 0.540783
0.065468 0.272049 0.540662
0.131342 0.274096 0.540475
0.355609 0.266008 0.559660
0.595019 0.277235 0.584822
0.727313 0.299067 0.533116
0.862085 0.340709 0.530888
0.993932 0.389891 0.545558
1.000000 0.427343 0.555850
0.072246 0.344515 0.547578
0.072361 0.346062 0.547317
0.072540 0.348726 0.546613
0.307219 0.361668 0.545964
0.552414 0.385826 0.592726
0.707796 0.416213 0.563265
0.834608 0.449409 0.560845
0.969286 0.486458 0.574696
1.000000 0.515990 0.586705
0.081030 0.437168 0.554912
0.081083 0.437971 0.554650
0.081102 0.438769 0.553944
0.258335 0.453521 0.552844
0.437387 0.456459 0.540975
0.640808 0.503828 0.575080
0.796398 0.545927 0.588429
0.937216 0.575301 0.604102
1.000000 0.602336 0.619944
0.089283 0.517498 0.566957
0.089264 0.517462 0.566733
0.089170 0.516908 0.566146
0.169602 0.523484 0.565080
0.412706 0.545807 0.561793
0.535402 0.535402 0.535402
0.714198 0.593685 0.584962
0.886367 0.665800 0.644159
1.000000 0.707345 0.674511
0.130101 0.636222 0.667677
0.130099 0.636100 0.667520
0.130023 0.635595 0.666956
0.129927 0.634800 0.666039
0.398984 0.663980 0.668382
0.548372 0.663351 0.635422
0.655041 0.640315 0.576322
0.751763 0.654213 0.593481
0.922777 0.728229 0.651018
0.174517 0.762254 0.777785
0.174527 0.762156 0.777649
0.174566 0.761946 0.777337
0.174818 0.762053 0.777190
0.318446 0.778609 0.779461
0.554034 0.786851 0.767588
0.664909 0.782811 0.686478
0.783417 0.755863 0.664582
0.812076 0.720451 0.620519
0.218528 0.887547 0.888932
0.218540 0.887466 0.888817
0.218621 0.887389 0.888636
0.218891 0.887584 0.888600
0.219533 0.888503 0.889084
0.507221 0.894743 0.869894
0.720860 0.905143 0.869328
0.805885 0.904319 0.759338
0.901732 0.863968 0.749061
0.069997 0.240560 0.631653
0.070013 0.240851 0.631549
0.069896 0.239698 0.631285
0.357248 0.211758 0.655630
0.621181 0.192976 0.689174
0.713136 0.172784 0.611925
0.871810 0.196562 0.594642
1.000000 0.241223 0.582038
1.000000 0.296984 0.587772
0.071433 0.256286 0.633282
0.071433 0.256376 0.633187
0.071283 0.254811 0.632930
0.349542 0.228958 0.654484
0.614523 0.217771 0.689963
0.709604 0.216198 0.620913
0.869365 0.246081 0.604361
1.000000 0.290053 0.594993
1.000000 0.337479 0.599313
0.074590 0.290048 0.637448
0.074628 0.290606 0.637325
0.074614 0.290802 0.636944
0.321191 0.274541 0.648121
0.583019 0.288194 0.687550
0.705079 0.303384 0.645790
0.861861 0.335250 0.623453
1.000000 0.376802 0.618709
1.000000 0.411979 0.621351
0.081468 0.365922 0.642768
0.081576 0.367368 0.642549
0.081684 0.369154 0.641952
0.290347 0.378087 0.641454
0.508290 0.384907 0.671737
0.705630 0.412856 0.692616
0.847410 0.441808 0.649722
0.987635 0.474500 0.646354
1.000000 0.500677 0.649280
0.089989 0.457499 0.649474
0.090015 0.457973 0.649255
0.090004 0.458349 0.648679
0.232404 0.467960 0.647863
0.434447 0.479374 0.647200
0.640934 0.505503 0.688955
0.827691 0.547420 0.681454
0.961586 0.567654 0.674392
1.000000 0.589661 0.679725
0.097925 0.536952 0.660132
0.097897 0.536795 0.659947
0.097799 0.536111 0.659464
0.097608 0.534728 0.658586
0.400662 0.560042 0.657665
0.535788 0.554762 0.639725
0.741971 0.602263 0.676913
0.924520 0.656156 0.701519
1.000000 0.681353 0.712479
0.105986 0.612661 0.675132
0.105955 0.612477 0.674938
0.105870 0.611954 0.674439
0.105736 0.611205 0.673557
0.342151 0.634406 0.672279
0.509870 0.649379 0.665016
0.637283 0.637283 0.637283
0.825250 0.695213 0.686447
0.997475 0.774037 0.750626
0.147355 0.736465 0.776952
0.147352 0.736360 0.776818
0.147378 0.736180 0.776548
0.147621 0.736387 0.776512
0.216427 0.744901 0.777635
0.499871 0.777550 0.781910
0.647041 0.770876 0.734850
0.762257 0.746669 0.676705
0.847044 0.749543 0.685268
0.191660 0.863306 0.887771
0.191670 0.863242 0.887676
0.191746 0.863210 0.887547
0.191990 0.863441 0.887561
0.192555 0.864323 0.888039
0.448997 0.891325 0.889963
0.670057 0.897777 0.878248
0.757569 0.882191 0.763736
0.883783 0.855440 0.755689
0.079947 0.261393 0.735393
0.079945 0.261442 0.735315
0.079621 0.257727 0.735098
0.316107 0.220130 0.752376
0.592310 0.203942 0.788904
0.782796 0.197255 0.806619
0.845323 0.215334 0.711877
1.000000 0.253372 0.694166
1.000000 0.287235 0.670252
0.081285 0.276188 0.736838
0.081274 0.276119 0.736761
0.080950 0.272425 0.736541
0.308288 0.236927 0.750782
0.579279 0.232148 0.787281
0.770451 0.238286 0.806573
0.841650 0.259050 0.720619
1.000000 0.294381 0.702480
1.000000 0.324673 0.680595
0.084512 0.311580 0.740382
0.084562 0.312308 0.740250
0.084486 0.311735 0.739886
0.286343 0.300094 0.741399
0.539311 0.300778 0.780274
0.740791 0.319601 0.805745
0.831437 0.340668 0.737896
1.000000 0.371642 0.719464
1.000000 0.395980 0.700920
0.091433 0.389302 0.744909
0.091493 0.390176 0.744718
0.091546 0.391264 0.744210
0.260128 0.397064 0.743765
0.463706 0.391353 0.761498
0.683510 0.418319 0.798731
0.822299 0.439377 0.768826
0.995400 0.464530 0.742609
1.000000 0.484334 0.727421
0.099624 0.478653 0.751026
0.099629 0.478862 0.750844
0.099592 0.478856 0.750372
0.173909 0.482633 0.749662
0.416306 0.494207 0.749281
0.599578 0.503779 0.778644
0.824234 0.536261 0.817481
0.981774 0.559742 0.770352
1.000000 0.576073 0.756876
0.107269 0.556861 0.760685
0.107236 0.556626 0.760529
0.107139 0.555882 0.760125
0.106974 0.554644 0.759399
0.378261 0.573845 0.758806
0.534967 0.581995 0.756706
0.745651 0.607018 0.797766
0.960085 0.659780 0.802999
1.000000 0.674431 0.789149
0.115089 0.633013 0.773456
0.115059 0.632816 0.773292
0.114982 0.632316 0.772875
0.114875 0.631732 0.772141
0.307135 0.648720 0.771210
0.500276 0.666382 0.770061
0.637148 0.656677 0.746455
0.851120 0.705756 0.785577
1.000000 0.765850 0.815053
0.123586 0.713594 0.788274
0.123563 0.713475 0.788107
0.123512 0.713250 0.787687
0.123449 0.713152 0.786950
0.123408 0.713559 0.785867
0.441336 0.745707 0.784395
0.610527 0.758056 0.772198
0.743987 0.743987 0.743987
0.920917 0.793134 0.784967
0.163894 0.836468 0.886879
0.163909 0.836432 0.886813
0.163984 0.836441 0.886728
0.164224 0.836746 0.886819
0.164716 0.837560 0.887256
0.379775 0.860857 0.888573
0.615679 0.886754 0.891243
0.747156 0.868525 0.824228
0.861981 0.847242 0.777265
0.090177 0.282709 0.842072
0.090067 0.281449 0.842002
0.089582 0.275730 0.841813
0.257022 0.229387 0.850026
0.547799 0.220471 0.888070
0.756455 0.225971 0.912210
0.924539 0.244251 0.923469
0.986366 0.272384 0.815931
1.000000 0.297522 0.786910
0.091429 0.296766 0.843257
0.091321 0.295530 0.843185
0.090873 0.290288 0.842988
0.247487 0.248119 0.847342
0.532095 0.250248 0.885016
0.738935 0.263144 0.909756
0.914039 0.282886 0.924360
0.983395 0.308301 0.823104
1.000000 0.329211 0.793740
0.094842 0.335378 0.845961
0.094844 0.335521 0.845831
0.094760 0.334850 0.845474
0.253496 0.332714 0.845358
0.488896 0.316817 0.875335
0.697951 0.336540 0.903065
0.888350 0.357452 0.923761
0.975824 0.377917 0.837780
1.000000 0.392312 0.808248
0.101664 0.413393 0.849405
0.101691 0.413873 0.849236
0.101707 0.414464 0.848796
0.201038 0.417582 0.848270
0.412373 0.401685 0.854272
0.633340 0.425464 0.889710
0.850402 0.448207 0.922412
0.963114 0.463463 0.857556
1.000000 0.474671 0.829181
0.109448 0.499911 0.854278
0.109436 0.499908 0.854123
0.109379 0.499608 0.853725
0.109270 0.498971 0.853021
0.390490 0.510814 0.852833
0.553553 0.505278 0.867923
0.794256 0.534684 0.915149
0.945826 0.551990 0.880550
1.000000 0.565295 0.855189
0.116714 0.576451 0.861929
0.116679 0.576173 0.861792
0.116587 0.575431 0.861441
0.116451 0.574427 0.860815
0.345127 0.588303 0.860349
0.518358 0.597091 0.859868
0.716500 0.609869 0.895303
0.947210 0.646417 0.929181
1.000000 0.668326 0.887342
0.124218 0.652671 0.871620
0.124189 0.652476 0.871478
0.124123 0.652034 0.871116
0.124039 0.651635 0.870481
0.245964 0.661468 0.869672
0.480333 0.679958 0.868854
0.639890 0.684993 0.862372
0.856103 0.712052 0.902985
1.000000 0.770849 0.916819
0.132323 0.733397 0.882411
0.132304 0.733307 0.882266
0.132265 0.733177 0.881900
0.132219 0.733197 0.881256
0.132196 0.733715 0.880305
0.416370 0.760061 0.879201
0.609401 0.777546 0.877645
0.743111 0.760853 0.846769
0.940405 0.805200 0.882310
0.140661 0.813733 0.895203
0.140646 0.813676 0.895070
0.140612 0.813569 0.894734
0.140570 0.813583 0.894147
0.140511 0.813629 0.893275
0.302579 0.829584 0.892089
0.564104 0.855002 0.890550
0.718483 0.859381 0.869889
0.845403 0.845403 0.845403
