data/luts/Agfalike G.cube
# Baked from the Lightroom preset "JSZ-CEDAR G" by scripts/lightroom-preset-lut.lisp
# Colour only; not in this LUT (add the node instead):
#   Clarity +20
#   Sharpening 60, radius 1.4
#   White balance 4600 K, tint -3, taken relative to 5500 K daylight
TITLE "Agfalike G"
LUT_3D_SIZE 5
DOMAIN_MIN 0.0 0.0 0.0
DOMAIN_MAX 1.0 1.0 1.0
0.135672 0.128187 0.122464
0.258460 0.178521 0.166175
0.521795 0.231933 0.255788
0.737521 0.291094 0.328490
0.998556 0.435615 0.406246
0.151081 0.229877 0.176413
0.248918 0.249292 0.182944
0.524408 0.329547 0.278500
0.728557 0.432686 0.345987
0.999907 0.540036 0.424574
0.145155 0.476814 0.267470
0.145501 0.478024 0.267739
0.508298 0.516276 0.245377
0.712503 0.577625 0.356560
0.998652 0.663254 0.480115
0.202548 0.670456 0.406881
0.202576 0.670545 0.408149
0.459243 0.683744 0.386720
0.702030 0.735327 0.400583
0.977389 0.810752 0.530684
0.272615 0.893046 0.549361
0.272655 0.893169 0.550045
0.273186 0.894841 0.552693
0.677785 0.914561 0.520865
0.956205 0.962256 0.530063
0.173990 0.174430 0.241467
0.249244 0.181260 0.242666
0.525133 0.235403 0.329953
0.734160 0.302926 0.403069
0.995031 0.435229 0.491512
0.149147 0.244646 0.254771
0.237361 0.247134 0.257308
0.520860 0.322444 0.339663
0.717817 0.419184 0.409079
0.990376 0.520778 0.502507
0.147265 0.484562 0.360893
0.147381 0.484973 0.362359
0.499822 0.514808 0.367554
0.701116 0.576975 0.464947
0.988962 0.646973 0.553781
0.204249 0.675800 0.479546
0.204286 0.675920 0.480194
0.460264 0.666938 0.473837
0.695775 0.733412 0.480661
0.969574 0.811059 0.598301
0.273525 0.895760 0.587171
0.273581 0.895936 0.587545
0.274117 0.897630 0.589188
0.675460 0.909426 0.558906
0.954498 0.962393 0.571237
0.158438 0.272705 0.509548
0.269860 0.273267 0.510799
0.516160 0.241489 0.513453
0.711767 0.330463 0.575028
0.987133 0.452880 0.657386
0.159232 0.333182 0.515660
0.264479 0.336035 0.516499
0.509786 0.338774 0.517797
0.698380 0.426410 0.572286
0.981808 0.523956 0.655823
0.158682 0.506473 0.522687
0.158730 0.505594 0.522818
0.475580 0.503620 0.523906
0.682125 0.551671 0.571537
0.974894 0.625455 0.658820
0.207655 0.686486 0.586298
0.207765 0.686841 0.586325
0.454390 0.685722 0.582062
0.682489 0.721820 0.590688
0.957312 0.809431 0.689328
0.275981 0.903133 0.681360
0.276089 0.903473 0.682071
0.276563 0.904966 0.684505
0.666150 0.885287 0.659068
0.943186 0.960302 0.693667
0.224223 0.357909 0.736003
0.329571 0.350182 0.736968
0.570646 0.336539 0.739479
0.712291 0.382888 0.742326
0.975315 0.479431 0.812437
0.224603 0.426058 0.740864
0.311474 0.427040 0.741438
0.556504 0.435781 0.742837
0.705669 0.462875 0.744878
0.970071 0.536158 0.812284
0.226767 0.582183 0.750981
0.226904 0.581010 0.751449
0.516299 0.580156 0.752668
0.700096 0.579638 0.755500
0.962043 0.626582 0.817619
0.234166 0.723258 0.770434
0.234264 0.724081 0.770711
0.417674 0.728660 0.770972
0.680104 0.732623 0.771609
0.917502 0.778520 0.812810
0.280162 0.915753 0.832174
0.280310 0.916221 0.832565
0.280263 0.916068 0.833223
0.680552 0.904557 0.825353
0.887664 0.918921 0.832682
0.289598 0.448261 0.959780
0.397920 0.449096 0.959950
0.598159 0.465690 0.959955
0.771127 0.494132 0.959388
0.961010 0.510000 0.958962
0.289556 0.527448 0.960394
0.335733 0.529235 0.960341
0.578647 0.540431 0.959897
0.766114 0.553678 0.959364
0.958828 0.553968 0.959769
0.291307 0.654689 0.962609
0.291354 0.654019 0.962798
0.533632 0.654665 0.962576
0.763748 0.648718 0.963012
0.954474 0.644401 0.964010
0.295366 0.795032 0.968173
0.295410 0.796376 0.968242
0.357637 0.800915 0.968242
0.735867 0.801882 0.967193
0.923811 0.807979 0.967535
0.301375 0.945092 0.979708
0.301454 0.945398 0.979955
0.301640 0.943719 0.980653
0.704590 0.941260 0.980846
0.895050 0.942353 0.982809
