data/luts/Agfalike D.cube
# Baked from the Lightroom preset "JSZ-CEDAR D" by scripts/lightroom-preset-lut.lisp
# Colour only; not in this LUT (add the node instead):
#   Clarity +33
#   Dehaze +21
#   Vignette -10, midpoint 0, feather 100, roundness +7
#   Grain 12, size 33
#   Sharpening 60, radius 1.4
TITLE "Agfalike D"
LUT_3D_SIZE 33
DOMAIN_MIN 0.0 0.0 0.0
DOMAIN_MAX 1.0 1.0 1.0
0.175649 0.168808 0.163576
0.197547 0.177446 0.172370
0.222214 0.189447 0.184592
0.251080 0.204325 0.199569
0.276216 0.217349 0.211967
0.298782 0.228769 0.222045
0.321164 0.240952 0.232242
0.343999 0.253907 0.242845
0.367804 0.266818 0.253830
0.392532 0.279672 0.265177
0.420198 0.292912 0.277590
0.450426 0.306401 0.290914
0.481473 0.319766 0.304538
0.512096 0.332822 0.318048
0.541491 0.345530 0.331201
0.569603 0.357981 0.344010
0.595712 0.370227 0.356195
0.619618 0.382401 0.367632
0.641297 0.394569 0.378348
0.660786 0.406766 0.388375
0.678151 0.419044 0.397755
0.693338 0.431947 0.406588
0.706313 0.445366 0.414848
0.717394 0.459017 0.422571
0.726773 0.472644 0.429767
0.734539 0.486025 0.436424
0.740767 0.498979 0.442534
0.745517 0.511362 0.448097
0.748829 0.523061 0.453111
0.768597 0.537549 0.463258
0.796919 0.553419 0.476001
0.828063 0.569566 0.489530
0.861316 0.585704 0.503622
0.183753 0.190200 0.170372
0.198646 0.191140 0.171195
0.223685 0.204891 0.187097
0.250127 0.220063 0.202229
0.273696 0.232619 0.214108
0.295940 0.243459 0.223855
0.318663 0.254598 0.233902
0.342135 0.266057 0.244347
0.366429 0.277792 0.255201
0.391582 0.289758 0.266463
0.419749 0.302402 0.278879
0.450220 0.315433 0.292162
0.481352 0.328432 0.305719
0.511967 0.341182 0.319151
0.541321 0.353620 0.332227
0.569377 0.365824 0.344957
0.595403 0.377795 0.357081
0.619228 0.389672 0.368461
0.640834 0.401524 0.379114
0.660260 0.413386 0.389072
0.677511 0.425565 0.398411
0.692578 0.438374 0.407199
0.705464 0.451551 0.415388
0.716487 0.464863 0.423029
0.725826 0.478094 0.430136
0.733567 0.491051 0.436703
0.739781 0.503574 0.442728
0.744525 0.515535 0.448211
0.747838 0.526829 0.453152
0.768208 0.541175 0.463440
0.796649 0.556906 0.476184
0.827888 0.572928 0.489717
0.861229 0.588915 0.503810
0.193705 0.214146 0.179414
0.208353 0.213909 0.179146
0.224356 0.215828 0.181857
0.248838 0.229286 0.199360
0.271836 0.243588 0.215916
0.294264 0.254386 0.225285
0.317207 0.265158 0.235220
0.340941 0.276201 0.245585
0.365474 0.287522 0.256371
0.390945 0.299139 0.267618
0.419519 0.311554 0.280076
0.450165 0.324375 0.293340
0.481329 0.337177 0.306847
0.511896 0.349737 0.320210
0.541184 0.361990 0.333218
0.569160 0.374004 0.345867
0.595085 0.385747 0.357922
0.618811 0.397351 0.369255
0.640329 0.408902 0.379851
0.659655 0.420535 0.389758
0.676750 0.432726 0.399071
0.691696 0.445374 0.407802
0.704492 0.458254 0.415913
0.715457 0.471184 0.423466
0.724757 0.483981 0.430480
0.732473 0.496481 0.436955
0.738673 0.508543 0.442891
0.743412 0.520052 0.448291
0.746728 0.530912 0.453157
0.767783 0.545135 0.463611
0.796355 0.560725 0.476361
0.827705 0.576602 0.489902
0.861144 0.592431 0.503996
0.206037 0.237433 0.187484
0.220258 0.236847 0.187097
0.232678 0.236509 0.186790
0.249265 0.239497 0.191651
0.270973 0.250066 0.206762
0.293094 0.262367 0.221734
0.316163 0.276084 0.236912
0.340078 0.287347 0.246891
0.364709 0.298659 0.257621
0.390534 0.310279 0.268912
0.419519 0.322734 0.281449
0.450302 0.335532 0.294709
0.481441 0.348263 0.308162
0.511892 0.360716 0.321447
0.541063 0.372833 0.334374
0.568906 0.384679 0.346920
0.594677 0.396205 0.358863
0.618251 0.407501 0.370153
0.639616 0.418769 0.380702
0.658708 0.430458 0.390592
0.675608 0.442548 0.399858
0.690402 0.454899 0.408506
0.703086 0.467336 0.416513
0.713980 0.479730 0.423951
0.723231 0.491937 0.430846
0.730917 0.503823 0.437202
0.737103 0.515268 0.443025
0.741839 0.526173 0.448320
0.745161 0.536453 0.453091
0.767196 0.550573 0.463799
0.795954 0.565981 0.476565
0.827470 0.581646 0.490118
0.861048 0.597267 0.504221
0.219136 0.258131 0.192765
0.230638 0.257721 0.192464
0.241371 0.257420 0.192179
0.254217 0.257174 0.191835
0.271088 0.260366 0.197601
0.292661 0.270219 0.212273
0.315490 0.282356 0.227713
0.339395 0.296152 0.243781
0.364211 0.310477 0.258990
0.390554 0.322572 0.270185
0.419900 0.335366 0.282827
0.450741 0.348362 0.296087
0.481765 0.361187 0.309483
0.512008 0.373650 0.322680
0.541007 0.385721 0.335512
0.568638 0.397454 0.347939
0.594188 0.408794 0.359754
0.617500 0.419997 0.370976
0.638522 0.431404 0.381547
0.657330 0.443047 0.391415
0.674013 0.454864 0.400615
0.688633 0.466758 0.409163
0.701192 0.478603 0.417047
0.712006 0.490316 0.424356
0.721205 0.501792 0.431116
0.728861 0.512924 0.437340
0.735033 0.523617 0.443036
0.739770 0.533787 0.448214
0.743093 0.543384 0.452879
0.766452 0.557463 0.463950
0.795466 0.572631 0.476746
0.827205 0.588035 0.490325
0.860963 0.603411 0.504447
0.230541 0.278410 0.196601
0.240075 0.278138 0.196356
0.249473 0.277914 0.196107
0.261209 0.277698 0.195785
0.274833 0.277533 0.195394
0.292847 0.281413 0.202324
0.315307 0.291427 0.217532
0.339013 0.303590 0.233509
0.363711 0.317354 0.250056
0.390889 0.333233 0.268291
0.420766 0.348869 0.283979
0.451558 0.362258 0.297236
0.482355 0.375329 0.310565
0.512290 0.387920 0.323656
0.541062 0.400045 0.336388
0.568327 0.411870 0.348694
0.593430 0.423491 0.360407
0.616307 0.434979 0.371534
0.636963 0.446377 0.382091
0.655475 0.457766 0.391947
0.671930 0.469140 0.401089
0.686363 0.480435 0.409541
0.698791 0.491562 0.417310
0.709524 0.502485 0.424495
0.718672 0.513128 0.431126
0.726300 0.523411 0.437221
0.732463 0.533258 0.442795
0.737197 0.542620 0.447858
0.740502 0.551499 0.452420
0.765586 0.565613 0.463985
0.794936 0.580484 0.476838
0.826950 0.595611 0.490463
0.860931 0.610723 0.504619
0.241283 0.299888 0.200260
0.249531 0.299708 0.200049
0.257957 0.299548 0.199824
0.268802 0.299376 0.199519
0.281718 0.299221 0.199134
0.296288 0.299106 0.198668
0.315531 0.303554 0.206566
0.338958 0.313784 0.222339
0.363762 0.326117 0.238979
0.391658 0.341079 0.257767
0.421700 0.358098 0.278007
0.452575 0.376296 0.298706
0.483190 0.390229 0.311090
0.512593 0.403266 0.324059
0.540888 0.415934 0.336715
0.567557 0.428211 0.348902
0.592155 0.440085 0.360495
0.614613 0.451623 0.371495
0.634929 0.462872 0.381921
0.653147 0.473861 0.391789
0.669368 0.484665 0.400936
0.683606 0.495262 0.409341
0.695904 0.505598 0.417038
0.706558 0.515673 0.424137
0.715657 0.525432 0.430673
0.723261 0.534817 0.436669
0.729406 0.543806 0.442145
0.734109 0.552385 0.447116
0.737513 0.560500 0.451623
0.764674 0.574713 0.463808
0.794423 0.589300 0.476755
0.826764 0.604157 0.490454
0.861005 0.619007 0.504669
0.251600 0.322536 0.203597
0.258988 0.322411 0.203403
0.266712 0.322293 0.203190
0.276858 0.322156 0.202895
0.289171 0.322026 0.202512
0.303262 0.321936 0.202041
0.318780 0.321914 0.201481
0.339072 0.326858 0.210008
0.364427 0.337762 0.226925
0.392721 0.351484 0.245822
0.422646 0.367268 0.265718
0.453082 0.384289 0.285757
0.483146 0.401810 0.305225
0.512234 0.419256 0.323572
0.540189 0.432993 0.335936
0.566298 0.445523 0.348000
0.590414 0.457478 0.359476
0.612467 0.468924 0.370363
0.632452 0.479917 0.380677
0.650405 0.490496 0.390446
0.666392 0.500685 0.399689
0.680422 0.510541 0.408173
0.692590 0.520068 0.415904
0.703166 0.529287 0.423002
0.712213 0.538174 0.429514
0.719763 0.546733 0.435471
0.725859 0.554924 0.440900
0.730554 0.562657 0.445818
0.736314 0.570569 0.451038
0.763803 0.584468 0.463313
0.794008 0.598812 0.476399
0.826719 0.613430 0.490212
0.861251 0.628038 0.504517
0.261038 0.347737 0.206598
0.267849 0.347722 0.206419
0.275072 0.347720 0.206220
0.284692 0.347738 0.205939
0.296520 0.347794 0.205568
0.310208 0.347907 0.205102
0.325406 0.348099 0.204538
0.342081 0.348347 0.203855
0.364589 0.353112 0.211833
0.393156 0.365106 0.230708
0.422937 0.379256 0.250275
0.452977 0.394767 0.269803
0.482521 0.410920 0.288668
0.511144 0.427206 0.306477
0.538763 0.443378 0.323148
0.564642 0.458905 0.338115
0.588342 0.473946 0.355177
0.609992 0.485972 0.367468
0.629646 0.496679 0.377764
0.647336 0.506845 0.387518
0.663114 0.516507 0.396759
0.676927 0.525656 0.405476
0.688952 0.534411 0.413458
0.699411 0.542869 0.420721
0.708355 0.551008 0.427337
0.715847 0.558766 0.433360
0.721932 0.566099 0.438829
0.726638 0.572973 0.443772
0.735190 0.580942 0.449922
0.763079 0.594602 0.462368
0.793790 0.608763 0.475654
0.826906 0.623189 0.489631
0.861751 0.637591 0.504068
0.269168 0.376043 0.208882
0.275654 0.376068 0.208697
0.282589 0.376104 0.208489
0.291899 0.376168 0.208192
0.303437 0.376270 0.207795
0.316874 0.376426 0.207290
0.331984 0.376634 0.206667
0.349450 0.376762 0.205857
0.368900 0.376795 0.204842
0.393476 0.381801 0.213267
0.423057 0.393984 0.232540
0.452669 0.407705 0.251607
0.481675 0.422249 0.269918
0.509911 0.437200 0.287310
0.536981 0.452127 0.303466
0.562319 0.466571 0.317953
0.585802 0.480328 0.330665
0.607356 0.493292 0.341848
0.626657 0.505906 0.357904
0.644063 0.517736 0.372587
0.659597 0.528751 0.385905
0.673182 0.538872 0.397824
0.685036 0.548179 0.408549
0.695358 0.556096 0.416699
0.704227 0.563449 0.423680
0.711681 0.570402 0.429969
0.717750 0.576932 0.435637
0.722451 0.582760 0.440240
0.734255 0.591362 0.448083
0.762630 0.604876 0.460812
0.793882 0.618928 0.474380
0.827424 0.633219 0.488587
0.862595 0.647459 0.503210
0.276826 0.405234 0.209626
0.283112 0.405256 0.209422
0.289864 0.405286 0.209190
0.298970 0.405334 0.208857
0.310305 0.405410 0.208410
0.323717 0.405504 0.207831
0.339644 0.405532 0.207072
0.357726 0.405476 0.206111
0.377384 0.405350 0.204940
0.398017 0.405190 0.203558
0.423548 0.410913 0.213220
0.452625 0.422700 0.231753
0.481072 0.435517 0.249511
0.508863 0.448977 0.266443
0.535292 0.462502 0.282005
0.560042 0.475730 0.295930
0.582994 0.488443 0.308098
0.604094 0.500494 0.318438
0.623332 0.511795 0.326905
0.640627 0.522482 0.336644
0.655850 0.532840 0.351923
0.669200 0.542404 0.365701
0.680930 0.551255 0.378214
0.691149 0.559419 0.389599
0.699914 0.566870 0.399649
0.707296 0.573557 0.407778
0.713319 0.579498 0.414294
0.717995 0.584710 0.419415
0.733542 0.595381 0.432054
0.762562 0.613007 0.454215
0.794408 0.629132 0.472381
0.828385 0.643348 0.486912
0.863879 0.657472 0.501799
0.284921 0.433765 0.208113
0.291037 0.433763 0.207878
0.297626 0.433764 0.207610
0.306575 0.433767 0.207224
0.318196 0.433736 0.206686
0.332409 0.433646 0.205969
0.348880 0.433485 0.205051
0.367148 0.433254 0.203915
0.386689 0.432968 0.202549
0.406977 0.432663 0.200950
0.427522 0.432388 0.199121
0.453230 0.439135 0.210333
0.481096 0.450278 0.227409
0.508179 0.462168 0.243530
0.533841 0.474249 0.258203
0.557904 0.486196 0.271264
0.580262 0.497776 0.282589
0.600860 0.508830 0.292083
0.619688 0.519251 0.299655
0.636762 0.528974 0.305258
0.652047 0.537958 0.309246
0.665324 0.546612 0.320699
0.676900 0.555032 0.338085
0.687006 0.562808 0.353307
0.695679 0.569932 0.366716
0.702951 0.576394 0.378529
0.708891 0.582132 0.387936
0.713515 0.587154 0.395287
0.733287 0.599483 0.412705
0.762991 0.616861 0.436775
0.795444 0.635901 0.462569
0.829900 0.653459 0.484358
0.865702 0.667507 0.499627
0.294249 0.460988 0.203440
0.300451 0.460944 0.203145
0.307281 0.460885 0.202804
0.316733 0.460787 0.202305
0.328817 0.460634 0.201618
0.343285 0.460414 0.200717
0.359758 0.460122 0.199581
0.377785 0.459762 0.198189
0.396881 0.459350 0.196527
0.416575 0.458915 0.194585
0.436433 0.458499 0.192353
0.456145 0.458144 0.189818
0.481937 0.465992 0.202477
0.508119 0.476298 0.217409
0.532953 0.486920 0.230817
0.556277 0.497546 0.242667
0.577988 0.507950 0.253049
0.598031 0.517971 0.261941
0.616389 0.527502 0.269351
0.633070 0.536474 0.275307
0.647985 0.544797 0.279771
0.661238 0.552648 0.286797
0.673033 0.559987 0.293722
0.683046 0.566606 0.300032
0.691604 0.573277 0.318323
0.698794 0.579488 0.336666
0.704627 0.585087 0.352767
0.709143 0.589961 0.365136
0.733737 0.604046 0.389265
0.764140 0.621154 0.416245
0.797128 0.639880 0.444318
0.832026 0.659933 0.473309
0.868161 0.677497 0.496351
0.307742 0.486122 0.193729
0.314049 0.486015 0.193323
0.320929 0.485888 0.192858
0.330360 0.485701 0.192180
0.342293 0.485443 0.191252
0.356442 0.485105 0.190043
0.372423 0.484689 0.188513
0.389800 0.484201 0.186685
0.408125 0.483657 0.184565
0.426966 0.483087 0.182164
0.445950 0.482524 0.179500
0.464981 0.481975 0.176574
0.483951 0.481852 0.174127
0.509071 0.490741 0.188328
0.532946 0.500024 0.201353
0.555420 0.509420 0.213097
0.576388 0.518723 0.224349
0.595793 0.527830 0.237368
0.613609 0.536598 0.249159
0.629816 0.544936 0.259707
0.644310 0.552738 0.268942
0.657284 0.560030 0.277009
0.668855 0.566825 0.284000
0.679052 0.573105 0.289944
0.687859 0.578839 0.294838
0.694900 0.583816 0.298441
0.700612 0.588245 0.301055
0.706508 0.593402 0.319102
0.735097 0.608767 0.355483
0.766156 0.625653 0.389082
0.799638 0.644078 0.421428
0.834891 0.663790 0.453485
0.871318 0.684513 0.485503
0.325521 0.508670 0.178362
0.331528 0.508519 0.177936
0.338069 0.508347 0.177454
0.347016 0.508100 0.176763
0.358312 0.507768 0.175835
0.371679 0.507349 0.174655
0.386755 0.506844 0.173213
0.403131 0.506264 0.171505
0.420395 0.505624 0.169535
0.438157 0.504951 0.167985
0.456253 0.504250 0.167769
0.474363 0.503557 0.167554
0.492040 0.502936 0.167361
0.511173 0.505006 0.172302
0.533963 0.513139 0.188078
0.555477 0.521477 0.202874
0.575607 0.529825 0.216608
0.594287 0.538031 0.229229
0.611485 0.545979 0.240715
0.627118 0.553555 0.251008
0.641149 0.560676 0.260082
0.653788 0.567373 0.268094
0.665082 0.573626 0.275083
0.675050 0.579412 0.281069
0.683709 0.584714 0.286070
0.691075 0.589520 0.290102
0.696978 0.593732 0.293061
0.708585 0.600289 0.300172
0.737568 0.614260 0.319936
0.769201 0.629845 0.343977
0.803113 0.647946 0.385525
0.838668 0.667475 0.425675
0.875267 0.687933 0.462738
0.346217 0.528655 0.175914
0.351695 0.528478 0.175861
0.357670 0.528277 0.175800
0.365858 0.527992 0.175713
0.376219 0.527614 0.175597
0.388509 0.527142 0.175451
0.402405 0.526580 0.175275
0.417538 0.525938 0.175072
0.433548 0.525232 0.174847
0.450240 0.524466 0.174600
0.467278 0.523663 0.174340
0.484208 0.522878 0.174085
0.500786 0.522147 0.173846
0.516828 0.521506 0.173635
0.536079 0.525823 0.182914
0.556531 0.533186 0.197025
0.575730 0.540619 0.210182
0.593601 0.547975 0.222330
0.610091 0.555137 0.233429
0.625063 0.561975 0.243381
0.638599 0.568450 0.252248
0.650843 0.574566 0.260136
0.661803 0.580288 0.267056
0.671490 0.585586 0.273020
0.679916 0.590438 0.278043
0.687089 0.594828 0.282137
0.693010 0.598739 0.285307
0.711457 0.607729 0.297544
0.741276 0.621614 0.318084
0.773523 0.636922 0.340470
0.807770 0.653529 0.364411
0.843448 0.671194 0.389520
0.880091 0.690582 0.425503
0.368533 0.546186 0.181872
0.373394 0.545993 0.181810
0.378711 0.545776 0.181741
0.386023 0.545469 0.181642
0.395314 0.545065 0.181511
0.406386 0.544564 0.181348
0.418961 0.543970 0.181154
0.432776 0.543288 0.180930
0.447611 0.542521 0.180677
0.463086 0.541692 0.180401
0.478791 0.540840 0.180117
0.494462 0.539993 0.179834
0.509877 0.539183 0.179562
0.524854 0.538442 0.179311
0.539301 0.537863 0.179217
0.558606 0.544353 0.192574
0.576794 0.550951 0.205086
0.593781 0.557521 0.216693
0.609460 0.563934 0.227316
0.623726 0.570076 0.236882
0.636739 0.575941 0.245507
0.648539 0.581492 0.253222
0.659122 0.586692 0.260027
0.668489 0.591507 0.265927
0.676640 0.595916 0.270924
0.683572 0.599897 0.275018
0.689279 0.603435 0.278209
0.714679 0.614785 0.295629
0.745599 0.628766 0.317090
0.778909 0.644223 0.340360
0.813564 0.660693 0.364740
0.849412 0.678137 0.390123
0.885996 0.696332 0.416198
0.391424 0.561409 0.187006
0.395665 0.561209 0.186940
0.400320 0.560986 0.186865
0.406745 0.560670 0.186760
0.414948 0.560255 0.186621
0.424820 0.559736 0.186448
0.436184 0.559114 0.186239
0.448794 0.558394 0.185997
0.462277 0.557597 0.185728
0.476322 0.556745 0.185439
0.490657 0.555861 0.185139
0.505039 0.554969 0.184835
0.519258 0.554098 0.184537
0.533136 0.553276 0.184255
0.546532 0.552530 0.183998
0.561728 0.554811 0.189543
0.578851 0.560655 0.201371
0.594892 0.566501 0.212387
0.609676 0.572212 0.222466
0.623229 0.577724 0.231627
0.635659 0.583018 0.239946
0.646949 0.588042 0.247415
0.657085 0.592755 0.254025
0.666061 0.597122 0.259773
0.673867 0.601117 0.264656
0.680495 0.604716 0.268671
0.689853 0.609377 0.274637
0.719182 0.621891 0.295022
0.750816 0.635832 0.317131
0.784616 0.651191 0.340889
0.820010 0.667745 0.365912
0.856409 0.685223 0.391806
0.892963 0.703170 0.418001
0.414217 0.574356 0.191339
0.417903 0.574153 0.191270
0.421973 0.573924 0.191192
0.427631 0.573600 0.191082
0.434922 0.573170 0.190936
0.443741 0.572635 0.190753
0.453875 0.572001 0.190537
0.465093 0.571278 0.190289
0.477146 0.570478 0.190016
0.489782 0.569620 0.189721
0.502758 0.568724 0.189413
0.515851 0.567812 0.189100
0.528863 0.566911 0.188789
0.541627 0.566044 0.188489
0.554003 0.565238 0.188209
0.565878 0.564517 0.187956
0.581839 0.569662 0.198945
0.596817 0.574857 0.209268
0.610665 0.579949 0.218751
0.623484 0.584905 0.227468
0.635270 0.589677 0.235417
0.645994 0.594212 0.242577
0.655633 0.598468 0.248934
0.664169 0.602410 0.254479
0.671588 0.606009 0.259200
0.677871 0.609237 0.263089
0.695283 0.616626 0.274978
0.725055 0.629023 0.295800
0.757309 0.642948 0.318477
0.791507 0.658227 0.342648
0.827116 0.674646 0.367956
0.863638 0.691972 0.394066
0.900596 0.709954 0.420655
0.436715 0.585295 0.194971
0.439928 0.585092 0.194901
0.443476 0.584865 0.194823
0.448408 0.584544 0.194713
0.454760 0.584123 0.194568
0.462450 0.583602 0.194388
0.471334 0.582985 0.194175
0.481231 0.582280 0.193932
0.491934 0.581499 0.193662
0.503223 0.580657 0.193371
0.514888 0.579773 0.193065
0.526726 0.578866 0.192751
0.538555 0.577960 0.192436
0.550217 0.577077 0.192129
0.561577 0.576240 0.191836
0.572525 0.575469 0.191566
0.585566 0.577972 0.197592
0.599442 0.582581 0.207184
0.612391 0.587131 0.216091
0.624444 0.591580 0.224332
0.635549 0.595869 0.231872
0.645668 0.599948 0.238685
0.654769 0.603776 0.244750
0.662828 0.607315 0.250049
0.669820 0.610536 0.254567
0.675721 0.613409 0.258289
0.701857 0.623709 0.276557
0.732354 0.636165 0.298009
0.765122 0.650095 0.321171
0.799619 0.665314 0.345677
0.835349 0.681612 0.371195
0.871840 0.698759 0.397410
0.908629 0.716505 0.424007
0.458316 0.594498 0.198004
0.461067 0.594303 0.197936
0.464113 0.594084 0.197860
0.468359 0.593776 0.197753
0.473851 0.593372 0.197613
0.480531 0.592870 0.197439
0.488290 0.592275 0.197232
0.496983 0.591595 0.196996
0.506439 0.590838 0.196733
0.516473 0.590020 0.196449
0.526901 0.589156 0.196148
0.537543 0.588265 0.195838
0.548234 0.587366 0.195525
0.558827 0.586479 0.195216
0.569194 0.585625 0.194917
0.579216 0.584825 0.194636
0.589935 0.585536 0.197222
0.602751 0.589637 0.206109
0.614820 0.593710 0.214445
0.626082 0.597697 0.222185
0.636477 0.601543 0.229288
0.645961 0.605199 0.235722
0.654493 0.608626 0.241461
0.662042 0.611786 0.246480
0.668573 0.614648 0.250760
0.681115 0.619647 0.259344
0.709973 0.630751 0.279664
0.741115 0.643307 0.301684
0.774281 0.657264 0.325242
0.808971 0.672439 0.350002
0.844722 0.688627 0.375656
0.881087 0.705600 0.401903
0.917616 0.723111 0.428439
0.478681 0.602088 0.200485
0.481037 0.601901 0.200420
0.483650 0.601693 0.200348
0.487303 0.601400 0.200245
0.492044 0.601013 0.200111
0.497835 0.600534 0.199944
0.504593 0.599965 0.199746
0.512203 0.599313 0.199518
0.520525 0.598585 0.199265
0.529405 0.597796 0.198990
0.538683 0.596958 0.198698
0.548202 0.596088 0.198395
0.557815 0.595203 0.198086
0.567385 0.594322 0.197779
0.576787 0.593463 0.197479
0.585864 0.592652 0.197195
0.594894 0.592332 0.197781
0.606726 0.596001 0.206014
0.617908 0.599648 0.213769
0.628364 0.603216 0.220991
0.638031 0.606656 0.227637
0.646857 0.609922 0.233668
0.654795 0.612974 0.239054
0.661805 0.615778 0.243766
0.667848 0.618300 0.247777
0.690335 0.626564 0.263578
0.719704 0.637770 0.284359
0.751355 0.650448 0.306846
0.784796 0.664449 0.330708
0.819568 0.679594 0.355641
0.854593 0.696122 0.380263
0.889338 0.713880 0.403979
0.924189 0.732061 0.427834
0.497765 0.608146 0.202450
0.499783 0.607970 0.202388
0.502025 0.607772 0.202319
0.505168 0.607493 0.202222
0.509257 0.607127 0.202094
0.514269 0.606671 0.201935
0.520143 0.606129 0.201746
0.526788 0.605506 0.201529
0.534090 0.604810 0.201286
0.541919 0.604051 0.201022
0.550141 0.603242 0.200740
0.558618 0.602397 0.200445
0.567220 0.601531 0.200144
0.575815 0.600662 0.199841
0.584250 0.599814 0.199545
0.592428 0.599001 0.199261
0.600442 0.598364 0.199258
0.611310 0.601651 0.206848
0.621606 0.604914 0.214019
0.631253 0.608103 0.220716
0.640182 0.611172 0.226891
0.648335 0.614077 0.232503
0.655660 0.616782 0.237516
0.662111 0.619251 0.241898
0.671973 0.624152 0.247932
0.698470 0.635206 0.265658
0.727137 0.647558 0.284921
0.757895 0.661232 0.305681
0.790268 0.676106 0.327592
0.823814 0.692026 0.350332
0.858118 0.708802 0.373613
0.892763 0.726220 0.397145
0.927312 0.744044 0.420614
0.515569 0.612731 0.203922
0.517298 0.612564 0.203864
0.519223 0.612378 0.203799
0.521925 0.612114 0.203707
0.525450 0.611766 0.203585
0.529785 0.611334 0.203435
0.534882 0.610819 0.203255
0.540672 0.610225 0.203049
0.547061 0.609560 0.202817
0.553942 0.608832 0.202564
0.561202 0.608053 0.202293
0.568721 0.607234 0.202008
0.576324 0.606649 0.201799
0.583755 0.607058 0.201916
0.591084 0.607606 0.202077
0.598274 0.608302 0.202286
0.605258 0.609161 0.202549
0.611964 0.610199 0.202870
0.620275 0.613766 0.207865
0.628039 0.617401 0.212564
0.635074 0.620973 0.216678
0.641303 0.624455 0.220144
0.646659 0.627819 0.222915
0.651078 0.631042 0.224944
0.672267 0.639447 0.238860
0.699517 0.650275 0.257047
0.729011 0.662493 0.276794
0.760312 0.675999 0.297801
0.793004 0.690660 0.319782
0.826687 0.706311 0.342461
0.860964 0.722765 0.365563
0.895426 0.739812 0.388802
0.929640 0.757212 0.411869
0.527442 0.632231 0.210271
0.528935 0.632223 0.210265
0.530598 0.632217 0.210258
0.532936 0.632211 0.210250
0.535993 0.632211 0.210242
0.539759 0.632222 0.210236
0.544201 0.632252 0.210233
0.549261 0.632312 0.210239
0.554862 0.632414 0.210257
0.560916 0.632572 0.210291
0.567322 0.632803 0.210348
0.573950 0.633128 0.210434
0.580687 0.633567 0.210556
0.587444 0.634138 0.210721
0.594171 0.634856 0.210933
0.600788 0.635737 0.211197
0.607216 0.636801 0.211521
0.613383 0.638068 0.211910
0.619224 0.639553 0.212371
0.624682 0.641276 0.212910
0.629704 0.643251 0.213532
0.634240 0.645493 0.214241
0.638244 0.648017 0.215043
0.647347 0.649928 0.215630
0.671414 0.656731 0.228007
0.699735 0.667335 0.246850
0.730030 0.679280 0.267061
0.761896 0.692469 0.288361
0.794945 0.706772 0.310487
0.828796 0.722025 0.333175
0.863067 0.738042 0.356162
0.897357 0.754610 0.379167
0.931231 0.771485 0.401882
0.535069 0.660629 0.219468
0.536408 0.660657 0.219472
0.537902 0.660691 0.219478
0.540003 0.660742 0.219488
0.542753 0.660816 0.219503
0.546147 0.660920 0.219525
0.550155 0.661063 0.219558
0.554728 0.661253 0.219604
0.559800 0.661502 0.219667
0.565271 0.661826 0.219754
0.571047 0.662240 0.219868
0.577032 0.662760 0.220016
0.583154 0.663399 0.220202
0.589345 0.664171 0.220430
0.595517 0.665094 0.220707
0.601588 0.666182 0.221038
0.607481 0.667454 0.221428
0.613126 0.668924 0.221883
0.618458 0.670609 0.222409
0.623417 0.672523 0.223009
0.627946 0.674679 0.223689
0.631994 0.677090 0.224453
0.635647 0.679750 0.225298
0.654285 0.680399 0.225442
0.673974 0.680958 0.225551
0.699253 0.686344 0.235370
0.730370 0.697827 0.256096
0.762822 0.710536 0.277745
0.796246 0.724337 0.300067
0.830278 0.739066 0.322816
0.864546 0.754532 0.345734
0.898654 0.770515 0.368545
0.932166 0.786767 0.390937
0.539730 0.691951 0.229574
0.540941 0.692006 0.229587
0.542292 0.692069 0.229603
0.544194 0.692162 0.229626
0.546686 0.692291 0.229660
0.549761 0.692465 0.229705
0.553388 0.692690 0.229765
0.557520 0.692978 0.229843
0.562095 0.693338 0.229943
0.567036 0.693784 0.230070
0.572275 0.694326 0.230226
0.577746 0.694977 0.230417
0.583367 0.695749 0.230646
0.589052 0.696657 0.230919
0.594718 0.697716 0.231240
0.600286 0.698939 0.231615
0.605681 0.700341 0.232048
