data/luts/Agfalike C.cube
# Baked from the Lightroom preset "JSZ-CEDAR C" by scripts/lightroom-preset-lut.lisp
# Colour only; not in this LUT (add the node instead):
#   Clarity +30
#   Vignette -12, midpoint 0, feather 74, roundness +14
#   Grain 8, size 33
TITLE "Agfalike C"
LUT_3D_SIZE 5
DOMAIN_MIN 0.0 0.0 0.0
DOMAIN_MAX 1.0 1.0 1.0
0.148072 0.148072 0.148072
0.263116 0.194345 0.179319
0.555833 0.250050 0.236288
0.841622 0.228885 0.239808
1.000000 0.417137 0.329200
0.163381 0.239279 0.233318
0.238126 0.229453 0.201575
0.520244 0.311665 0.263543
0.774318 0.405399 0.318913
1.000000 0.510643 0.357339
0.151093 0.453661 0.425503
0.154513 0.458592 0.429019
0.478008 0.443386 0.328029
0.642323 0.488147 0.326307
0.920054 0.602208 0.388536
0.226388 0.672550 0.629313
0.226860 0.672245 0.628673
0.470831 0.679409 0.509882
0.699580 0.649009 0.479977
0.865135 0.687368 0.471063
0.293162 0.893209 0.840507
0.293400 0.892793 0.839876
0.294873 0.893098 0.839289
0.673375 0.905905 0.643509
0.927019 0.862148 0.647863
0.153432 0.166061 0.231381
0.294147 0.197438 0.243279
0.570951 0.221522 0.260847
0.852668 0.219713 0.281191
1.000000 0.379158 0.357138
0.133232 0.226472 0.238125
0.225816 0.225816 0.225816
0.551907 0.313378 0.302827
0.804791 0.411957 0.366026
1.000000 0.511514 0.409838
0.127485 0.453169 0.441165
0.130298 0.457766 0.444509
0.471340 0.444922 0.362126
0.661114 0.500889 0.375775
0.952029 0.613480 0.450356
0.202090 0.670886 0.643433
0.202362 0.670485 0.642773
0.507200 0.680131 0.607714
0.692637 0.650411 0.513770
0.844671 0.674166 0.493408
0.278244 0.892203 0.849155
0.278435 0.891799 0.848556
0.279756 0.892127 0.848047
0.666138 0.906374 0.669830
0.922856 0.862994 0.668502
0.060729 0.199423 0.423824
0.207445 0.193954 0.428273
0.591814 0.183915 0.407968
0.875442 0.195214 0.406057
1.000000 0.321583 0.448232
0.055689 0.253310 0.435846
0.188818 0.259081 0.435720
0.585697 0.276679 0.437402
0.847046 0.355396 0.454544
1.000000 0.445865 0.494315
0.072259 0.416631 0.461647
0.072378 0.418822 0.460484
0.435459 0.435459 0.435459
0.758555 0.554731 0.530607
1.000000 0.639420 0.593931
0.155032 0.659498 0.668426
0.155058 0.659039 0.667814
0.447652 0.672260 0.654930
0.673978 0.649047 0.568848
0.883167 0.703385 0.588078
0.242502 0.890130 0.872553
0.242618 0.889778 0.872046
0.243662 0.890181 0.871725
0.721272 0.907882 0.812564
0.911257 0.864197 0.717549
0.069997 0.240560 0.631653
0.069896 0.239698 0.631285
0.621181 0.192976 0.689174
0.871810 0.196562 0.594642
1.000000 0.296984 0.587772
0.074590 0.290048 0.637448
0.074614 0.290802 0.636944
0.583019 0.288194 0.687550
0.861861 0.335250 0.623453
1.000000 0.411979 0.621351
0.089989 0.457499 0.649474
0.090004 0.458349 0.648679
0.434447 0.479374 0.647200
0.827691 0.547420 0.681454
1.000000 0.589661 0.679725
0.105986 0.612661 0.675132
0.105870 0.611954 0.674439
0.342151 0.634406 0.672279
0.637283 0.637283 0.637283
0.997475 0.774037 0.750626
0.191660 0.863306 0.887771
0.191746 0.863210 0.887547
0.192555 0.864323 0.888039
0.670057 0.897777 0.878248
0.883783 0.855440 0.755689
0.090177 0.282709 0.842072
0.089582 0.275730 0.841813
0.547799 0.220471 0.888070
0.924539 0.244251 0.923469
1.000000 0.297522 0.786910
0.094842 0.335378 0.845961
0.094760 0.334850 0.845474
0.488896 0.316817 0.875335
0.888350 0.357452 0.923761
1.000000 0.392312 0.808248
0.109448 0.499911 0.854278
0.109379 0.499608 0.853725
0.390490 0.510814 0.852833
0.794256 0.534684 0.915149
1.000000 0.565295 0.855189
0.124218 0.652671 0.871620
0.124123 0.652034 0.871116
0.245964 0.661468 0.869672
0.639890 0.684993 0.862372
1.000000 0.770849 0.916819
0.140661 0.813733 0.895203
0.140612 0.813569 0.894734
0.140511 0.813629 0.893275
0.564104 0.855002 0.890550
0.845403 0.845403 0.845403
