data/luts/Agfalike B.cube
# Baked from the Lightroom preset "JSZ-CEDAR B" by scripts/lightroom-preset-lut.lisp
# Colour only; not in this LUT (add the node instead):
#   Clarity -5
#   Vignette -17, midpoint 35, feather 66, roundness +14
#   Grain 9, size 25
TITLE "Agfalike B"
LUT_3D_SIZE 5
DOMAIN_MIN 0.0 0.0 0.0
DOMAIN_MAX 1.0 1.0 1.0
0.129267 0.129267 0.129267
0.246012 0.182230 0.177673
0.533258 0.242541 0.271372
0.739769 0.329586 0.344066
0.958541 0.427757 0.420133
0.168808 0.224816 0.215002
0.237538 0.217969 0.182811
0.535355 0.334804 0.286426
0.728459 0.390808 0.354173
0.953839 0.448328 0.410278
0.288424 0.473019 0.427270
0.289658 0.469803 0.423539
0.510106 0.414898 0.242629
0.714994 0.509674 0.275731
0.976548 0.638557 0.397703
0.366095 0.645777 0.592159
0.365800 0.640049 0.585826
0.510893 0.633233 0.451930
0.682977 0.560775 0.334284
0.970717 0.690625 0.375497
0.485966 0.870848 0.801497
0.485892 0.868357 0.798689
0.487720 0.862956 0.791866
0.661521 0.846609 0.634167
0.919293 0.771947 0.501810
0.171973 0.170549 0.210879
0.251284 0.197541 0.226871
0.545628 0.257866 0.321676
0.745316 0.338941 0.379057
0.958359 0.428543 0.419750
0.154658 0.236517 0.245571
0.228813 0.228813 0.228813
0.535991 0.333096 0.336611
0.730824 0.384042 0.385836
0.953839 0.448328 0.410278
0.256152 0.491154 0.459871
0.257050 0.487275 0.454857
0.511253 0.445203 0.329788
0.709538 0.544786 0.381800
0.976980 0.640560 0.409266
0.336627 0.660375 0.622158
0.335317 0.655169 0.616574
0.511964 0.615237 0.525556
0.678387 0.595206 0.440473
0.963504 0.735146 0.510878
0.472896 0.877645 0.814769
0.472570 0.875427 0.812329
0.473332 0.870764 0.806584
0.664607 0.838265 0.669525
0.917440 0.791196 0.560380
0.196397 0.283255 0.461301
0.316272 0.295220 0.442388
0.550424 0.294988 0.460087
0.753124 0.374483 0.523183
0.980213 0.465799 0.589112
0.193369 0.327574 0.479340
0.304451 0.334729 0.457115
0.547691 0.376670 0.478639
0.737205 0.437780 0.537726
0.980877 0.467205 0.594291
0.181495 0.498464 0.529896
0.178774 0.492663 0.524583
0.483126 0.483126 0.483126
0.661506 0.556367 0.545144
0.935020 0.666079 0.645893
0.290710 0.682541 0.677700
0.288494 0.678150 0.673583
0.534821 0.634655 0.615271
0.669063 0.640129 0.562405
0.939159 0.756572 0.663867
0.445114 0.892446 0.845911
0.444681 0.890722 0.844049
0.444603 0.886984 0.839558
0.709747 0.819489 0.753079
0.917631 0.821727 0.649117
0.267610 0.363396 0.616434
0.441805 0.384425 0.601147
0.616182 0.359026 0.603028
0.740794 0.397436 0.620623
0.995894 0.499087 0.707718
0.262610 0.405544 0.630895
0.415533 0.412813 0.599275
0.609195 0.452069 0.615896
0.730952 0.484656 0.633297
0.992193 0.553275 0.719038
0.243646 0.546709 0.668453
0.314703 0.548221 0.661984
0.527301 0.534219 0.608728
0.693529 0.592461 0.644970
0.959975 0.684116 0.737458
0.238841 0.662514 0.712333
0.238156 0.659529 0.709812
0.519837 0.681505 0.701817
0.656876 0.656876 0.656876
0.912632 0.758822 0.748502
0.388493 0.921561 0.917869
0.388407 0.920226 0.916199
0.388884 0.916932 0.911596
0.722708 0.859023 0.832804
0.909755 0.864699 0.761931
0.445612 0.476665 0.810130
0.591028 0.495132 0.815010
0.741109 0.517392 0.823559
0.828273 0.486761 0.821995
0.987766 0.531113 0.831439
0.402847 0.522897 0.835279
0.535620 0.530173 0.808113
0.696288 0.577657 0.817553
0.806909 0.599037 0.824007
0.986840 0.621402 0.848035
0.341459 0.633460 0.873718
0.446185 0.641109 0.861961
0.608779 0.644041 0.819814
0.768116 0.677606 0.818173
0.970900 0.724474 0.865396
0.332990 0.735603 0.908196
0.332531 0.734015 0.906677
0.550801 0.748232 0.887207
0.714056 0.725564 0.827567
0.944192 0.804566 0.879108
0.322330 0.894625 0.955852
0.322183 0.893884 0.954890
0.321518 0.891170 0.951544
0.711965 0.917575 0.938940
0.880192 0.880192 0.880192
