data/luts/Agfalike C.cube
# Baked from the Lightroom preset "JSZ-CEDAR C" by scripts/lightroom-preset-lut.lisp
# Colour only; not in this LUT (add the node instead):
#   Clarity +30
#   Vignette -12, midpoint 0, feather 74, roundness +14
#   Grain 8, size 33
TITLE "Agfalike C"
LUT_3D_SIZE 33
DOMAIN_MIN 0.0 0.0 0.0
DOMAIN_MAX 1.0 1.0 1.0
0.148072 0.148072 0.148072
0.161174 0.149994 0.149671
0.177382 0.155314 0.154314
0.193569 0.162559 0.160025
0.207767 0.169898 0.165116
0.220190 0.176573 0.169075
0.232788 0.182433 0.172282
0.246939 0.188048 0.175413
0.263116 0.194345 0.179319
0.281357 0.201210 0.183883
0.303551 0.208993 0.189551
0.336807 0.218976 0.198115
0.376987 0.229508 0.208123
0.421279 0.239545 0.218697
0.467595 0.248436 0.229266
0.512863 0.252161 0.235412
0.555833 0.250050 0.236288
0.597138 0.245522 0.235549
0.636199 0.239029 0.233447
0.673730 0.230249 0.229822
0.709965 0.224495 0.230138
0.744141 0.218685 0.230467
0.776886 0.217479 0.232145
0.809488 0.220943 0.235277
0.841622 0.228885 0.239808
0.873037 0.242171 0.246065
0.903995 0.265061 0.259310
0.935700 0.294027 0.277691
0.967044 0.326105 0.297845
0.998073 0.360053 0.318985
1.000000 0.385185 0.329657
1.000000 0.402367 0.330769
1.000000 0.417137 0.329200
0.146562 0.156835 0.151072
0.157299 0.156114 0.149631
0.166822 0.155512 0.149209
0.180455 0.160457 0.153075
0.194512 0.167217 0.158380
0.209041 0.174708 0.164169
0.224273 0.181997 0.169554
0.240455 0.188536 0.174033
0.258030 0.195322 0.178724
0.277273 0.202486 0.183801
0.300422 0.210524 0.189870
0.334436 0.220773 0.198755
0.375093 0.231563 0.209031
0.419652 0.241824 0.219787
0.466079 0.250940 0.230484
0.512265 0.256958 0.239001
0.555224 0.255342 0.240186
0.596481 0.251462 0.239859
0.635465 0.245829 0.238301
0.672904 0.238215 0.235407
0.708994 0.231119 0.233733
0.742673 0.228007 0.234996
0.774824 0.230186 0.237858
0.807110 0.235587 0.241717
0.838935 0.245137 0.246872
0.870237 0.264043 0.258652
0.901219 0.289694 0.275122
0.932988 0.317179 0.292627
0.964446 0.347361 0.311650
0.995007 0.377803 0.329891
1.000000 0.394468 0.332055
1.000000 0.410655 0.333073
1.000000 0.424604 0.331512
0.147626 0.168091 0.159273
0.155843 0.166032 0.153251
0.167124 0.164566 0.152627
0.170143 0.158992 0.148109
0.184194 0.165246 0.153916
0.199712 0.173040 0.160597
0.216409 0.181300 0.167310
0.234151 0.188893 0.173001
0.252926 0.196249 0.178368
0.273070 0.203777 0.183904
0.297173 0.212142 0.190364
0.331954 0.222667 0.199520
0.373108 0.233758 0.210088
0.417948 0.244283 0.221061
0.464501 0.253655 0.231919
0.511417 0.261564 0.242360
0.554578 0.260915 0.244389
0.595777 0.257747 0.244503
0.634672 0.253032 0.243512
0.672012 0.246620 0.241359
0.707936 0.238670 0.238148
0.740986 0.238086 0.239935
0.772624 0.242949 0.243725
0.804648 0.251497 0.249796
0.836224 0.267241 0.260441
0.867414 0.288176 0.274152
0.898399 0.313061 0.290182
0.930202 0.339477 0.307063
0.961743 0.368203 0.325228
0.988689 0.387488 0.331808
1.000000 0.403749 0.334414
1.000000 0.419068 0.335366
1.000000 0.432292 0.333841
0.150966 0.180134 0.171866
0.157793 0.176395 0.162570
0.166890 0.175811 0.158430
0.176937 0.173226 0.157583
0.178304 0.166613 0.152577
0.189598 0.170560 0.156357
0.207123 0.179816 0.164552
0.226261 0.188938 0.171927
0.246435 0.197258 0.178231
0.267654 0.205400 0.184383
0.293014 0.214314 0.191389
0.328783 0.225278 0.200911
0.370557 0.236735 0.211760
0.415736 0.247633 0.222993
0.462422 0.257361 0.234036
0.509313 0.265657 0.244617
0.553678 0.268479 0.250142
0.594790 0.266275 0.250845
0.633561 0.262783 0.250591
0.670762 0.257932 0.249374
0.706197 0.253832 0.248463
0.738452 0.257231 0.251888
0.769750 0.266113 0.258527
0.801331 0.278789 0.267406
0.832659 0.296059 0.278995
0.863726 0.317235 0.292882
0.894704 0.341405 0.308512
0.926534 0.366789 0.324805
0.953807 0.383029 0.329752
0.980591 0.399433 0.334092
1.000000 0.415385 0.337305
1.000000 0.429760 0.338208
1.000000 0.442198 0.336767
0.155054 0.191854 0.185574
0.161473 0.188327 0.176039
0.164908 0.186128 0.166050
0.177618 0.185945 0.165043
0.186961 0.182363 0.164056
0.187807 0.175375 0.158957
0.196853 0.177132 0.160582
0.216743 0.187831 0.170003
0.238381 0.197836 0.177929
0.260842 0.207009 0.184965
0.287785 0.216831 0.192716
0.324727 0.228476 0.202693
0.367227 0.240371 0.213747
0.412770 0.251770 0.225248
0.459559 0.261973 0.236462
0.506351 0.270770 0.247141
0.552227 0.278106 0.257135
0.593398 0.277528 0.259004
0.632012 0.275509 0.259624
0.668912 0.273186 0.259916
0.703420 0.275244 0.262689
0.734937 0.283530 0.269053
0.765893 0.295091 0.277324
0.797101 0.310226 0.287713
0.828200 0.328646 0.300034
0.859151 0.349930 0.314029
0.887645 0.367269 0.322395
0.915786 0.382116 0.327464
0.943545 0.397412 0.332210
0.970959 0.412961 0.336546
0.997993 0.428604 0.340354
1.000000 0.442221 0.341409
1.000000 0.453923 0.340137
0.159357 0.203269 0.198494
0.166165 0.200920 0.191390
0.170756 0.198158 0.183319
0.173997 0.197048 0.172378
0.189037 0.196983 0.172677
0.197797 0.192305 0.171562
0.198294 0.184965 0.166217
0.205341 0.184608 0.165550
0.228014 0.196763 0.175901
0.251999 0.207767 0.184529
0.280993 0.219177 0.193524
0.319331 0.231927 0.204188
0.362689 0.244483 0.215499
0.408660 0.256440 0.227186
0.455572 0.267282 0.238646
0.502262 0.276721 0.249491
0.547855 0.284752 0.259601
0.591512 0.291476 0.268870
0.629810 0.291778 0.270891
0.665757 0.295138 0.274588
0.699366 0.302632 0.280633
0.730447 0.313533 0.288592
0.760968 0.327916 0.298598
0.791379 0.343483 0.308666
0.819647 0.356112 0.314191
0.847471 0.369558 0.319547
0.875169 0.383604 0.324734
0.903748 0.397924 0.329831
0.932057 0.412556 0.334605
0.960096 0.427361 0.338976
0.987801 0.442220 0.342833
1.000000 0.455826 0.344768
1.000000 0.467082 0.343966
0.162457 0.214680 0.210367
0.170755 0.213902 0.207121
0.175997 0.212101 0.201145
0.180604 0.209328 0.191660
0.185230 0.209246 0.181000
0.201726 0.209289 0.181511
0.209805 0.203335 0.180233
0.210141 0.195736 0.174468
0.215218 0.193092 0.171041
0.240833 0.206654 0.182076
0.272539 0.220819 0.193424
0.312523 0.235360 0.205290
0.356895 0.248968 0.217067
0.403369 0.261545 0.228825
0.450435 0.273107 0.240504
0.497025 0.283321 0.251577
0.542320 0.292153 0.261851
0.584723 0.300259 0.271074
0.623055 0.308538 0.279155
0.658474 0.317335 0.286472
0.691214 0.326682 0.293152
0.720336 0.337072 0.299097
0.748694 0.348346 0.304851
0.777202 0.360366 0.310561
0.805490 0.373052 0.316137
0.833549 0.386293 0.321545
0.861680 0.399946 0.326793
0.890725 0.413819 0.331954
0.919595 0.427896 0.336797
0.948258 0.442075 0.341243
0.976633 0.456310 0.345245
1.000000 0.470236 0.348375
1.000000 0.481208 0.348179
0.163424 0.226395 0.221309
0.173026 0.226680 0.221027
0.180619 0.226353 0.218844
0.186927 0.224644 0.212421
0.190376 0.222860 0.200328
0.197834 0.222909 0.191027
0.215962 0.223052 0.191800
0.223198 0.215669 0.190247
0.223686 0.207960 0.183785
0.228607 0.204270 0.178361
0.262341 0.220962 0.191667
0.304241 0.238321 0.205748
0.349800 0.253591 0.218435
0.396865 0.267126 0.230431
0.444121 0.279322 0.242063
0.490061 0.290600 0.253176
0.533487 0.301170 0.263275
0.573585 0.311373 0.272262
0.610545 0.321223 0.280330
0.644902 0.331353 0.287678
0.676587 0.341907 0.294362
0.705122 0.352989 0.300338
0.733325 0.364662 0.306171
0.761844 0.376865 0.311967
0.790324 0.389524 0.317634
0.818727 0.402560 0.323134
0.847359 0.415884 0.328486
0.876916 0.429431 0.333804
0.906366 0.443155 0.338878
0.935664 0.456978 0.343635
0.964712 0.470826 0.347979
0.993346 0.484626 0.351780
1.000000 0.495857 0.352668
0.163381 0.239279 0.233318
0.172336 0.239543 0.233022
0.181230 0.239927 0.232927
0.191506 0.240176 0.231857
0.199237 0.238706 0.225351
0.201629 0.237966 0.210455
0.212069 0.238135 0.202576
0.231886 0.238368 0.203647
0.238126 0.229453 0.201575
0.239247 0.221725 0.193875
0.250052 0.219004 0.187785
0.294384 0.240089 0.204928
0.341007 0.257935 0.219288
0.387824 0.273195 0.231689
0.433746 0.286932 0.243056
0.477972 0.299713 0.253644
0.520244 0.311665 0.263543
0.559421 0.323143 0.272545
0.595283 0.334334 0.280631
0.628907 0.345540 0.288071
0.660081 0.356865 0.294855
0.688405 0.368382 0.300949
0.716743 0.380331 0.306972
0.745491 0.392693 0.312987
0.774318 0.405399 0.318913
0.803170 0.418393 0.324717
0.832380 0.431621 0.330421
0.862499 0.445018 0.336063
0.892563 0.458498 0.341432
0.922513 0.471997 0.346460
0.952253 0.485450 0.351059
0.981628 0.498780 0.355113
1.000000 0.510643 0.357339
0.161904 0.253477 0.246573
0.170543 0.253738 0.246260
0.179256 0.254084 0.246084
0.190435 0.254672 0.246112
0.203497 0.255474 0.246123
0.213122 0.254432 0.240013
0.214257 0.254662 0.221703
0.227936 0.255091 0.215613
0.249347 0.255769 0.217231
0.255789 0.246065 0.214881
0.259886 0.237110 0.202966
0.278517 0.238693 0.199923
0.325494 0.260649 0.217009
0.372427 0.279224 0.231218
0.418165 0.295277 0.243323
0.462094 0.309739 0.254172
0.503649 0.323125 0.264056
0.542214 0.335740 0.273028
0.577641 0.347858 0.281154
0.611014 0.359829 0.288716
0.642053 0.371730 0.295692
0.670474 0.383615 0.302060
0.699186 0.395826 0.308393
0.728345 0.408339 0.314702
0.757657 0.421084 0.320906
0.787056 0.434012 0.326970
0.816921 0.447102 0.332922
0.847656 0.460315 0.338782
0.878371 0.473542 0.344356
0.909008 0.486723 0.349582
0.939479 0.499793 0.354380
0.969604 0.512700 0.358643
0.998334 0.525143 0.362024
0.156863 0.271002 0.262930
0.165617 0.271425 0.262710
0.174498 0.271938 0.262611
0.185913 0.272736 0.262697
0.199619 0.273926 0.263183
0.215428 0.275660 0.264395
0.228925 0.277183 0.261240
0.230769 0.278296 0.242057
0.242668 0.279651 0.232813
0.267844 0.281038 0.235034
0.280916 0.269175 0.230776
0.289274 0.261450 0.217594
0.307224 0.261419 0.212253
0.352310 0.281915 0.227071
0.398581 0.301622 0.241673
0.442713 0.318672 0.253857
0.484267 0.333907 0.264443
0.522747 0.347856 0.273810
0.558189 0.360948 0.282216
0.591674 0.373646 0.290016
0.622866 0.386030 0.297201
0.651633 0.398179 0.303786
0.680911 0.410582 0.310357
0.710633 0.423197 0.316879
0.740546 0.435956 0.323283
0.770579 0.448819 0.329533
0.801172 0.461795 0.335672
0.832577 0.474859 0.341702
0.863997 0.487871 0.347444
0.895371 0.500779 0.352842
0.926591 0.513536 0.357822
0.957479 0.526091 0.362286
0.987740 0.538399 0.366096
0.140581 0.295258 0.285821
0.151058 0.295789 0.285511
0.161435 0.296400 0.285324
0.174479 0.297298 0.285282
0.189777 0.298553 0.285548
0.206982 0.300245 0.286331
0.226003 0.302501 0.287935
0.244105 0.305247 0.287142
0.246018 0.306841 0.264944
0.257433 0.308325 0.248158
0.293955 0.309265 0.250501
0.310674 0.295815 0.246282
0.323237 0.290631 0.234923
0.343287 0.291975 0.230327
0.375944 0.303533 0.235992
0.420854 0.323764 0.250388
0.462873 0.341629 0.262862
0.501653 0.357423 0.273372
0.537453 0.371818 0.282516
0.571322 0.385453 0.290833
0.602880 0.398446 0.298378
0.632193 0.410962 0.305255
0.662188 0.423668 0.312117
0.692596 0.436488 0.318891
0.723205 0.449365 0.325521
0.753948 0.462265 0.331977
0.785343 0.475236 0.338328
0.817491 0.488241 0.344555
0.849666 0.501133 0.350492
0.881802 0.513875 0.356089
0.913789 0.526421 0.361279
0.945415 0.538748 0.365968
0.976226 0.550914 0.369994
0.095066 0.323445 0.314449
0.110298 0.324038 0.313684
0.127360 0.324754 0.312942
0.147583 0.325774 0.312322
0.168477 0.327109 0.312081
0.190034 0.328815 0.312340
0.212411 0.330966 0.313265
0.235880 0.333669 0.315120
0.258878 0.336925 0.315673
0.261342 0.338345 0.281976
0.283364 0.339394 0.263940
0.326478 0.340080 0.266503
0.343507 0.324933 0.262682
0.359178 0.322178 0.253385
0.380278 0.324514 0.249346
0.403593 0.329607 0.248608
0.440142 0.345126 0.257999
0.479499 0.362910 0.269871
0.515919 0.379011 0.280345
0.550367 0.394001 0.289757
0.582439 0.407921 0.298048
0.612466 0.421086 0.305497
0.643294 0.434357 0.312879
0.674483 0.447613 0.320092
0.705875 0.460810 0.327102
0.737412 0.473926 0.333895
0.769688 0.487064 0.340578
0.802622 0.500168 0.347104
0.835582 0.513093 0.353325
0.868497 0.525808 0.359199
0.901140 0.538340 0.364645
0.933270 0.550692 0.369566
0.964598 0.562823 0.373841
0.105646 0.355240 0.341665
0.105861 0.355590 0.341923
0.106105 0.355991 0.342220
0.106459 0.356572 0.342651
0.112292 0.357458 0.342903
0.151069 0.359284 0.341615
0.185483 0.361466 0.341389
0.216097 0.364019 0.342215
0.247269 0.367082 0.344173
0.274764 0.370006 0.332451
0.277671 0.370990 0.287596
0.316949 0.371679 0.280452
0.363026 0.372135 0.283033
0.377764 0.355178 0.279413
0.395421 0.354408 0.272012
0.416811 0.357446 0.268423
0.439526 0.362721 0.267682
0.462353 0.369293 0.268575
0.494025 0.382902 0.276181
0.529187 0.399108 0.286348
0.561876 0.414033 0.295421
0.592762 0.428089 0.303684
0.624522 0.442223 0.311928
0.656592 0.456211 0.319926
0.688846 0.469991 0.327602
0.721229 0.483562 0.334966
0.754430 0.497094 0.342184
0.788178 0.510493 0.349180
0.821852 0.523660 0.355806
0.855325 0.536611 0.362021
0.888483 0.549332 0.367780
0.921148 0.561797 0.373012
0.953040 0.573962 0.377614
0.120872 0.388233 0.369639
0.121083 0.388572 0.369890
0.121322 0.388958 0.370177
0.121668 0.389514 0.370590
0.122132 0.390262 0.371146
0.122724 0.391214 0.371853
0.123448 0.392376 0.372716
0.174236 0.394911 0.371485
0.225008 0.397904 0.371679
0.275318 0.401379 0.374010
0.291329 0.403051 0.335550
0.303502 0.403634 0.294371
0.354831 0.404022 0.297116
0.401363 0.404281 0.299580
0.412199 0.385506 0.296052
0.430878 0.386212 0.290210
0.451929 0.389736 0.287074
0.473607 0.395023 0.286301
0.495478 0.401376 0.286903
0.517320 0.408432 0.288364
0.541538 0.417921 0.292193
0.573437 0.432878 0.301088
0.606200 0.447813 0.309929
0.639206 0.462510 0.318541
0.672362 0.476957 0.326903
0.705609 0.491154 0.335002
0.739656 0.505334 0.342976
0.774005 0.519295 0.350587
0.808228 0.532936 0.357738
0.842258 0.546265 0.364427
0.875987 0.559274 0.370628
0.909243 0.571941 0.376289
0.941749 0.584225 0.381327
0.136177 0.421300 0.397795
0.136376 0.421612 0.398026
0.136601 0.421966 0.398287
0.136923 0.422472 0.398663
0.137356 0.423151 0.399165
0.137905 0.424010 0.399801
0.138576 0.425054 0.400572
0.139356 0.426252 0.401450
0.180376 0.428252 0.400523
0.257233 0.431740 0.400554
0.304660 0.434812 0.388193
0.308057 0.435224 0.329572
0.343692 0.435467 0.310993
0.394500 0.435592 0.313566
0.435671 0.431410 0.315836
0.445874 0.415125 0.312314
0.464738 0.416833 0.307685
0.484984 0.420627 0.305010
0.505887 0.425752 0.304064
0.526948 0.431779 0.304342
0.547632 0.438408 0.305450
0.568436 0.445477 0.307053
0.590097 0.452922 0.308956
0.622474 0.467399 0.317212
0.656389 0.482542 0.326073
0.690280 0.497350 0.334610
0.725060 0.512135 0.343066
0.760020 0.526669 0.351239
0.794855 0.540869 0.359043
0.829504 0.554697 0.366391
0.863862 0.568104 0.373198
0.897762 0.581072 0.379434
0.930935 0.593562 0.385040
0.151093 0.453661 0.425503
0.151273 0.453936 0.425705
0.151477 0.454246 0.425933
0.151768 0.454689 0.426259
0.152157 0.455281 0.426694
0.152650 0.456027 0.427241
0.153250 0.456929 0.427900
0.153898 0.457846 0.428548
0.154513 0.458592 0.429019
0.226595 0.461143 0.427367
0.305002 0.464868 0.429347
0.321381 0.465829 0.376297
0.330285 0.465867 0.324557
0.385547 0.465795 0.327253
0.434315 0.465675 0.329584
0.465586 0.453527 0.331630
0.478008 0.443386 0.328029
0.496492 0.445690 0.324287
0.516215 0.449553 0.321900
0.536372 0.454484 0.320819
0.556326 0.460223 0.320905
0.576766 0.466555 0.321663
0.598089 0.473380 0.322872
0.619978 0.480604 0.324450
0.642323 0.488147 0.326307
0.675221 0.502531 0.334324
0.710812 0.517989 0.343296
0.746449 0.533071 0.351942
0.781959 0.547742 0.360219
0.817286 0.562003 0.368108
0.852326 0.575842 0.375574
0.886716 0.589257 0.382452
0.920054 0.602208 0.388536
0.165155 0.484648 0.452252
0.165312 0.484880 0.452421
0.165489 0.485142 0.452612
0.165743 0.485515 0.452883
0.166081 0.486011 0.453243
0.166507 0.486633 0.453693
0.167007 0.487342 0.454198
0.167496 0.487937 0.454580
0.167979 0.488426 0.454846
0.168434 0.488756 0.454948
0.287829 0.492735 0.453750
0.334380 0.494972 0.425113
0.337872 0.494792 0.360539
0.375135 0.494525 0.340734
0.427155 0.494232 0.343162
0.472943 0.493991 0.345261
0.493898 0.474460 0.347712
0.508359 0.470282 0.343498
0.526675 0.472990 0.340319
0.545789 0.477012 0.338335
0.564949 0.481854 0.337284
0.584938 0.487397 0.337085
0.605830 0.493502 0.337502
0.627336 0.500055 0.338413
0.649328 0.506961 0.339703
0.671708 0.514139 0.341274
0.697356 0.523102 0.344411
0.733778 0.538812 0.353683
0.769996 0.554036 0.362563
0.805796 0.568818 0.370976
0.841052 0.583176 0.378882
0.875570 0.597106 0.386220
0.909088 0.610568 0.392915
0.177282 0.513868 0.478206
0.177417 0.514064 0.478349
0.177570 0.514286 0.478509
0.177788 0.514600 0.478736
0.178078 0.515019 0.479038
0.178439 0.515528 0.479401
0.178815 0.515998 0.479711
0.179187 0.516382 0.479925
0.179554 0.516669 0.480033
0.179901 0.516820 0.479999
0.259880 0.519123 0.478233
0.348396 0.522936 0.480835
0.352368 0.522660 0.407568
0.362346 0.522309 0.355492
0.417801 0.521934 0.358096
0.466053 0.521609 0.360325
0.508454 0.521417 0.362271
0.521374 0.496571 0.365396
0.537282 0.496338 0.360249
0.554960 0.499118 0.357408
0.573101 0.503024 0.355667
0.592428 0.507580 0.354325
0.612726 0.512790 0.353787
0.633715 0.518523 0.353918
0.655240 0.524659 0.354560
0.677292 0.531198 0.355627
0.700256 0.538162 0.357025
0.723553 0.545476 0.358717
0.758331 0.560267 0.367094
0.794397 0.575671 0.375997
0.829948 0.590593 0.384420
0.864795 0.605030 0.392321
0.898639 0.618945 0.399619
0.187767 0.541975 0.503891
0.187885 0.542144 0.504012
0.188018 0.542333 0.504148
0.188208 0.542602 0.504341
0.188454 0.542944 0.504583
0.188724 0.543278 0.504802
0.188997 0.543555 0.504953
0.189280 0.543783 0.505044
0.189548 0.543899 0.505018
0.189795 0.543894 0.504865
0.202144 0.544057 0.504162
0.332101 0.548276 0.503796
0.367977 0.549621 0.460294
0.371406 0.549151 0.395698
0.406388 0.548657 0.374194
0.457253 0.548208 0.376551
0.501614 0.547873 0.378593
0.541444 0.547627 0.380409
0.548758 0.520365 0.382937
0.564455 0.521123 0.377880
0.581282 0.523703 0.375146
0.599719 0.527324 0.373141
0.619318 0.531672 0.371572
0.639782 0.536761 0.370884
0.660924 0.542478 0.370939
0.682754 0.548723 0.371556
0.705454 0.555417 0.372591
0.728511 0.562474 0.373992
0.751845 0.569842 0.375675
0.782609 0.582137 0.381767
0.818568 0.597669 0.390776
0.853799 0.612653 0.399274
0.887998 0.627056 0.407191
0.196779 0.568811 0.529012
0.196878 0.568949 0.529110
0.196988 0.569102 0.529218
0.197132 0.569290 0.529345
0.197300 0.569482 0.529464
0.197476 0.569642 0.529540
0.197669 0.569782 0.529584
0.197850 0.569835 0.529537
0.198014 0.569786 0.529383
0.198155 0.569617 0.529108
0.198271 0.569324 0.528707
0.310017 0.572314 0.526611
0.384256 0.575268 0.517380
0.388041 0.574653 0.446097
0.393392 0.574040 0.391037
0.446932 0.573507 0.393543
0.493279 0.573122 0.395714
0.534945 0.572848 0.397663
0.572722 0.572658 0.399440
0.575286 0.544623 0.401344
0.590486 0.545573 0.396651
0.607776 0.548159 0.393746
0.626495 0.551828 0.391673
0.646276 0.556210 0.390039
0.666870 0.561308 0.389273
0.688324 0.567020 0.389219
0.710636 0.573251 0.389723
0.733356 0.579909 0.390706
0.756390 0.586924 0.392066
0.779644 0.594244 0.393720
0.806830 0.604307 0.397836
0.842476 0.619885 0.406927
0.877046 0.634807 0.415439
0.204326 0.594171 0.553334
0.204400 0.594262 0.553393
0.204476 0.594350 0.553446
0.204575 0.594448 0.553499
0.204691 0.594542 0.553536
0.204826 0.594632 0.553558
0.204961 0.594670 0.553520
0.205091 0.594641 0.553408
0.205210 0.594527 0.553207
0.205316 0.594321 0.552909
0.205411 0.594023 0.552513
0.276819 0.595587 0.550181
0.378954 0.599241 0.551501
0.405402 0.600054 0.501512
0.408698 0.599600 0.440062
0.433785 0.599237 0.411427
0.482401 0.599005 0.413788
0.526048 0.598863 0.415911
0.565459 0.598865 0.417847
0.599091 0.597245 0.419635
0.601737 0.570128 0.421666
0.617255 0.570835 0.416560
0.634676 0.573286 0.413450
0.653481 0.576852 0.411229
0.673320 0.581143 0.409458
0.694251 0.586154 0.408498
0.716061 0.591795 0.408289
0.738362 0.597951 0.408709
0.761032 0.604533 0.409623
0.783959 0.611472 0.410929
0.807023 0.618711 0.412545
0.830567 0.626524 0.414695
0.865519 0.642008 0.423778
0.211695 0.619925 0.578218
0.211751 0.619980 0.578246
0.211810 0.620030 0.578268
0.211895 0.620104 0.578300
0.211995 0.620171 0.578315
0.212104 0.620214 0.578298
0.212218 0.620217 0.578232
0.212329 0.620162 0.578103
0.212434 0.620038 0.577898
0.212531 0.619838 0.577611
0.212623 0.619564 0.577243
0.212716 0.619228 0.576805
0.357854 0.623413 0.574560
0.423342 0.626249 0.563939
0.426991 0.625884 0.496957
0.429956 0.625619 0.442739
0.468696 0.625461 0.432511
0.514632 0.625393 0.434801
0.555802 0.625473 0.436884
0.592740 0.625769 0.438807
0.626071 0.623927 0.440639
0.628834 0.596020 0.442603
0.644376 0.596498 0.437203
0.661810 0.598768 0.433867
0.680617 0.602185 0.431470
0.700822 0.606333 0.429441
0.721982 0.611226 0.428289
0.743753 0.616759 0.427964
0.765977 0.622812 0.428286
0.788517 0.629293 0.429120
0.811231 0.636130 0.430362
0.833991 0.643351 0.431973
0.856595 0.650920 0.433891
0.219042 0.646104 0.603609
0.219088 0.646141 0.603622
0.219137 0.646174 0.603630
0.219202 0.646209 0.603630
0.219280 0.646235 0.603612
0.219366 0.646239 0.603563
0.219457 0.646206 0.603470
0.219548 0.646124 0.603321
0.219635 0.645983 0.603107
0.219719 0.645781 0.602825
0.219802 0.645521 0.602477
0.219891 0.645216 0.602075
0.326989 0.647904 0.599083
0.416501 0.651370 0.600784
0.445584 0.652571 0.559264
0.448824 0.652389 0.500866
0.451947 0.652287 0.451598
0.500515 0.652281 0.454062
0.543649 0.652430 0.456292
0.582426 0.652764 0.458350
0.620057 0.653054 0.460320
0.653305 0.650082 0.462202
0.656285 0.622241 0.464035
0.671771 0.622469 0.458344
0.689152 0.624530 0.454768
0.708348 0.627740 0.452039
0.728657 0.631736 0.449806
0.749775 0.636557 0.448544
0.771506 0.642120 0.448175
0.793640 0.648214 0.448467
0.816010 0.654745 0.449288
0.838430 0.661636 0.450536
0.860669 0.668825 0.452136
0.226388 0.672550 0.629313
0.226423 0.672565 0.629309
0.226461 0.672578 0.629300
0.226511 0.672586 0.629279
0.226572 0.672583 0.629237
0.226640 0.672557 0.629165
0.226713 0.672498 0.629053
0.226787 0.672396 0.628891
0.226860 0.672245 0.628673
0.226934 0.672045 0.628399
0.227011 0.671801 0.628072
0.227099 0.671526 0.627704
0.270037 0.672291 0.625729
0.393093 0.676167 0.624576
0.464217 0.679580 0.627650
0.467808 0.679462 0.563453
0.470831 0.679409 0.509882
0.483423 0.679460 0.473482
0.528781 0.679669 0.475862
0.569902 0.680012 0.478062
0.609883 0.680288 0.480174
0.648336 0.680540 0.482187
0.680862 0.676444 0.484125
0.684109 0.648917 0.485902
0.699580 0.649009 0.479977
0.717380 0.650918 0.476053
0.736612 0.654095 0.473208
0.756882 0.658084 0.470896
0.777908 0.662844 0.469512
0.799461 0.668265 0.468994
0.821335 0.674222 0.469162
0.843311 0.680617 0.469885
0.865135 0.687368 0.471063
0.233791 0.699199 0.655224
0.233818 0.699200 0.655208
0.233848 0.699197 0.655186
0.233887 0.699186 0.655150
0.233935 0.699162 0.655092
0.233989 0.699114 0.655003
0.234048 0.699037 0.654878
0.234109 0.698922 0.654709
0.234172 0.698767 0.654492
0.234239 0.698574 0.654228
0.234313 0.698348 0.653924
0.234402 0.698105 0.653590
0.234517 0.697867 0.653247
0.360087 0.701192 0.649725
0.443063 0.704592 0.651168
0.486734 0.706933 0.631264
0.490075 0.707009 0.572787
0.492958 0.707202 0.523275
0.510531 0.707567 0.495521
0.554649 0.707996 0.497910
0.597187 0.708375 0.500196
0.637817 0.708746 0.502372
0.676731 0.709113 0.504447
0.709480 0.704867 0.506428
0.712587 0.676431 0.508287
0.728296 0.676152 0.501834
0.745996 0.677867 0.497699
0.765108 0.680872 0.494682
0.785228 0.684704 0.492216
0.806051 0.689305 0.490664
0.827315 0.694574 0.490004
0.848763 0.700382 0.490059
0.870104 0.706623 0.490699
0.241555 0.726448 0.681603
0.241581 0.726446 0.681585
0.241608 0.726440 0.681561
0.241646 0.726428 0.681523
0.241693 0.726403 0.681466
0.241748 0.726361 0.681383
0.241811 0.726296 0.681269
0.241880 0.726205 0.681121
0.241956 0.726086 0.680937
0.242042 0.725943 0.680719
0.242142 0.725785 0.680474
0.242264 0.725626 0.680216
0.242420 0.725492 0.679965
0.298434 0.726770 0.677614
0.414113 0.730575 0.676327
0.484471 0.733961 0.678885
0.509229 0.735389 0.641204
0.512368 0.735629 0.587432
0.515121 0.736029 0.541582
