data/luts/Agfalike B.cube
# Baked from the Lightroom preset "JSZ-CEDAR B" by scripts/lightroom-preset-lut.lisp
# Colour only; not in this LUT (add the node instead):
#   Clarity -5
#   Vignette -17, midpoint 35, feather 66, roundness +14
#   Grain 9, size 25
TITLE "Agfalike B"
LUT_3D_SIZE 9
DOMAIN_MIN 0.0 0.0 0.0
DOMAIN_MAX 1.0 1.0 1.0
0.129267 0.129267 0.129267
0.184970 0.152021 0.150727
0.246012 0.182230 0.177673
0.354603 0.220874 0.217244
0.533258 0.242541 0.271372
0.655149 0.294112 0.315276
0.739769 0.329586 0.344066
0.844012 0.373074 0.378395
0.958541 0.427757 0.420133
0.146134 0.170286 0.165555
0.180683 0.172223 0.152810
0.245976 0.199856 0.173214
0.357585 0.245314 0.222312
0.529880 0.270099 0.272700
0.654015 0.292983 0.311798
0.738245 0.328233 0.340142
0.843136 0.371846 0.373955
0.957561 0.431985 0.418077
0.168808 0.224816 0.215002
0.189742 0.210466 0.202748
0.237538 0.217969 0.182811
0.366040 0.275513 0.229680
0.535355 0.334804 0.286426
0.647162 0.366150 0.328329
0.728459 0.390808 0.354173
0.833867 0.395853 0.372272
0.953839 0.448328 0.410278
0.190812 0.344762 0.317935
0.191692 0.344628 0.317429
0.263841 0.327807 0.305378
0.360535 0.318333 0.218034
0.532416 0.404173 0.281874
0.647605 0.451499 0.298683
0.734273 0.484933 0.299035
0.846249 0.529317 0.346738
0.973528 0.577829 0.406156
0.288424 0.473019 0.427270
0.288976 0.472447 0.426515
0.289658 0.469803 0.423539
0.364935 0.472348 0.316329
0.510106 0.414898 0.242629
0.625293 0.469681 0.268133
0.714994 0.509674 0.275731
0.843246 0.584714 0.339780
0.976548 0.638557 0.397703
0.336901 0.559766 0.506850
0.337090 0.558352 0.505274
0.336882 0.553650 0.500293
0.393253 0.543677 0.397505
0.550646 0.569381 0.328667
0.607146 0.486075 0.273661
0.699098 0.522214 0.272632
0.840110 0.596995 0.325587
0.978173 0.677035 0.395300
0.366095 0.645777 0.592159
0.366024 0.644202 0.590411
0.365800 0.640049 0.585826
0.495442 0.599874 0.558956
0.510893 0.633233 0.451930
0.630797 0.654395 0.405508
0.682977 0.560775 0.334284
0.829775 0.619385 0.335565
0.970717 0.690625 0.375497
0.423734 0.761139 0.700922
0.423609 0.759945 0.699610
0.423475 0.757133 0.696459
0.423963 0.753020 0.691601
0.587968 0.706845 0.660627
0.566608 0.736533 0.555924
0.693934 0.765045 0.506551
0.801264 0.668135 0.420380
0.946994 0.729897 0.432560
0.485966 0.870848 0.801497
0.485900 0.870086 0.800654
0.485892 0.868357 0.798689
0.486382 0.865932 0.795743
0.487720 0.862956 0.791866
0.653887 0.821965 0.763544
0.661521 0.846609 0.634167
0.829477 0.878909 0.577893
0.919293 0.771947 0.501810
0.143082 0.143443 0.164445
0.188587 0.161008 0.175651
0.248484 0.185736 0.196278
0.359913 0.223649 0.232236
0.536633 0.244439 0.274777
0.656595 0.294694 0.315651
0.740687 0.329940 0.344230
0.845303 0.373578 0.378654
0.958492 0.427971 0.420029
0.149222 0.182057 0.185236
0.174166 0.174166 0.174166
0.234879 0.198275 0.195590
0.356441 0.243759 0.239827
0.533916 0.274291 0.286812
0.655450 0.293558 0.312161
0.739152 0.328578 0.340281
0.844387 0.372317 0.374121
0.957488 0.432303 0.417923
0.164939 0.231491 0.226013
0.190407 0.221753 0.215394
0.234814 0.225009 0.199298
0.364377 0.279604 0.252905
0.530244 0.337603 0.315669
0.644636 0.368934 0.345175
0.729739 0.393066 0.354197
0.834440 0.403201 0.375919
0.953839 0.448328 0.410278
0.184529 0.349319 0.325960
0.185335 0.349232 0.325487
0.260620 0.334216 0.312425
0.361857 0.322106 0.236428
0.532218 0.411737 0.304100
0.643984 0.454476 0.331425
0.730711 0.488111 0.330838
0.847574 0.530407 0.347237
0.974661 0.578794 0.406546
0.280821 0.477538 0.434394
0.281382 0.476953 0.433574
0.281893 0.474181 0.430389
0.365909 0.470275 0.333185
0.511106 0.424276 0.268823
0.624379 0.481347 0.302904
0.713634 0.520793 0.308962
0.843542 0.584936 0.339885
0.977193 0.638964 0.397966
0.325416 0.565653 0.516973
0.325519 0.564234 0.515356
0.325087 0.559547 0.510296
0.415124 0.538020 0.437915
0.540024 0.567444 0.359304
0.606231 0.498258 0.310530
0.698461 0.538456 0.320826
0.840567 0.597873 0.327481
0.978593 0.677303 0.395491
0.356456 0.650616 0.601482
0.356275 0.649076 0.599783
0.355798 0.645072 0.595374
0.489175 0.608359 0.567484
0.505514 0.628400 0.474109
0.618102 0.652037 0.434992
0.681788 0.573274 0.372315
0.827690 0.639990 0.398065
0.970625 0.690613 0.375416
0.417199 0.764431 0.707380
0.417019 0.763277 0.706123
0.416747 0.760575 0.703118
0.416977 0.756664 0.698521
0.582935 0.713721 0.667019
0.570964 0.732096 0.576954
0.686179 0.762695 0.527433
0.800225 0.677800 0.449922
0.944945 0.744356 0.477265
0.481788 0.873012 0.805644
0.481695 0.872275 0.804837
0.481618 0.870611 0.802960
0.481971 0.868292 0.800163
0.483070 0.865459 0.796493
0.649554 0.826407 0.768026
0.660551 0.844016 0.644524
0.824018 0.877638 0.592578
0.918627 0.778524 0.521880
0.171973 0.170549 0.210879
0.202954 0.181670 0.214178
0.251284 0.197541 0.226871
0.372036 0.237209 0.269782
0.545628 0.257866 0.321676
0.662377 0.306058 0.359139
0.745316 0.338941 0.379057
0.849796 0.378276 0.393664
0.958359 0.428543 0.419750
0.169556 0.195916 0.225000
0.187386 0.190027 0.215093
0.243840 0.209616 0.227623
0.370137 0.253216 0.273003
0.543179 0.285969 0.328056
0.661465 0.305946 0.360049
0.744117 0.338779 0.380229
0.849600 0.379300 0.398868
0.957292 0.433149 0.417514
0.154658 0.236517 0.245571
0.188644 0.238466 0.243961
0.228813 0.228813 0.228813
0.366820 0.280476 0.279001
0.535991 0.333096 0.336611
0.649343 0.361705 0.369060
0.730824 0.384042 0.385836
0.840896 0.397714 0.401418
0.953839 0.448328 0.410278
0.167918 0.360851 0.348945
0.168824 0.360729 0.348240
0.251785 0.349620 0.333014
0.367517 0.336519 0.278878
0.530406 0.415643 0.339969
0.638675 0.460928 0.375537
0.722895 0.497311 0.394806
0.840776 0.542460 0.419463
0.975622 0.581569 0.412902
0.256152 0.491154 0.459871
0.256732 0.490533 0.458857
0.257050 0.487275 0.454857
0.376137 0.459908 0.385611
0.511253 0.445203 0.329788
0.621206 0.501140 0.363718
0.709538 0.544786 0.381800
0.839916 0.600279 0.409991
0.976980 0.640560 0.409266
0.299143 0.578610 0.543029
0.298978 0.577161 0.541383
0.297930 0.572528 0.536381
0.447110 0.527478 0.498435
0.514407 0.560247 0.421498
0.601580 0.521720 0.385055
0.694564 0.565838 0.405657
0.835926 0.635656 0.440752
0.975440 0.689926 0.453933
0.336627 0.660375 0.622158
0.336246 0.658900 0.620581
0.335317 0.655169 0.616574
0.474483 0.625549 0.587632
0.511964 0.615237 0.525556
0.592892 0.645251 0.487656
0.678387 0.595206 0.440473
0.822448 0.666772 0.482349
0.963504 0.735146 0.510878
0.403672 0.771223 0.721406
0.403395 0.770150 0.720267
0.402879 0.767666 0.717572
0.402658 0.764153 0.713526
0.571767 0.727511 0.681560
0.597942 0.721451 0.631466
0.671857 0.757137 0.565540
0.798069 0.695085 0.503001
0.940640 0.765728 0.544870
0.472896 0.877645 0.814769
0.472761 0.876961 0.814031
0.472570 0.875427 0.812329
0.472682 0.873318 0.809827
0.473332 0.870764 0.806584
0.642292 0.834738 0.777456
0.664607 0.838265 0.669525
0.813623 0.874853 0.621160
0.917440 0.791196 0.560380
0.205633 0.226100 0.318681
0.227132 0.224517 0.311620
0.283435 0.241150 0.313301
0.383780 0.256355 0.329801
0.556802 0.275098 0.379508
0.668851 0.320829 0.415028
0.751171 0.353294 0.435252
0.859790 0.396494 0.462609
0.967539 0.439044 0.487629
0.193623 0.243097 0.332019
0.222594 0.243458 0.322903
0.274020 0.249312 0.315733
0.384571 0.273500 0.335871
0.554905 0.302974 0.388128
0.667756 0.320978 0.417266
0.749832 0.353276 0.437196
0.858983 0.396532 0.464049
0.967545 0.439058 0.487686
0.142215 0.273173 0.357948
0.203297 0.277205 0.350561
0.261042 0.273419 0.329679
0.386103 0.305138 0.348942
0.548124 0.354717 0.403664
0.655762 0.382749 0.433082
0.735930 0.406842 0.449188
0.848690 0.427300 0.470024
0.967338 0.438623 0.485986
0.131292 0.360397 0.389903
0.130424 0.359998 0.388200
0.195693 0.364629 0.383544
0.356597 0.356597 0.356597
0.507376 0.418381 0.411154
0.617253 0.468139 0.450038
0.704476 0.508137 0.473589
0.827901 0.557213 0.505837
0.960959 0.603356 0.534303
0.216513 0.511797 0.509206
0.216633 0.510995 0.508083
0.215793 0.507378 0.503998
0.397642 0.472592 0.458178
0.501166 0.475336 0.418895
0.605746 0.525417 0.456201
0.691683 0.558288 0.476086
0.824973 0.610177 0.515727
0.961196 0.659455 0.548608
0.266081 0.593993 0.580920
0.265510 0.592475 0.579364
0.263564 0.587913 0.574839
0.432522 0.558095 0.536736
0.483277 0.541060 0.477090
0.591360 0.546353 0.468619
0.683861 0.592708 0.497913
0.821794 0.650245 0.539593
0.958299 0.700252 0.577899
0.312603 0.671956 0.649837
0.312026 0.670568 0.648452
0.310661 0.667159 0.645020
0.456486 0.645050 0.616475
0.536211 0.604828 0.581023
0.565359 0.631175 0.536850
0.674176 0.617845 0.511190
0.814340 0.690510 0.561255
0.951738 0.753569 0.603055
0.386941 0.779685 0.740067
0.386582 0.778715 0.739080
0.385857 0.776504 0.736781
0.385236 0.773478 0.733437
0.557527 0.743712 0.701741
0.621170 0.708473 0.675219
0.657902 0.748742 0.604690
0.796287 0.713946 0.559969
0.935414 0.785921 0.610059
0.460066 0.884398 0.828635
0.459910 0.883778 0.827973
0.459661 0.882402 0.826458
0.459619 0.880503 0.824225
0.459971 0.878191 0.821317
0.634883 0.845019 0.790672
0.687707 0.830100 0.714176
0.802786 0.871148 0.654132
0.916878 0.806106 0.604562
0.196397 0.283255 0.461301
0.230291 0.287153 0.455204
0.316272 0.295220 0.442388
0.440261 0.315111 0.451791
0.550424 0.294988 0.460087
0.670056 0.340989 0.496774
0.753124 0.374483 0.523183
0.868389 0.421335 0.559448
0.980213 0.465799 0.589112
0.195241 0.297602 0.467016
0.206068 0.297771 0.464533
0.305313 0.302627 0.442723
0.439548 0.331310 0.453483
0.550411 0.321028 0.466252
0.668097 0.340714 0.497956
0.751474 0.374178 0.524151
0.866980 0.421121 0.560544
0.980436 0.466271 0.590854
0.193369 0.327574 0.479340
0.193042 0.326542 0.478290
0.304451 0.334729 0.457115
0.437524 0.362952 0.456717
0.547691 0.376670 0.478639
0.657984 0.409935 0.513744
0.737205 0.437780 0.537726
0.855477 0.465872 0.570213
0.980877 0.467205 0.594291
0.183783 0.404545 0.500575
0.183348 0.404171 0.499663
0.212854 0.404377 0.495497
0.391995 0.396876 0.454434
0.521284 0.442720 0.484718
0.621038 0.481680 0.519219
0.699745 0.513277 0.543231
0.825138 0.557818 0.581877
0.956567 0.599174 0.617999
0.181495 0.498464 0.529896
0.180993 0.497282 0.528740
0.178774 0.492663 0.524583
0.395892 0.504393 0.515294
0.483126 0.483126 0.483126
0.578996 0.515173 0.511328
0.661506 0.556367 0.545144
0.798946 0.613960 0.597998
0.935020 0.666079 0.645893
0.237227 0.595211 0.606581
0.236285 0.593356 0.604926
0.233684 0.588290 0.600439
0.424070 0.582363 0.578184
0.498265 0.553321 0.532664
0.572877 0.564047 0.521854
0.669082 0.598129 0.555191
0.803268 0.655838 0.612694
0.938168 0.709639 0.663321
0.290710 0.682541 0.677700
0.290036 0.681238 0.676490
0.288494 0.678150 0.673583
0.446189 0.661468 0.645569
0.534821 0.634655 0.615271
0.560532 0.619299 0.572908
0.669063 0.640129 0.562405
0.807363 0.705929 0.617778
0.939159 0.756572 0.663867
0.369202 0.788861 0.761545
0.368833 0.787995 0.760688
0.368085 0.786055 0.758717
0.367402 0.783478 0.755914
0.543852 0.759534 0.724654
0.616425 0.731352 0.698986
0.649392 0.738671 0.635021
0.797128 0.731336 0.609246
0.931948 0.802200 0.661378
0.445114 0.892446 0.845911
0.444953 0.891906 0.845341
0.444681 0.890722 0.844049
0.444506 0.889037 0.842098
0.444603 0.886984 0.839558
0.628880 0.856314 0.806896
0.709747 0.819489 0.753079
0.793436 0.866641 0.687152
0.917631 0.821727 0.649117
0.235310 0.327243 0.546205
0.235262 0.325862 0.545384
0.363575 0.338636 0.528325
0.503971 0.371737 0.538768
0.547692 0.309521 0.508363
0.656782 0.352587 0.550983
0.746236 0.387229 0.580122
0.875017 0.438898 0.623393
0.989990 0.486531 0.663962
0.233761 0.339288 0.550201
0.233711 0.337912 0.549392
0.357111 0.346535 0.527800
0.501144 0.383306 0.539017
0.548559 0.335692 0.514195
0.655060 0.352062 0.550864
0.743856 0.386434 0.579828
0.873133 0.438163 0.622899
0.990010 0.486573 0.664113
0.230092 0.367942 0.559281
0.229981 0.366803 0.558518
0.355111 0.377384 0.533445
0.491424 0.406735 0.538535
0.549330 0.395974 0.528273
0.647697 0.428750 0.563101
0.736027 0.463346 0.591799
0.860862 0.497736 0.633702
0.987864 0.515219 0.670253
0.218382 0.440252 0.575751
0.218198 0.439390 0.575031
0.303098 0.444161 0.566276
0.434539 0.436165 0.524745
0.538416 0.466999 0.541951
0.621250 0.499452 0.567085
0.706742 0.534805 0.597905
0.835226 0.580075 0.643013
0.966087 0.622153 0.686475
0.206611 0.517282 0.591362
0.206509 0.515992 0.590604
0.206303 0.512263 0.588564
0.431227 0.521938 0.572271
0.502390 0.504642 0.548301
0.589756 0.529873 0.565469
0.676989 0.570302 0.593880
0.812040 0.620276 0.642563
0.947317 0.666455 0.689327
0.212070 0.580833 0.616645
0.210947 0.578734 0.614915
0.208185 0.573556 0.610637
0.427214 0.587259 0.603302
0.512307 0.582390 0.586287
0.563653 0.563653 0.563653
0.662768 0.593079 0.591861
0.793637 0.650620 0.645531
0.932212 0.702425 0.696736
0.269917 0.679026 0.692828
0.269243 0.677701 0.691646
0.267758 0.674711 0.688941
0.442649 0.677226 0.675958
0.533377 0.661177 0.652255
0.574799 0.640296 0.616644
0.663779 0.655018 0.603499
0.799667 0.705245 0.654710
0.929547 0.763000 0.711121
0.348451 0.799772 0.788702
0.348187 0.798998 0.787888
0.347707 0.797282 0.786015
0.347453 0.795030 0.783301
0.528529 0.776601 0.752541
0.610033 0.754618 0.727571
0.654886 0.731138 0.664679
0.798438 0.750020 0.651488
0.930076 0.816824 0.705603
0.420399 0.905276 0.875934
0.420338 0.904790 0.875362
0.420300 0.903712 0.874036
0.420415 0.902036 0.871868
0.420932 0.899972 0.868973
0.615918 0.873633 0.833877
0.724350 0.819682 0.786752
0.781234 0.858270 0.724070
0.918623 0.839155 0.698574
0.267610 0.363396 0.616434
0.295928 0.365432 0.610934
0.441805 0.384425 0.601147
0.560426 0.409411 0.609394
0.616182 0.359026 0.603028
0.651234 0.362131 0.586517
0.740794 0.397436 0.620623
0.880069 0.452028 0.667581
0.995894 0.499087 0.707718
0.266356 0.374674 0.620558
0.293801 0.376476 0.615490
0.437609 0.393176 0.601232
0.556668 0.421810 0.609790
0.616752 0.388446 0.609096
0.648903 0.361381 0.586108
0.738573 0.396564 0.619827
0.877471 0.450968 0.666599
0.995866 0.499028 0.707514
0.262610 0.405544 0.630895
0.262900 0.403728 0.629846
0.415533 0.412813 0.599275
0.541490 0.448359 0.609028
0.609195 0.452069 0.615896
0.636640 0.446282 0.596896
0.730952 0.484656 0.633297
0.869007 0.526897 0.678888
0.992193 0.553275 0.719038
0.252131 0.476570 0.649452
0.251984 0.475224 0.648554
0.386205 0.484267 0.631306
0.480992 0.477514 0.598125
0.575851 0.509950 0.608092
0.617028 0.511858 0.605863
0.711706 0.552031 0.640311
0.847064 0.600101 0.688211
0.976194 0.641204 0.732884
0.243646 0.546709 0.668453
0.243529 0.545253 0.667580
0.314703 0.548221 0.661984
0.472001 0.550994 0.639576
0.527301 0.534219 0.608728
0.600145 0.552222 0.616197
0.693529 0.592461 0.644970
0.827991 0.640536 0.692542
0.959975 0.684116 0.737458
0.241143 0.599896 0.688467
0.241026 0.598541 0.687652
0.251877 0.596391 0.685394
0.461307 0.608156 0.672484
0.536864 0.601695 0.654185
0.580021 0.586529 0.635267
0.682215 0.612971 0.653400
0.813606 0.669276 0.697342
0.946728 0.715780 0.743490
0.238841 0.662514 0.712333
0.238656 0.661602 0.711606
0.238156 0.659529 0.709812
0.414796 0.674226 0.706418
0.519837 0.681505 0.701817
0.586146 0.681151 0.689317
0.656876 0.656876 0.656876
0.788978 0.699527 0.696172
0.912632 0.758822 0.748502
0.314672 0.797695 0.816744
0.314471 0.797113 0.816115
0.314137 0.795931 0.814747
0.313994 0.794574 0.812895
0.481067 0.801709 0.804172
0.594533 0.790335 0.782148
0.676686 0.755525 0.728455
0.784974 0.771912 0.709990
0.917151 0.820422 0.757048
0.388493 0.921561 0.917869
0.388456 0.921169 0.917386
0.388407 0.920226 0.916199
0.388472 0.918746 0.914236
0.388884 0.916932 0.911596
0.589721 0.897992 0.877364
0.722708 0.859023 0.832804
0.760302 0.844923 0.759201
0.909755 0.864699 0.761931
0.317333 0.413483 0.721412
0.400967 0.425256 0.704218
0.520694 0.440854 0.708879
0.623964 0.460111 0.715625
0.688928 0.437697 0.720479
0.722158 0.423455 0.714117
0.729134 0.410791 0.672972
0.870360 0.466438 0.727471
0.996244 0.515050 0.767702
0.315999 0.424577 0.725429
0.402440 0.436411 0.708520
0.515356 0.450174 0.708746
0.618060 0.473308 0.715540
0.682119 0.475954 0.719537
0.722270 0.444001 0.719156
0.725765 0.409528 0.671769
0.866933 0.465140 0.726400
0.996220 0.515096 0.767891
0.311061 0.459928 0.736607
0.386039 0.469010 0.724690
0.483152 0.472639 0.705143
0.592320 0.502919 0.712681
0.661285 0.525561 0.716499
0.704026 0.525913 0.719313
0.722880 0.511228 0.692095
0.859417 0.554706 0.740766
0.999839 0.591424 0.783039
0.300870 0.527430 0.754704
0.300787 0.526081 0.753896
0.450306 0.538782 0.732232
0.530290 0.537423 0.701920
0.613375 0.557685 0.709002
0.674090 0.580158 0.712951
0.721209 0.577382 0.711290
0.846575 0.620526 0.749862
0.985507 0.665585 0.797199
0.293380 0.589286 0.772447
0.293301 0.588002 0.771701
0.393507 0.594643 0.762276
0.513817 0.597785 0.740389
0.570393 0.589820 0.711822
0.633479 0.598697 0.707710
0.714284 0.621530 0.720543
0.835722 0.662148 0.757094
0.972339 0.707815 0.805230
0.290730 0.637541 0.790744
0.290637 0.636428 0.790068
0.332458 0.637860 0.786431
0.494357 0.646469 0.770118
0.567191 0.642642 0.750836
0.609939 0.629113 0.722630
0.704290 0.647358 0.727159
0.828403 0.695112 0.765976
0.961823 0.740738 0.813359
0.287371 0.697541 0.812590
0.287216 0.696838 0.812003
0.286793 0.695264 0.810559
0.426071 0.705590 0.803464
0.536373 0.710337 0.792586
0.608460 0.707999 0.777305
0.681102 0.686758 0.748296
0.808239 0.722835 0.772746
0.932286 0.779222 0.813766
0.280565 0.780155 0.837610
0.280384 0.779710 0.837096
0.279908 0.778711 0.835817
0.279030 0.777137 0.833576
0.401808 0.787723 0.830495
0.573699 0.801983 0.826677
0.694153 0.800884 0.808710
0.772902 0.772902 0.772902
0.899927 0.811836 0.808944
0.354714 0.911351 0.938874
0.354664 0.911083 0.938532
0.354583 0.910478 0.937720
0.354584 0.909641 0.936460
0.354861 0.908836 0.934915
0.559068 0.916045 0.922944
0.717474 0.900129 0.892668
0.787369 0.866586 0.832800
0.891407 0.881257 0.822566
0.445612 0.476665 0.810130
0.493439 0.473281 0.808810
0.591028 0.495132 0.815010
0.677123 0.510918 0.820397
0.741109 0.517392 0.823559
0.784788 0.503578 0.825723
0.828273 0.486761 0.821995
0.857596 0.479964 0.781843
0.987766 0.531113 0.831439
0.443870 0.488988 0.815218
0.482758 0.482519 0.807728
0.580530 0.506379 0.813903
0.665650 0.527075 0.819100
0.727673 0.543320 0.821973
0.774349 0.554676 0.823224
0.825852 0.526518 0.827334
0.853657 0.478401 0.780204
0.987751 0.531141 0.831545
0.402847 0.522897 0.835279
0.470291 0.531748 0.822182
0.535620 0.530173 0.808113
0.628987 0.556116 0.814066
0.696288 0.577657 0.817553
0.748959 0.597541 0.819246
0.806909 0.599037 0.824007
0.843716 0.578692 0.793656
0.986840 0.621402 0.848035
0.348456 0.578944 0.858055
0.353362 0.578496 0.856940
0.502997 0.593637 0.834090
0.573880 0.596567 0.810483
0.640112 0.604389 0.808905
0.707832 0.626285 0.812943
0.787551 0.653837 0.819238
0.831384 0.632921 0.799524
0.978209 0.683444 0.857702
0.341459 0.633460 0.873718
0.341403 0.632446 0.873131
0.446185 0.641109 0.861961
0.548377 0.646226 0.842859
0.608779 0.644041 0.819814
0.660522 0.642455 0.806914
0.768116 0.677606 0.818173
0.833555 0.676144 0.815275
0.970900 0.724474 0.865396
0.338111 0.677546 0.889462
0.338042 0.676695 0.888940
0.353179 0.676322 0.886730
0.519948 0.688284 0.868914
0.596528 0.688083 0.850721
0.649741 0.680839 0.824562
0.750686 0.695907 0.819335
0.837863 0.712151 0.831054
0.965222 0.758609 0.873859
0.332990 0.735603 0.908196
0.332866 0.735110 0.907757
0.332531 0.734015 0.906677
0.416204 0.740158 0.900746
0.550801 0.748232 0.887207
0.642399 0.746741 0.867448
0.714056 0.725564 0.827567
0.824189 0.751913 0.840665
0.944192 0.804566 0.879108
0.324756 0.812613 0.929307
0.324618 0.812276 0.928915
0.324259 0.811466 0.927929
0.323597 0.810196 0.926207
0.322552 0.808619 0.923685
0.604042 0.828001 0.909625
0.724042 0.822739 0.887400
0.796688 0.800998 0.860743
0.915145 0.831282 0.882454
0.322330 0.894625 0.955852
0.322277 0.894397 0.955567
0.322183 0.893884 0.954890
0.322139 0.893179 0.953838
0.321518 0.891170 0.951544
0.533799 0.906993 0.946162
0.711965 0.917575 0.938940
0.807838 0.905895 0.910418
0.880192 0.880192 0.880192
