data/luts/Agfalike B.cube
# Baked from the Lightroom preset "JSZ-CEDAR B" by scripts/lightroom-preset-lut.lisp
# Colour only; not in this LUT (add the node instead):
#   Clarity -5
#   Vignette -17, midpoint 35, feather 66, roundness +14
#   Grain 9, size 25
TITLE "Agfalike B"
LUT_3D_SIZE 33
DOMAIN_MIN 0.0 0.0 0.0
DOMAIN_MAX 1.0 1.0 1.0
0.129267 0.129267 0.129267
0.144367 0.133493 0.133802
0.157509 0.138274 0.138241
0.170965 0.145020 0.144338
0.184970 0.152021 0.150727
0.199180 0.158903 0.156977
0.213756 0.166133 0.163435
0.229232 0.173879 0.170292
0.246012 0.182230 0.177673
0.264505 0.191026 0.185578
0.285438 0.200034 0.194031
0.316049 0.210529 0.205009
0.354603 0.220874 0.217244
0.398963 0.228796 0.229305
0.445961 0.236844 0.244965
0.491830 0.236630 0.258392
0.533258 0.242541 0.271372
0.569481 0.257906 0.284634
0.601754 0.271573 0.296318
0.630225 0.283605 0.306496
0.655149 0.294112 0.315276
0.677799 0.303638 0.323138
0.699496 0.312745 0.330576
0.720116 0.321379 0.337539
0.739769 0.329586 0.344066
0.758581 0.337419 0.350200
0.781529 0.346988 0.357742
0.812444 0.359910 0.368038
0.844012 0.373074 0.378395
0.875734 0.386262 0.388606
0.907592 0.400293 0.399463
0.939487 0.416867 0.412619
0.958541 0.427757 0.420133
0.130413 0.140427 0.135119
0.142710 0.141859 0.134806
0.157393 0.145980 0.138600
0.170824 0.152002 0.144574
0.184198 0.158767 0.151161
0.198212 0.165532 0.157406
0.212941 0.172496 0.163756
0.228729 0.179786 0.170425
0.245884 0.187526 0.177619
0.264631 0.195800 0.185444
0.285618 0.204754 0.194165
0.315556 0.216371 0.206590
0.353418 0.228264 0.220632
0.398122 0.236432 0.232730
0.445188 0.241871 0.245028
0.490885 0.244168 0.259036
0.533284 0.242440 0.270863
0.569450 0.257784 0.284111
0.601666 0.271427 0.295778
0.630083 0.283437 0.305937
0.654956 0.293923 0.314695
0.677594 0.303443 0.322549
0.699278 0.312543 0.329974
0.719883 0.321168 0.336921
0.739523 0.329367 0.343431
0.758322 0.337191 0.349544
0.781405 0.346814 0.357115
0.812326 0.359733 0.367387
0.843890 0.372888 0.377710
0.875606 0.386068 0.387881
0.907457 0.400652 0.399256
0.939276 0.417292 0.412344
0.958403 0.428354 0.419842
0.133962 0.149529 0.144134
0.140709 0.150050 0.138446
0.155742 0.152639 0.140325
0.170284 0.157738 0.145143
0.184015 0.163399 0.150240
0.198334 0.169551 0.155333
0.212945 0.176344 0.162058
0.228742 0.183748 0.169287
0.245971 0.191655 0.176977
0.264830 0.199999 0.185140
0.286107 0.208914 0.194043
0.316469 0.220563 0.206610
0.353736 0.233665 0.221993
0.397399 0.244161 0.236417
0.444511 0.248037 0.246502
0.489996 0.251124 0.259468
0.532822 0.246744 0.271050
0.569437 0.257657 0.283540
0.601580 0.271270 0.295179
0.629929 0.283250 0.305309
0.654742 0.293710 0.314040
0.677364 0.303222 0.321879
0.699029 0.312311 0.329286
0.719616 0.320927 0.336214
0.739239 0.329115 0.342701
0.758023 0.336930 0.348788
0.781258 0.346612 0.356390
0.812186 0.359527 0.366632
0.843745 0.372673 0.376916
0.875455 0.385840 0.387038
0.907262 0.401085 0.398987
0.938976 0.417817 0.411981
0.958230 0.429095 0.419481
0.139880 0.159373 0.154803
0.143689 0.156617 0.147490
0.153311 0.161374 0.145418
0.168382 0.162537 0.146230
0.182741 0.167986 0.151616
0.197210 0.175071 0.156901
0.212449 0.180763 0.160966
0.228850 0.187602 0.166698
0.246158 0.195382 0.174701
0.265143 0.203938 0.183476
0.286834 0.213398 0.193264
0.317746 0.225676 0.206627
0.355422 0.239021 0.222153
0.397566 0.252367 0.239436
0.443752 0.259257 0.251992
0.489014 0.258730 0.259676
0.531518 0.257714 0.272015
0.569441 0.257487 0.282739
0.601468 0.271050 0.294328
0.629713 0.282985 0.304409
0.654436 0.293403 0.313094
0.677031 0.302901 0.320908
0.698667 0.311975 0.328285
0.719226 0.320574 0.335179
0.738824 0.328747 0.341630
0.757584 0.336545 0.347678
0.781037 0.346311 0.355321
0.811974 0.359221 0.365517
0.843525 0.372352 0.375738
0.875194 0.385478 0.385731
0.906860 0.401782 0.398503
0.938438 0.418658 0.411367
0.957968 0.430226 0.418931
0.146134 0.170286 0.165555
0.149879 0.165960 0.159122
0.151673 0.167564 0.152475
0.166135 0.172916 0.152979
0.180683 0.172223 0.152810
0.195349 0.178199 0.158469
0.210948 0.186446 0.163884
0.227601 0.192757 0.168159
0.245976 0.199856 0.173214
0.265563 0.208038 0.180705
0.287843 0.217755 0.191106
0.319418 0.230951 0.205735
0.357585 0.245314 0.222312
0.400058 0.259156 0.239703
0.443407 0.271324 0.257329
0.487958 0.273833 0.266687
0.529880 0.270099 0.272700
0.568457 0.265313 0.282953
0.601321 0.270754 0.293177
0.629419 0.282623 0.303184
0.654015 0.292983 0.311798
0.676572 0.302460 0.319571
0.698165 0.311509 0.326901
0.718684 0.320084 0.333745
0.738245 0.328233 0.340142
0.756973 0.336008 0.346132
0.780717 0.345887 0.353823
0.811665 0.358787 0.363950
0.843136 0.371846 0.373955
0.874623 0.386136 0.384817
0.906124 0.402863 0.397685
0.937622 0.419906 0.410445
0.957561 0.431985 0.418077
0.152364 0.181855 0.176193
0.157052 0.177464 0.171733
0.159001 0.174427 0.166524
0.161993 0.179023 0.160177
0.178681 0.184793 0.161055
0.193121 0.182313 0.160080
0.208703 0.189038 0.165867
0.225766 0.198008 0.171482
0.244323 0.205811 0.176603
0.264622 0.213357 0.181882
0.288900 0.222836 0.189059
0.321489 0.236268 0.203516
0.360224 0.251790 0.221495
0.403052 0.266877 0.239913
0.446485 0.279833 0.257544
0.487289 0.289956 0.273958
0.528223 0.289752 0.281184
0.566009 0.282457 0.283988
0.600311 0.276718 0.292665
0.629017 0.282141 0.301565
0.653449 0.292425 0.310082
0.675954 0.301871 0.317794
0.697489 0.310886 0.325056
0.717953 0.319428 0.331827
0.737466 0.327545 0.338147
0.756150 0.335288 0.344054
0.780218 0.345274 0.351715
0.811013 0.358039 0.361443
0.842262 0.370918 0.370907
0.873607 0.387501 0.383732
0.905002 0.404442 0.396465
0.936338 0.421798 0.409023
0.956936 0.434698 0.416766
0.158347 0.194534 0.187745
0.163654 0.190958 0.184406
0.166973 0.186939 0.180518
0.168468 0.185769 0.174900
0.173407 0.191392 0.169175
0.191920 0.197673 0.169522
0.206528 0.193086 0.167642
0.223367 0.200902 0.173681
0.242237 0.210883 0.180125
0.262929 0.220231 0.186218
0.288293 0.229429 0.193181
0.322676 0.242696 0.204838
0.363312 0.258297 0.219154
0.406521 0.274836 0.239084
0.449959 0.289195 0.257559
0.490773 0.300469 0.273946
0.527938 0.308870 0.288704
0.563510 0.309611 0.296669
0.596883 0.302061 0.297850
0.626860 0.293668 0.301287
0.652692 0.291690 0.307842
0.675130 0.301096 0.315470
0.696589 0.310066 0.322636
0.716972 0.318555 0.329287
0.736322 0.326560 0.335340
0.754751 0.334121 0.340794
0.779033 0.344099 0.348048
0.809704 0.356722 0.357294
0.840830 0.372649 0.369444
0.872019 0.389524 0.382078
0.903239 0.406856 0.394576
0.934379 0.424750 0.406839
0.955976 0.438887 0.414755
0.164028 0.208727 0.200579
0.169580 0.205967 0.197971
0.173995 0.202754 0.195117
0.177754 0.197874 0.190864
0.178816 0.199037 0.184568
0.185583 0.205178 0.178953
0.206327 0.211978 0.178529
0.221287 0.204832 0.175278
0.239870 0.213981 0.181720
0.260813 0.225159 0.189245
0.288035 0.237721 0.198421
0.323139 0.250485 0.209749
0.364446 0.266445 0.224717
0.409342 0.283201 0.240575
0.453768 0.298603 0.256183
0.494492 0.311618 0.273505
0.531633 0.321467 0.288230
0.564850 0.328861 0.301210
0.594157 0.333867 0.312477
0.622402 0.331564 0.316489
0.647875 0.325779 0.317136
0.671696 0.316956 0.315695
0.694295 0.314109 0.319689
0.715041 0.316978 0.324959
0.734132 0.324789 0.330505
0.752342 0.332171 0.335459
0.777065 0.342241 0.342403
0.807604 0.358404 0.354677
0.838559 0.375295 0.367166
0.869566 0.392688 0.379519
0.900570 0.410748 0.391646
0.931523 0.429291 0.403587
0.954707 0.444477 0.412095
0.168808 0.224816 0.215002
0.174738 0.222607 0.212877
0.179910 0.220086 0.210592
0.185325 0.216274 0.207351
0.189742 0.210466 0.202748
0.190018 0.214425 0.194986
0.199119 0.220974 0.189316
0.222336 0.228077 0.187845
0.237538 0.217969 0.182811
0.258409 0.228511 0.190256
0.287863 0.244471 0.201748
0.324298 0.259934 0.214384
0.366040 0.275513 0.229680
0.411050 0.292850 0.246897
0.455572 0.309034 0.262124
0.497534 0.322942 0.274279
0.535355 0.334804 0.286426
0.568583 0.344750 0.299622
0.598118 0.352907 0.310704
0.624188 0.359938 0.320214
0.647162 0.366150 0.328329
0.668757 0.372125 0.335682
0.689476 0.378082 0.342451
0.709325 0.384236 0.348607
0.728459 0.390808 0.354173
0.747030 0.397983 0.359152
0.772114 0.403675 0.366091
0.801492 0.405825 0.373886
0.833867 0.395853 0.372272
0.865942 0.397839 0.375594
0.896851 0.416337 0.387532
0.927761 0.435117 0.399384
0.953839 0.448328 0.410278
0.171169 0.244085 0.232133
0.178073 0.242267 0.230318
0.184333 0.240235 0.228413
0.191360 0.237262 0.225809
0.198250 0.232974 0.222339
0.203591 0.227117 0.217576
0.202587 0.233451 0.207169
0.213565 0.240251 0.200888
0.238346 0.247471 0.198271
0.255335 0.232945 0.189603
0.286344 0.248968 0.201568
0.324796 0.270171 0.217218
0.367668 0.288165 0.232355
0.412805 0.305082 0.248791
0.456869 0.322136 0.265287
0.498322 0.337608 0.279233
0.536568 0.350870 0.289077
0.571362 0.361967 0.294733
0.601448 0.372310 0.303691
0.627608 0.381838 0.313524
0.650778 0.390466 0.321600
0.672726 0.398781 0.328738
0.693792 0.406958 0.335067
0.713979 0.415077 0.340539
0.733418 0.423217 0.345116
0.752243 0.431418 0.348702
0.778918 0.440642 0.354712
0.809892 0.450018 0.361998
0.841233 0.458893 0.368959
0.872678 0.467021 0.375524
0.903223 0.474981 0.388505
0.933508 0.481329 0.401533
0.960510 0.484151 0.413148
0.157998 0.274268 0.258815
0.170564 0.272465 0.256763
0.181140 0.270593 0.254821
0.192416 0.268066 0.252432
0.203573 0.264705 0.249561
0.213861 0.260171 0.246079
0.222394 0.253798 0.241679
0.220526 0.259931 0.229131
0.227359 0.266931 0.217451
0.254308 0.274696 0.212912
0.284262 0.260221 0.199984
0.322262 0.275165 0.213543
0.367315 0.300057 0.232144
0.413714 0.322367 0.249668
0.457664 0.338195 0.263959
0.498770 0.353772 0.277897
0.536421 0.368037 0.289477
0.570572 0.380569 0.297580
0.601572 0.391119 0.300278
0.629640 0.399683 0.296611
0.653007 0.408985 0.302876
0.675168 0.418060 0.308894
0.696437 0.426843 0.313739
0.716797 0.435415 0.317664
0.736352 0.443854 0.320831
0.755216 0.452184 0.323337
0.783047 0.462663 0.329510
0.813975 0.474624 0.341995
0.844989 0.486781 0.356679
0.876106 0.498654 0.371419
0.907285 0.510123 0.386161
0.938418 0.521038 0.400808
0.969305 0.531213 0.415212
0.163006 0.308537 0.287896
0.163124 0.308476 0.287770
0.163263 0.308413 0.287632
0.163467 0.308330 0.287439
0.188483 0.305033 0.283960
0.211812 0.300566 0.280059
0.229311 0.295407 0.276243
0.243061 0.288758 0.271983
0.242836 0.292446 0.258459
0.246228 0.300963 0.236995
0.284449 0.310510 0.228305
0.320454 0.290270 0.210330
0.363552 0.305004 0.224933
0.411359 0.331272 0.244501
0.456705 0.356484 0.262591
0.498032 0.374059 0.276038
0.535388 0.387548 0.286211
0.569107 0.400033 0.294441
0.599398 0.411287 0.299677
0.626595 0.421119 0.300620
0.651764 0.429297 0.293303
0.676126 0.436755 0.281455
0.697451 0.445535 0.285796
0.717504 0.454517 0.293149
0.736605 0.463528 0.301373
0.754982 0.472462 0.309304
0.783502 0.484238 0.322113
0.814679 0.496752 0.336426
0.846079 0.509279 0.351054
0.877587 0.521716 0.365897
0.909165 0.533976 0.380898
0.940708 0.545950 0.395966
0.972015 0.557509 0.410962
0.190812 0.344762 0.317935
0.190958 0.344737 0.317848
0.191125 0.344711 0.317751
0.191366 0.344676 0.317614
0.191692 0.344628 0.317429
0.192107 0.344562 0.317190
0.200497 0.343404 0.315957
0.239966 0.335953 0.310294
0.263841 0.327807 0.305378
0.265325 0.330845 0.283040
0.275962 0.341112 0.254911
0.325863 0.351103 0.241820
0.360535 0.318333 0.218034
0.406132 0.335497 0.234236
0.452097 0.360436 0.252480
0.494285 0.383487 0.268474
0.532416 0.404173 0.281874
0.566530 0.421821 0.292234
0.596489 0.432829 0.297742
0.623195 0.442662 0.300253
0.647605 0.451499 0.298683
0.671675 0.459563 0.290307
0.694632 0.467446 0.282891
0.715034 0.476352 0.291200
0.734273 0.484933 0.299035
0.752783 0.493366 0.306573
0.782835 0.504935 0.319018
0.814476 0.517068 0.332633
0.846249 0.529317 0.346738
0.878117 0.541605 0.361239
0.910040 0.553856 0.376056
0.941912 0.565971 0.391079
0.973528 0.577829 0.406156
0.218849 0.381020 0.348353
0.218991 0.380990 0.348269
0.219152 0.380956 0.348174
0.219382 0.380906 0.348038
0.219691 0.380836 0.347852
0.220082 0.380736 0.347606
0.220554 0.380596 0.347288
0.221104 0.380395 0.346879
0.248393 0.375377 0.343142
0.294648 0.360183 0.334800
0.282275 0.371716 0.288662
0.316704 0.382253 0.267487
0.377878 0.391655 0.250687
0.399781 0.340104 0.222892
0.446274 0.363882 0.241137
0.488787 0.386555 0.257201
0.527014 0.406956 0.270623
0.561147 0.424929 0.281285
0.591460 0.440439 0.289030
0.618273 0.453461 0.293541
0.642759 0.464316 0.294467
0.666521 0.473093 0.290321
0.689423 0.479710 0.281054
0.710643 0.491333 0.287683
0.730933 0.503737 0.297424
0.750507 0.512852 0.305646
0.781701 0.524573 0.318350
0.813787 0.536374 0.331418
0.845933 0.548051 0.344616
0.878151 0.559849 0.358381
0.910401 0.571725 0.372656
0.942572 0.583582 0.387302
0.974455 0.595297 0.402142
0.244985 0.414929 0.377130
0.245113 0.414880 0.377037
0.245258 0.414825 0.376930
0.245466 0.414742 0.376776
0.245742 0.414626 0.376563
0.246090 0.414467 0.376283
0.246508 0.414252 0.375921
0.246975 0.413934 0.375435
0.247286 0.413192 0.374538
0.291176 0.403020 0.368321
0.308982 0.400075 0.337510
0.314991 0.411673 0.292054
0.367599 0.421282 0.274222
0.429276 0.424722 0.255722
0.439975 0.367248 0.229939
0.482810 0.389370 0.246081
0.521131 0.409354 0.259494
0.555236 0.426996 0.270129
0.585457 0.442250 0.277892
0.612140 0.455102 0.282555
0.636802 0.466109 0.284109
0.660636 0.475366 0.281548
0.683472 0.483107 0.275779
0.704931 0.493683 0.279592
0.725289 0.505980 0.289441
0.747154 0.519163 0.300062
0.780093 0.538686 0.316422
0.812937 0.553817 0.331071
0.845448 0.565475 0.344312
0.878004 0.576930 0.357570
0.910563 0.588255 0.371020
0.943010 0.599648 0.385015
0.975128 0.610996 0.399369
0.268293 0.445641 0.403490
0.268405 0.445570 0.403382
0.268530 0.445488 0.403258
0.268710 0.445368 0.403078
0.268948 0.445200 0.402830
0.269246 0.444974 0.402504
0.269604 0.444676 0.402086
0.269908 0.444123 0.401411
0.270079 0.443179 0.400356
0.270093 0.441790 0.398873
0.334335 0.425202 0.380638
0.317599 0.438366 0.314872
0.364166 0.448293 0.296097
0.422265 0.456270 0.277350
0.462839 0.436779 0.257512
0.477017 0.392406 0.236415
0.515330 0.411852 0.249797
0.549335 0.429072 0.260376
0.579415 0.443989 0.268099
0.605987 0.456604 0.272804
0.630885 0.467652 0.274696
0.654857 0.477084 0.272881
0.677771 0.485294 0.268706
0.699416 0.495691 0.272209
0.719946 0.507945 0.282210
0.743678 0.522050 0.293854
0.776995 0.541645 0.310445
0.811041 0.561682 0.327455
0.845046 0.580839 0.344148
0.877917 0.592306 0.357535
0.910759 0.603536 0.370910
0.943452 0.614485 0.384249
0.975772 0.625352 0.397923
0.288424 0.473019 0.427270
0.288519 0.472926 0.427146
0.288625 0.472820 0.427004
0.288776 0.472663 0.426798
0.288976 0.472447 0.426515
0.289225 0.472158 0.426143
0.289469 0.471702 0.425596
0.289612 0.470920 0.424732
0.289658 0.469803 0.423539
0.289546 0.468239 0.421918
0.350687 0.450881 0.413333
0.335783 0.462093 0.348558
0.364935 0.472348 0.316329
0.417105 0.480357 0.297485
0.476330 0.486860 0.278803
0.492205 0.443269 0.254455
0.510106 0.414898 0.242629
0.543872 0.431624 0.253173
0.573708 0.446163 0.260907
0.600186 0.458576 0.265776
0.625293 0.469681 0.268133
0.649383 0.479251 0.267024
0.672404 0.487670 0.263709
0.694270 0.497445 0.265575
0.714994 0.509674 0.275731
0.740862 0.524858 0.288519
0.774646 0.544583 0.305383
0.808940 0.564633 0.322553
0.843246 0.584714 0.339780
0.877635 0.604856 0.357104
0.911167 0.617053 0.371076
0.944069 0.627983 0.384475
0.976548 0.638557 0.397703
0.305315 0.497229 0.448581
0.305392 0.497116 0.448443
0.305479 0.496988 0.448284
0.305603 0.496799 0.448053
0.305765 0.496540 0.447738
0.305925 0.496133 0.447268
0.306017 0.495467 0.446543
0.306051 0.494544 0.445562
0.305967 0.493256 0.444229
0.305735 0.491543 0.442488
0.355448 0.477845 0.435361
0.354820 0.482937 0.379179
0.368620 0.493448 0.335071
0.416076 0.501481 0.316400
0.469609 0.507940 0.298170
0.513233 0.499555 0.280166
0.517601 0.446420 0.252011
0.539205 0.435019 0.249351
0.568657 0.449157 0.257199
0.595045 0.461444 0.262462
0.620286 0.472675 0.265581
0.644437 0.482515 0.265641
0.667542 0.490994 0.262788
0.689664 0.499043 0.259725
0.710553 0.511243 0.270011
0.738749 0.527625 0.284022
0.772991 0.547495 0.301140
0.807554 0.567600 0.318461
0.842060 0.587711 0.335796
0.876536 0.607831 0.353164
0.910961 0.627937 0.370557
0.944592 0.640330 0.384688
0.977407 0.651155 0.398052
0.318528 0.518831 0.468083
0.318613 0.518691 0.467914
0.318707 0.518532 0.467721
0.318832 0.518288 0.467431
0.318956 0.517896 0.466985
0.319050 0.517299 0.466331
0.319118 0.516496 0.465467
0.319105 0.515393 0.464309
0.318979 0.513937 0.462809
0.318711 0.512078 0.460925
0.362986 0.499942 0.454328
0.372076 0.501230 0.404545
0.374492 0.511857 0.352537
0.417878 0.519891 0.334382
0.466632 0.526337 0.316844
0.518681 0.531634 0.299649
0.536032 0.499498 0.280816
0.539697 0.449409 0.253175
0.564284 0.453049 0.256844
0.590563 0.465249 0.262571
0.615806 0.476593 0.266480
0.639908 0.486753 0.267888
0.662985 0.495370 0.265732
0.685137 0.503017 0.261665
0.706276 0.512714 0.264626
0.736964 0.530413 0.279908
0.771627 0.550434 0.297237
0.806433 0.570601 0.314675
0.841154 0.590769 0.332110
0.875802 0.610929 0.349553
0.910328 0.631042 0.366985
0.944605 0.651024 0.384342
0.977719 0.662907 0.398179
0.328645 0.539565 0.487476
0.328715 0.539393 0.487273
0.328784 0.539180 0.487027
0.328862 0.538843 0.486648
0.328942 0.538354 0.486106
0.329015 0.537683 0.485373
0.329046 0.536766 0.484392
0.329009 0.535552 0.483114
0.328882 0.533992 0.481495
0.328682 0.532021 0.479466
0.371178 0.520633 0.472875
0.390836 0.517681 0.431446
0.381335 0.528615 0.371577
0.420666 0.536841 0.353760
0.465053 0.543435 0.336600
0.512472 0.548857 0.319865
0.553366 0.545451 0.303507
0.557140 0.503073 0.281841
0.560320 0.458312 0.258538
0.586204 0.469612 0.264412
0.611393 0.481012 0.269046
0.635423 0.491414 0.271634
0.658431 0.500573 0.271449
0.680572 0.508206 0.267589
0.701927 0.515079 0.262286
0.735415 0.533242 0.276055
0.770511 0.553415 0.293607
0.805562 0.573640 0.311168
0.840501 0.593861 0.328709
0.875335 0.614066 0.346239
0.910004 0.634209 0.363732
0.944362 0.654192 0.381116
0.978149 0.673858 0.398259
0.336901 0.559766 0.506850
0.336940 0.559541 0.506596
0.336986 0.559286 0.506308
0.337040 0.558903 0.505880
0.337090 0.558352 0.505274
0.337118 0.557594 0.504452
0.337106 0.556587 0.503374
0.337034 0.555286 0.502001
0.336882 0.553650 0.500293
0.336644 0.551653 0.498227
0.379833 0.540558 0.491420
0.411380 0.532464 0.460350
0.393253 0.543677 0.397505
0.423764 0.552142 0.376502
0.463509 0.558971 0.360330
0.506288 0.564628 0.344471
0.550646 0.569381 0.328667
0.573387 0.551463 0.312899
0.576780 0.512252 0.288949
0.582023 0.474934 0.269160
0.607146 0.486075 0.273661
0.631098 0.496529 0.276931
0.654023 0.506125 0.278468
0.676086 0.514490 0.277109
0.699098 0.522214 0.272632
0.734219 0.536165 0.272527
0.769689 0.556454 0.290270
0.804967 0.576727 0.307946
0.840110 0.596995 0.325587
0.875119 0.617240 0.343199
0.909926 0.637409 0.360751
0.944370 0.657397 0.378165
0.978173 0.677035 0.395300
0.343368 0.579360 0.526177
0.343391 0.579113 0.525901
0.343410 0.578824 0.525580
0.343427 0.578393 0.525105
0.343431 0.577786 0.524442
0.343409 0.576966 0.523557
0.343345 0.575898 0.522414
0.343222 0.574541 0.520979
0.343029 0.572866 0.519221
0.342790 0.570895 0.517160
0.389212 0.559611 0.509807
0.432577 0.545740 0.489099
0.415914 0.557224 0.434077
0.427765 0.565964 0.400471
0.462813 0.573070 0.385524
0.500976 0.579005 0.370821
0.540807 0.584023 0.356254
0.581123 0.588290 0.341760
0.591978 0.562127 0.326552
0.595287 0.523663 0.301496
0.602795 0.493393 0.285311
0.626707 0.503485 0.288054
0.649635 0.512808 0.289164
0.671696 0.521282 0.288423
0.697643 0.531234 0.287414
0.733097 0.545328 0.287559
0.769164 0.559567 0.287210
0.804651 0.579878 0.304991
0.839980 0.600183 0.322723
0.875147 0.620458 0.340409
0.910074 0.640645 0.358013
0.944589 0.660630 0.375450
0.978395 0.680233 0.392570
0.348443 0.598330 0.545389
0.348441 0.598058 0.545089
0.348433 0.597743 0.544743
0.348415 0.597277 0.544235
0.348375 0.596629 0.543532
0.348303 0.595767 0.542604
0.348184 0.594658 0.541421
0.348008 0.593272 0.539953
0.347789 0.591618 0.538205
0.347543 0.589706 0.536185
0.398914 0.577984 0.528061
0.453912 0.557602 0.516778
0.438965 0.569333 0.470272
0.432795 0.578358 0.425042
0.463085 0.585760 0.411529
0.496620 0.591996 0.398208
0.532004 0.597316 0.384981
0.568118 0.601883 0.371792
0.605641 0.605937 0.358195
0.609613 0.573622 0.342212
0.612905 0.536026 0.316949
0.622231 0.511904 0.303777
0.645056 0.521384 0.305927
0.667065 0.530175 0.306526
0.696230 0.542402 0.308886
0.732048 0.557313 0.311221
0.768315 0.570922 0.308881
0.804230 0.583345 0.302696
0.839445 0.603440 0.319443
0.874470 0.623768 0.336877
0.909238 0.644012 0.354206
0.943562 0.664052 0.371334
0.977125 0.683697 0.388100
0.353221 0.617526 0.565106
0.353229 0.617272 0.564818
0.353234 0.616977 0.564487
0.353235 0.616545 0.564002
0.353224 0.615946 0.563336
0.353195 0.615155 0.562462
0.353140 0.614149 0.561358
0.353069 0.612931 0.560023
0.352992 0.611501 0.558457
0.352924 0.609868 0.556664
0.403564 0.599289 0.548729
0.461028 0.580484 0.537756
0.463871 0.582171 0.509182
0.451608 0.591863 0.464912
0.463331 0.599938 0.439704
0.491680 0.606866 0.427964
0.521971 0.612903 0.416301
0.553323 0.618237 0.404607
0.586819 0.623164 0.392346
0.622389 0.627741 0.379371
0.631971 0.604385 0.365362
0.635875 0.571893 0.342505
0.639470 0.536392 0.320089
0.657968 0.537380 0.317502
0.690533 0.551507 0.321747
0.726614 0.567069 0.325587
0.762879 0.581777 0.326134
0.799190 0.594273 0.319834
0.835447 0.606594 0.312934
0.870910 0.627092 0.330552
0.906006 0.647460 0.348005
0.940542 0.667572 0.365194
0.974220 0.687247 0.381968
0.366095 0.645777 0.592159
0.366088 0.645520 0.591872
0.366078 0.645225 0.591543
0.366058 0.644794 0.591065
0.366024 0.644202 0.590411
0.365977 0.643437 0.589568
0.365920 0.642493 0.588527
0.365858 0.641363 0.587280
0.365800 0.640049 0.585826
0.365764 0.638562 0.584173
0.365775 0.636925 0.582338
0.460315 0.615908 0.568038
0.495442 0.599874 0.558956
0.484052 0.610514 0.523345
0.473156 0.619252 0.482715
0.486127 0.626720 0.462485
0.510893 0.633233 0.451930
0.537487 0.639082 0.441234
0.566638 0.644551 0.429953
0.597862 0.649648 0.418066
0.630797 0.654395 0.405508
0.658821 0.652420 0.392166
0.662946 0.624702 0.376246
0.666849 0.592107 0.351538
0.682977 0.560775 0.334284
0.719778 0.576947 0.339935
0.756479 0.592599 0.343328
0.793107 0.607185 0.343126
0.829775 0.619385 0.335565
0.866380 0.630117 0.323653
0.901915 0.650642 0.341301
0.936818 0.670887 0.358645
0.970717 0.690625 0.375497
0.379765 0.674598 0.619592
0.379745 0.674343 0.619310
0.379723 0.674053 0.618991
0.379690 0.673636 0.618531
0.379646 0.673075 0.617912
0.379593 0.672359 0.617123
0.379532 0.671481 0.616154
0.379471 0.670440 0.615001
0.379421 0.669241 0.613666
0.379400 0.667897 0.612160
0.379431 0.666430 0.610498
0.447899 0.653069 0.600266
0.496877 0.637380 0.590523
0.516681 0.628326 0.577759
0.506663 0.637855 0.545308
0.497004 0.645895 0.509271
0.504126 0.652886 0.487523
0.526212 0.659293 0.477757
0.550948 0.665283 0.467497
0.577836 0.670877 0.456721
0.606591 0.676115 0.445345
0.637005 0.681033 0.433260
0.668907 0.685653 0.420370
0.690510 0.671787 0.404840
0.696002 0.620783 0.373301
0.712224 0.587067 0.354735
0.749389 0.603361 0.360371
0.786411 0.619135 0.363786
0.823329 0.633899 0.363788
0.860168 0.646530 0.357288
0.896956 0.654709 0.337709
0.932290 0.673885 0.351693
0.966420 0.693678 0.368634
0.393875 0.703451 0.646913
0.393852 0.703210 0.646648
0.393826 0.702938 0.646349
0.393790 0.702548 0.645920
0.393744 0.702027 0.645345
0.393689 0.701365 0.644615
0.393631 0.700560 0.643724
0.393576 0.699613 0.642670
0.393539 0.698531 0.641460
0.393534 0.697329 0.640100
0.393583 0.696024 0.638607
0.393709 0.694638 0.636996
0.488759 0.675437 0.622931
0.525289 0.661806 0.614669
0.539643 0.655340 0.601881
0.530782 0.664091 0.573321
0.522099 0.671700 0.541614
0.520187 0.678713 0.513125
0.540522 0.685228 0.503802
