data/luts/JSZ-CEDAR F.cube
# Baked from the Lightroom preset "JSZ-CEDAR F" by scripts/lightroom-preset-lut.lisp
# Colour only; not in this LUT (add the node instead):
#   Clarity +20
#   Sharpening 60, radius 1.4
#   White balance 4600 K, tint -3, taken relative to 5500 K daylight
TITLE "JSZ-CEDAR F"
LUT_3D_SIZE 5
DOMAIN_MIN 0.0 0.0 0.0
DOMAIN_MAX 1.0 1.0 1.0
0.103424 0.095516 0.089468
0.264266 0.144202 0.138963
0.481715 0.210223 0.206449
0.619627 0.252138 0.249375
0.777592 0.300118 0.298454
0.158916 0.295269 0.180595
0.275290 0.312002 0.161270
0.488326 0.367570 0.241873
0.625572 0.393129 0.280521
0.782528 0.409678 0.321398
0.223862 0.521954 0.299171
0.299096 0.525572 0.273770
0.503250 0.557847 0.254249
0.643920 0.578082 0.248195
0.800125 0.624132 0.334243
0.273452 0.685885 0.396305
0.337511 0.681649 0.391274
0.512681 0.709559 0.353450
0.652055 0.728894 0.327533
0.813816 0.749863 0.306591
0.334816 0.880070 0.512833
0.334587 0.879388 0.510292
0.531960 0.886206 0.464773
0.668538 0.908992 0.445424
0.824403 0.929932 0.411458
0.221853 0.162250 0.312453
0.301441 0.161186 0.309024
0.492299 0.213530 0.354110
0.625654 0.254049 0.378688
0.781591 0.301383 0.399940
0.215714 0.303774 0.322049
0.298117 0.299984 0.318730
0.488669 0.340338 0.360936
0.623191 0.363626 0.385756
0.780245 0.382553 0.406489
0.239568 0.526131 0.407794
0.337812 0.520602 0.401930
0.508791 0.550379 0.396289
0.643142 0.575410 0.424511
0.795750 0.625382 0.470081
0.275351 0.689911 0.489491
0.364048 0.685662 0.484768
0.516368 0.694201 0.460409
0.653790 0.722472 0.453682
0.814085 0.747411 0.468665
0.336118 0.882869 0.584626
0.375602 0.880823 0.582028
0.554620 0.870491 0.558350
0.669149 0.897285 0.538923
0.824513 0.924122 0.523971
0.365286 0.232216 0.546447
0.427303 0.232005 0.545854
0.530091 0.231244 0.543498
0.644331 0.259837 0.569004
0.794492 0.305378 0.609117
0.360344 0.348998 0.549826
0.423463 0.345899 0.549201
0.528237 0.335936 0.546754
0.642277 0.345216 0.571071
0.793423 0.355155 0.610692
0.347636 0.535552 0.556817
0.414092 0.534572 0.556034
0.525438 0.531368 0.553414
0.638700 0.551277 0.574321
0.792258 0.588852 0.613244
0.361763 0.690512 0.605799
0.431637 0.688025 0.603323
0.550050 0.679867 0.594768
0.654870 0.696930 0.598765
0.810038 0.738297 0.646474
0.364671 0.883304 0.678277
0.455460 0.879958 0.675299
0.595427 0.870157 0.666937
0.674070 0.871873 0.646229
0.828695 0.911419 0.659885
0.513576 0.285638 0.725210
0.547553 0.285475 0.724725
0.611210 0.284921 0.722979
0.690569 0.283837 0.719487
0.818923 0.312796 0.744853
0.510956 0.354334 0.727374
0.545573 0.350334 0.726824
0.610305 0.336081 0.724895
0.690185 0.291667 0.720909
0.818141 0.312561 0.745558
0.504626 0.575941 0.731808
0.541385 0.574881 0.731111
0.609337 0.571446 0.728985
0.689459 0.564710 0.725066
0.817079 0.581397 0.746473
0.492823 0.702836 0.738151
0.534070 0.702150 0.737398
0.608334 0.699988 0.735205
0.689220 0.695914 0.731273
0.814075 0.713565 0.748904
0.506712 0.879821 0.788976
0.555490 0.878088 0.787219
0.637911 0.873180 0.782381
0.716722 0.866534 0.774532
0.831535 0.879452 0.776697
0.651657 0.350662 0.942553
0.668466 0.350495 0.942008
0.708774 0.349953 0.940229
0.786375 0.348921 0.936830
0.879862 0.347306 0.931478
0.650959 0.351027 0.943769
0.667980 0.350859 0.943224
0.708247 0.350318 0.941446
0.786123 0.349287 0.938050
0.879676 0.347673 0.932701
0.650212 0.617440 0.946187
0.668003 0.616157 0.945567
0.708323 0.611971 0.943642
0.787352 0.603690 0.939990
0.881312 0.589856 0.934445
0.647197 0.755535 0.951692
0.666431 0.754852 0.951061
0.706801 0.752671 0.949118
0.787697 0.748509 0.945426
0.882193 0.741997 0.939822
0.639227 0.900787 0.958404
0.661273 0.900383 0.958343
0.705777 0.899101 0.958227
0.786757 0.895812 0.955131
0.881992 0.890502 0.949636
