data/luts/JSZ-CEDAR F.cube
# Baked from the Lightroom preset "JSZ-CEDAR F" by scripts/lightroom-preset-lut.lisp
# Colour only; not in this LUT (add the node instead):
#   Clarity +20
#   Sharpening 60, radius 1.4
#   White balance 4600 K, tint -3, taken relative to 5500 K daylight
TITLE "JSZ-CEDAR F"
LUT_3D_SIZE 33
DOMAIN_MIN 0.0 0.0 0.0
DOMAIN_MAX 1.0 1.0 1.0
0.103424 0.095516 0.089468
0.121221 0.100894 0.094919
0.139644 0.106464 0.100569
0.158762 0.112246 0.106440
0.177915 0.118042 0.112330
0.197674 0.124024 0.118413
0.218455 0.130318 0.124818
0.240508 0.137000 0.131623
0.264266 0.144202 0.138963
0.291355 0.152417 0.147343
0.320518 0.161265 0.156375
0.350338 0.170316 0.165621
0.379747 0.179245 0.174749
0.407835 0.187775 0.183474
0.434066 0.195744 0.191628
0.458717 0.203234 0.199294
0.481715 0.210223 0.206449
0.502978 0.216685 0.213066
0.522482 0.222613 0.219137
0.540356 0.228045 0.224701
0.556701 0.233013 0.229789
0.571377 0.237474 0.234357
0.584480 0.241456 0.238436
0.598463 0.245706 0.242788
0.619627 0.252138 0.249375
0.640192 0.258388 0.255774
0.660281 0.264492 0.262022
0.680013 0.270487 0.268158
0.699508 0.276409 0.274217
0.718886 0.282295 0.280237
0.738272 0.288181 0.286257
0.757795 0.294109 0.292315
0.777592 0.300118 0.298454
0.108764 0.118691 0.097133
0.124094 0.122824 0.099009
0.142949 0.127561 0.104682
0.160852 0.133020 0.112239
0.179508 0.137423 0.117328
0.198913 0.141688 0.122739
0.219400 0.145884 0.128490
0.241189 0.150045 0.134610
0.264682 0.154259 0.141202
0.291509 0.158979 0.148755
0.320426 0.163785 0.156874
0.350118 0.170249 0.165553
0.379555 0.179186 0.174689
0.407671 0.187726 0.183423
0.433926 0.195702 0.191584
0.458596 0.203197 0.199257
0.481612 0.210191 0.206417
0.502890 0.216658 0.213039
0.522407 0.222590 0.219114
0.540291 0.228026 0.224681
0.556647 0.232997 0.229772
0.571331 0.237460 0.234343
0.584442 0.241445 0.238424
0.598400 0.245687 0.242769
0.619569 0.252121 0.249357
0.640139 0.258372 0.255757
0.660231 0.264477 0.262007
0.679966 0.270473 0.268143
0.699464 0.276396 0.274204
0.718844 0.282282 0.280224
0.738232 0.288169 0.286244
0.757756 0.294097 0.292303
0.777554 0.300106 0.298442
0.114124 0.139680 0.105673
0.125263 0.142946 0.104559
0.144673 0.148408 0.106997
0.165194 0.152386 0.110965
0.182157 0.156265 0.119342
0.200540 0.162406 0.128278
0.220902 0.167463 0.133957
0.242608 0.172500 0.140076
0.266027 0.177599 0.146706
0.292792 0.183190 0.154314
0.321674 0.188787 0.162494
0.351228 0.193813 0.170766
0.380380 0.198109 0.178823
0.408212 0.201390 0.186374
0.434167 0.203425 0.193226
0.458513 0.204215 0.199443
0.481495 0.210156 0.206381
0.502790 0.216628 0.213008
0.522322 0.222564 0.219087
0.540219 0.228003 0.224658
0.556585 0.232978 0.229753
0.571279 0.237444 0.234327
0.584398 0.241431 0.238411
0.598328 0.245665 0.242747
0.619504 0.252101 0.249337
0.640079 0.258353 0.255739
0.660175 0.264460 0.261990
0.679914 0.270457 0.268127
0.699414 0.276380 0.274188
0.718797 0.282267 0.280210
0.738187 0.288155 0.286230
0.757712 0.294083 0.292289
0.777512 0.300093 0.298429
0.120453 0.161510 0.115266
0.127578 0.162956 0.111758
0.144828 0.167474 0.113146
0.165098 0.172208 0.114274
0.185893 0.175925 0.116195
0.203675 0.179056 0.124408
0.222904 0.185078 0.134913
0.243811 0.192508 0.145263
0.267168 0.198636 0.151940
0.293893 0.205433 0.159663
0.322790 0.212512 0.168054
0.352405 0.219406 0.176645
0.381641 0.225745 0.185074
0.409572 0.231185 0.193029
0.435628 0.235460 0.200305
0.460072 0.238496 0.206946
0.482823 0.240011 0.212868
0.503776 0.239574 0.217959
0.522929 0.237598 0.222305
0.540411 0.234214 0.225966
0.556497 0.232951 0.229725
0.571205 0.237422 0.234304
0.584336 0.241412 0.238391
0.598226 0.245634 0.242715
0.619410 0.252072 0.249308
0.639992 0.258327 0.255712
0.660095 0.264435 0.261965
0.679838 0.270434 0.268104
0.699343 0.276359 0.274166
0.718729 0.282247 0.280189
0.738121 0.288136 0.286210
0.757649 0.294064 0.292270
0.777450 0.300074 0.298410
0.126989 0.184079 0.125663
0.132443 0.183986 0.122286
0.146564 0.187975 0.121157
0.165419 0.192235 0.121750
0.185244 0.196244 0.121849
0.206883 0.200068 0.121644
0.225808 0.202755 0.129798
0.246350 0.208459 0.140791
0.268677 0.216395 0.153204
0.294771 0.225441 0.164697
0.323650 0.233323 0.173122
0.353284 0.241082 0.181798
0.382565 0.248391 0.190361
0.410565 0.254971 0.198507
0.436703 0.260637 0.206039
0.461244 0.265449 0.213024
0.484120 0.269349 0.219427
0.505242 0.272250 0.225204
0.524580 0.274058 0.230324
0.542249 0.274677 0.234796
0.558352 0.273925 0.238607
0.572724 0.271381 0.241630
0.585427 0.266311 0.243733
0.598742 0.259596 0.245671
0.619369 0.253861 0.249658
0.639876 0.258292 0.255675
0.659986 0.264402 0.261931
0.679737 0.270403 0.268072
0.699247 0.276330 0.274136
0.718638 0.282219 0.280160
0.738034 0.288109 0.286183
0.757565 0.294039 0.292243
0.777368 0.300049 0.298384
0.133904 0.208032 0.137123
0.139795 0.207224 0.136214
0.148964 0.210054 0.130636
0.167239 0.214105 0.130931
0.185857 0.217854 0.130754
0.205904 0.221503 0.130100
0.228147 0.225135 0.128916
0.249018 0.227910 0.136104
0.271197 0.233459 0.146985
0.296733 0.242005 0.161204
0.324582 0.252862 0.176793
0.354038 0.261913 0.186926
0.383357 0.269864 0.195531
0.411415 0.277102 0.203749
0.437612 0.283468 0.211377
0.462211 0.289057 0.218485
0.485151 0.293849 0.225042
0.506344 0.297808 0.231015
0.525761 0.300907 0.236385
0.543521 0.303157 0.241182
0.559739 0.304555 0.245430
0.574263 0.305001 0.249071
0.587185 0.304447 0.252117
0.600682 0.303446 0.255219
0.621581 0.303901 0.260458
0.641830 0.303060 0.265282
0.661525 0.300408 0.269612
0.680730 0.294731 0.273223
0.699583 0.286327 0.276223
0.718522 0.282184 0.280124
0.737922 0.288075 0.286148
0.757457 0.294006 0.292210
0.777262 0.300017 0.298352
0.141302 0.233745 0.149800
0.145062 0.233213 0.149084
0.152288 0.233893 0.142008
0.169944 0.237872 0.141620
0.187880 0.241488 0.141278
0.206817 0.244983 0.140485
0.227558 0.248468 0.139202
0.250673 0.251978 0.137358
0.273704 0.254924 0.143041
0.299114 0.260828 0.154289
0.326875 0.269645 0.169799
0.355537 0.280315 0.185888
0.384089 0.291393 0.200892
0.412209 0.299183 0.209138
0.438468 0.306076 0.216811
0.463123 0.312193 0.223975
0.486120 0.317536 0.230604
0.507369 0.322085 0.236664
0.526843 0.325834 0.242140
0.544657 0.328815 0.247064
0.560934 0.331057 0.251467
0.575523 0.332499 0.255298
0.588517 0.333149 0.258581
0.601990 0.333621 0.261949
0.622986 0.336035 0.267572
0.643360 0.337834 0.272924
0.663232 0.338988 0.278027
0.682722 0.339438 0.282896
0.701939 0.339077 0.287539
0.720994 0.337706 0.291945
0.739990 0.334951 0.296069
0.759014 0.330003 0.299776
0.778111 0.320902 0.302698
0.149563 0.262555 0.164195
0.150645 0.262251 0.163632
0.163488 0.260955 0.162414
0.173489 0.264659 0.154073
0.191083 0.268181 0.153606
0.209251 0.271538 0.152709
0.228886 0.274872 0.151350
0.250572 0.278237 0.149474
0.274825 0.281652 0.147004
0.301575 0.284967 0.151256
0.329257 0.290885 0.162973
0.357913 0.299378 0.178086
0.386345 0.309312 0.194134
0.413634 0.319768 0.209614
0.439326 0.329320 0.222570
0.464037 0.335835 0.229743
0.487090 0.341566 0.236394
0.508393 0.346514 0.242488
0.527921 0.350693 0.248014
0.545783 0.354154 0.253003
0.562112 0.356921 0.257487
0.576751 0.358934 0.261413
0.589794 0.360216 0.264806
0.603192 0.361366 0.268261
0.624245 0.364626 0.274016
0.644686 0.367404 0.279525
0.664635 0.369718 0.284822
0.684212 0.371581 0.289939
0.703533 0.372997 0.294907
0.722716 0.373960 0.299753
0.741882 0.374449 0.304505
0.761157 0.374421 0.309186
0.780670 0.373799 0.313814
0.158916 0.295269 0.180595
0.158850 0.295062 0.180109
0.169973 0.294042 0.179090
0.177909 0.295321 0.168532
0.195469 0.298839 0.167975
0.213129 0.302131 0.167003
0.231934 0.305382 0.165597
0.252497 0.308664 0.163707
0.275290 0.312002 0.161270
0.302382 0.315668 0.158222
0.331970 0.319197 0.159943
0.360537 0.324583 0.171793
0.389055 0.332234 0.185055
0.416391 0.340952 0.200572
0.441946 0.349936 0.215157
0.465939 0.358894 0.228932
0.488326 0.367570 0.241873
0.509558 0.373349 0.249071
0.529135 0.377797 0.254591
0.547040 0.381477 0.259567
0.563414 0.384447 0.264038
0.578099 0.386665 0.267956
0.591184 0.388167 0.271348
0.604474 0.389529 0.274766
0.625572 0.393129 0.280521
0.646058 0.396311 0.286049
0.666055 0.399120 0.291389
0.685684 0.401605 0.296579
0.705065 0.403820 0.301658
0.724316 0.405740 0.306650
0.743556 0.407347 0.311581
0.762915 0.408656 0.316485
0.782528 0.409678 0.321398
0.168673 0.329474 0.197653
0.168617 0.329293 0.197235
0.176270 0.328598 0.196480
0.191878 0.327495 0.193387
0.200399 0.331078 0.183411
0.217823 0.334364 0.182515
0.236073 0.337597 0.181184
0.255833 0.340874 0.179329
0.277544 0.344216 0.176949
0.303137 0.347888 0.174003
0.332417 0.351757 0.170393
0.363327 0.355367 0.168951
0.391734 0.360005 0.180322
0.419249 0.366589 0.190776
0.444880 0.373929 0.205384
0.468942 0.381600 0.219163
0.491399 0.389253 0.232098
0.512160 0.396619 0.244133
0.531194 0.403521 0.255250
0.548595 0.409888 0.265506
0.564915 0.413836 0.271174
0.579665 0.416470 0.275119
0.592809 0.418373 0.278543
0.605979 0.420074 0.281938
0.627130 0.424104 0.287698
0.647665 0.427684 0.293229
0.667706 0.430854 0.298567
0.687373 0.433653 0.303748
0.706786 0.436117 0.308807
0.726066 0.438280 0.313780
0.745338 0.440182 0.318705
0.764730 0.441863 0.323620
0.784382 0.443369 0.328568
0.178331 0.363360 0.214547
0.178284 0.363205 0.214182
0.181830 0.362818 0.213651
0.199927 0.361341 0.212370
0.205589 0.363114 0.199054
0.222746 0.366442 0.197976
0.240682 0.369680 0.196840
0.259891 0.372959 0.195290
0.280821 0.376325 0.193237
0.305273 0.380038 0.190557
0.333260 0.384009 0.187118
0.363396 0.387927 0.182979
0.394460 0.391560 0.178224
0.421852 0.395403 0.188614
0.447651 0.400861 0.197570
0.471859 0.407056 0.209205
0.494420 0.413533 0.222120
0.515287 0.419964 0.234117
0.534423 0.426120 0.245184
0.551913 0.431882 0.255378
0.567910 0.437204 0.264792
0.582249 0.441939 0.273344
0.595012 0.446059 0.281088
0.607602 0.450141 0.288786
0.628783 0.454959 0.294971
0.649384 0.459147 0.300544
0.669488 0.462928 0.305929
0.689216 0.466342 0.311161
0.708687 0.469424 0.316273
0.728023 0.472207 0.321300
0.747348 0.474724 0.326279
0.766792 0.477007 0.331246
0.786492 0.479092 0.336239
0.187495 0.395499 0.230763
0.187455 0.395370 0.230443
0.187411 0.395224 0.230078
0.204978 0.393937 0.228969
0.219444 0.393452 0.223441
0.227385 0.396877 0.212852
0.245218 0.400166 0.211865
0.264092 0.403482 0.210536
0.284495 0.406889 0.208806
0.308066 0.410635 0.206595
0.335083 0.414696 0.203772
0.364167 0.418779 0.200155
0.394155 0.422650 0.195564
0.423979 0.426118 0.190172
0.450153 0.429376 0.196701
0.474458 0.433936 0.204314
0.497244 0.439175 0.212360
0.518230 0.444599 0.224329
0.537478 0.449961 0.235354
0.555068 0.455090 0.245490
0.571164 0.459907 0.254837
0.585598 0.464248 0.263311
0.598450 0.468063 0.270965
0.610911 0.471784 0.278447
0.631570 0.479029 0.290363
0.651630 0.486203 0.301978
0.671248 0.493124 0.312968
0.691045 0.497212 0.318262
0.710585 0.500988 0.323443
0.729988 0.504487 0.328546
0.749380 0.507745 0.333605
0.768891 0.510796 0.338656
0.788659 0.513674 0.343739
0.195981 0.425225 0.246071
0.195948 0.425116 0.245786
0.195910 0.424993 0.245461
0.208579 0.424088 0.244605
0.228829 0.422465 0.243222
0.231872 0.424894 0.227385
0.249329 0.428260 0.226062
0.268034 0.431628 0.224900
0.288104 0.435085 0.223405
0.310995 0.438857 0.221519
0.337294 0.442988 0.219155
0.365611 0.447183 0.216187
0.394798 0.451222 0.212471
0.423837 0.454928 0.207799
0.451767 0.458151 0.201985
0.476821 0.461024 0.204901
0.499624 0.464860 0.211166
0.520850 0.469288 0.215837
0.540233 0.473824 0.226112
0.557928 0.478297 0.236210
0.574127 0.482598 0.245506
0.588659 0.486544 0.253917
0.601605 0.490065 0.261495
0.613915 0.493447 0.268756
0.634658 0.500215 0.280562
0.654799 0.506990 0.292052
0.674459 0.513762 0.303299
0.693755 0.520538 0.314368
0.712806 0.527334 0.325328
0.731831 0.533666 0.335178
0.751294 0.537661 0.340320
0.770877 0.541478 0.345460
0.790717 0.545156 0.350637
0.203879 0.452840 0.260598
0.203851 0.452748 0.260341
0.203819 0.452643 0.260049
0.210868 0.452110 0.259426
0.233161 0.450517 0.258114
0.244519 0.450770 0.250124
0.252955 0.454232 0.239551
0.271618 0.457667 0.238521
0.291487 0.461179 0.237199
0.313860 0.464976 0.235542
0.339629 0.469164 0.233484
0.367393 0.473451 0.230943
0.395994 0.477617 0.227826
0.424440 0.481494 0.224019
0.451793 0.484940 0.219358
0.478028 0.487955 0.213561
0.501885 0.490544 0.213170
0.523077 0.493749 0.218049
0.542641 0.497449 0.221289
0.560512 0.501252 0.227491
0.576814 0.504991 0.236768
0.591443 0.508499 0.245148
0.604479 0.511683 0.252681
0.616606 0.514691 0.259744
0.637423 0.520928 0.271480
0.657636 0.527252 0.282889
0.677365 0.533643 0.294040
0.696731 0.540094 0.305002
0.715850 0.546615 0.315840
0.734843 0.553225 0.326623
0.753832 0.559955 0.337417
0.772946 0.566842 0.348291
0.792558 0.572675 0.356725
0.211149 0.478184 0.274300
0.211125 0.478107 0.274066
0.211098 0.478019 0.273801
0.211705 0.477859 0.273402
0.235951 0.476296 0.272144
0.255112 0.474731 0.270751
0.255984 0.477897 0.252295
0.274732 0.481414 0.251360
0.294515 0.484993 0.250168
0.316488 0.488820 0.248683
0.341851 0.493066 0.246855
0.369214 0.497442 0.244622
0.397397 0.501725 0.241921
0.425421 0.505748 0.238681
0.452350 0.509372 0.234812
0.478139 0.512600 0.230169
0.502741 0.515429 0.224521
0.525228 0.517799 0.221528
0.544760 0.520471 0.225005
0.562711 0.523564 0.226862
0.579229 0.526795 0.228614
0.593960 0.529856 0.236979
0.607087 0.532697 0.244486
0.619006 0.535336 0.251354
0.639897 0.541033 0.263039
0.660179 0.546900 0.274386
0.679974 0.552898 0.285464
0.699403 0.559010 0.296342
0.718585 0.565238 0.307087
0.737639 0.571593 0.317766
0.756688 0.578099 0.328445
0.775859 0.584791 0.339197
0.795279 0.591712 0.350105
0.217799 0.501180 0.287135
0.217779 0.501115 0.286921
0.217756 0.501041 0.286678
0.217722 0.500934 0.286329
0.236756 0.499753 0.285300
0.258488 0.498161 0.283927
0.267259 0.499154 0.273241
0.277288 0.502770 0.263417
0.297071 0.506426 0.262333
0.318737 0.510292 0.260989
0.343779 0.514599 0.259343
0.370857 0.519065 0.257346
0.398756 0.523460 0.254954
0.426496 0.527618 0.252118
0.453140 0.531397 0.248785
0.478602 0.534798 0.244870
0.502887 0.537831 0.240250
0.525768 0.540470 0.234735
0.546783 0.542669 0.229815
0.564697 0.544904 0.232124
0.581220 0.547520 0.232717
0.596160 0.550211 0.231543
0.609415 0.552727 0.236949
0.621288 0.555060 0.243723
0.642064 0.560169 0.255276
0.662414 0.565579 0.266579
0.682273 0.571186 0.277603
0.701763 0.576961 0.288416
0.721002 0.582895 0.299087
0.740112 0.588994 0.309682
0.759210 0.595276 0.320274
0.778420 0.601771 0.330939
0.797879 0.608518 0.341751
0.223862 0.521954 0.299171
0.223844 0.521899 0.298973
0.223824 0.521835 0.298748
0.223796 0.521745 0.298425
0.235656 0.521006 0.297654
0.260629 0.519351 0.296273
0.278211 0.518091 0.293855
0.279237 0.521829 0.274761
0.299096 0.525572 0.273770
0.320535 0.529482 0.272545
0.345312 0.533846 0.271050
0.372193 0.538400 0.269243
0.399910 0.542902 0.267091
0.427478 0.547184 0.264559
0.453951 0.551102 0.261613
0.479189 0.554650 0.258201
0.503250 0.557847 0.254249
0.525917 0.560673 0.249655
0.547041 0.563116 0.244256
0.566568 0.565172 0.237780
0.583067 0.567071 0.239520
0.597987 0.569243 0.238784
0.611379 0.571461 0.236301
0.623405 0.573577 0.236837
0.643920 0.578082 0.248195
0.664337 0.583042 0.259472
0.684259 0.588264 0.270459
0.703806 0.593706 0.281225
0.723100 0.599352 0.291840
0.742253 0.605199 0.302379
0.761388 0.611261 0.312911
0.780633 0.617560 0.323508
0.800125 0.624132 0.334243
0.229369 0.540666 0.310490
0.229353 0.540619 0.310306
0.229336 0.540565 0.310096
0.229312 0.540489 0.309796
0.233053 0.540199 0.309287
0.261365 0.538490 0.307894
0.281478 0.536968 0.306493
0.287882 0.538755 0.292819
0.300570 0.542601 0.284569
0.321863 0.546570 0.283450
0.346409 0.550995 0.282086
0.373156 0.555644 0.280441
0.400775 0.560260 0.278486
0.428259 0.564669 0.276196
0.454656 0.568725 0.273549
0.479758 0.572411 0.270510
0.503674 0.575758 0.267033
0.526196 0.578746 0.263055
0.547185 0.581368 0.258486
0.566589 0.583624 0.253190
0.584571 0.585544 0.246936
0.599725 0.587175 0.246595
0.613094 0.588965 0.245036
0.625160 0.590812 0.241383
0.645497 0.594819 0.241706
0.665980 0.599335 0.252973
0.685962 0.604172 0.263940
0.705563 0.609280 0.274680
0.724897 0.614632 0.285269
0.744086 0.620219 0.295776
0.763252 0.626048 0.306270
0.782526 0.632138 0.316820
0.802044 0.638521 0.327502
0.234264 0.557173 0.321066
0.234251 0.557133 0.320893
0.234236 0.557088 0.320697
0.234215 0.557024 0.320415
0.234187 0.556937 0.320035
0.260261 0.555453 0.318779
0.282711 0.553899 0.317379
0.297825 0.553372 0.312224
0.301406 0.557342 0.294708
0.322638 0.561386 0.293688
0.346970 0.565873 0.292444
0.373635 0.570620 0.290942
0.401224 0.575355 0.289158
0.428701 0.579895 0.287072
0.455106 0.584090 0.284666
0.480154 0.587911 0.281920
0.504000 0.591399 0.278801
0.526448 0.594536 0.275270
0.547361 0.597316 0.271272
0.566688 0.599743 0.266728
0.584606 0.601849 0.261517
0.600880 0.603611 0.255454
0.614685 0.605039 0.253331
0.626716 0.606540 0.251574
0.646609 0.609953 0.251750
0.667265 0.614147 0.251145
0.687364 0.618666 0.258085
0.707012 0.623469 0.268815
0.726387 0.628556 0.279386
0.745612 0.633909 0.289866
0.764812 0.639531 0.300326
0.784115 0.645435 0.310836
0.803659 0.651650 0.321471
0.238605 0.571712 0.331004
0.238594 0.571677 0.330840
0.238581 0.571639 0.330655
0.238563 0.571583 0.330389
0.238538 0.571508 0.330030
0.256562 0.570507 0.329056
0.282779 0.568849 0.327611
0.302431 0.567327 0.326140
0.306500 0.569999 0.309164
0.322879 0.574135 0.303346
0.346991 0.578678 0.302214
0.373608 0.583526 0.300845
0.401223 0.588382 0.299213
0.428756 0.593052 0.297302
0.455237 0.597383 0.295101
0.480301 0.601333 0.292594
0.504141 0.604951 0.289758
0.526573 0.608222 0.286567
0.547466 0.611140 0.282988
0.566763 0.613710 0.278971
0.584651 0.615969 0.274443
0.600915 0.617897 0.269305
0.615532 0.619497 0.263402
0.628143 0.620780 0.259855
0.647551 0.623575 0.262503
0.668129 0.627310 0.263292
0.688322 0.631560 0.262023
0.708154 0.636158 0.263619
0.727571 0.640996 0.274182
0.746832 0.646131 0.284647
0.766063 0.651558 0.295085
0.785394 0.657287 0.305566
0.804962 0.663342 0.316165
0.245230 0.593800 0.343695
0.245214 0.593750 0.343533
0.245196 0.593693 0.343349
0.245170 0.593612 0.343084
0.245135 0.593503 0.342729
0.253343 0.592969 0.342046
0.284277 0.591109 0.340508
0.305409 0.589514 0.339030
0.318239 0.589661 0.330854
0.324724 0.593768 0.315086
0.348503 0.598196 0.313981
0.374979 0.602963 0.312650
0.402525 0.607744 0.311071
0.430012 0.612335 0.309231
0.456470 0.616579 0.307120
0.481448 0.620419 0.304730
0.505175 0.623910 0.302043
0.527486 0.627040 0.299041
0.548258 0.629803 0.295702
0.567433 0.632205 0.291992
0.585202 0.634283 0.287864
0.601375 0.636020 0.283260
0.615919 0.637420 0.278095
0.629000 0.638514 0.272228
0.648984 0.640474 0.269082
0.669409 0.643138 0.272784
0.689435 0.646455 0.274215
0.709200 0.650283 0.272631
0.728804 0.654501 0.269501
0.748053 0.658940 0.279285
0.767251 0.663694 0.289884
0.786541 0.668775 0.300526
0.806061 0.674202 0.311288
0.252438 0.617629 0.357051
0.252423 0.617583 0.356896
0.252406 0.617531 0.356721
0.252382 0.617457 0.356469
0.252350 0.617357 0.356130
0.252309 0.617230 0.355696
0.285321 0.615383 0.354169
0.308589 0.613762 0.352687
0.328397 0.612112 0.351097
0.329948 0.615602 0.330413
0.350550 0.620036 0.326472
0.376911 0.624852 0.325197
0.404430 0.629709 0.323689
0.431913 0.634386 0.321936
0.458390 0.638724 0.319934
0.483320 0.642652 0.317676
0.506955 0.646229 0.315151
0.529159 0.649448 0.312345
0.549811 0.652305 0.309244
0.568854 0.654805 0.305829
0.586480 0.656988 0.302066
0.602530 0.658840 0.297917
0.616964 0.660363 0.293328
0.629936 0.661589 0.288217
0.649800 0.663660 0.282247
0.671681 0.665872 0.277076
0.691589 0.668307 0.280787
0.711203 0.671386 0.282634
0.730666 0.674996 0.281368
0.750094 0.679038 0.277818
0.769421 0.683376 0.281886
0.788726 0.688022 0.292533
0.808256 0.693041 0.303294
0.259509 0.640794 0.370224
0.259495 0.640752 0.370076
0.259479 0.640704 0.369908
0.259457 0.640635 0.369666
0.259427 0.640543 0.369342
0.259388 0.640425 0.368927
0.284453 0.639047 0.367678
0.311046 0.637341 0.366152
0.331934 0.635722 0.364592
0.342501 0.636682 0.353133
0.352405 0.641137 0.338809
0.378664 0.646003 0.337584
0.406201 0.650938 0.336138
0.433735 0.655704 0.334461
0.460288 0.660140 0.332551
0.485233 0.664157 0.330405
0.508826 0.667819 0.328019
0.530962 0.671125 0.325385
0.551529 0.674070 0.322489
0.570477 0.676660 0.319316
0.587991 0.678935 0.315840
0.603950 0.680885 0.312035
0.618297 0.682513 0.307867
0.631177 0.683847 0.303284
0.650303 0.685969 0.298026
0.672207 0.688347 0.292041
0.693771 0.690533 0.285237
0.713314 0.692780 0.288708
0.732634 0.695664 0.290880
0.751903 0.699092 0.290557
0.771271 0.703001 0.286779
0.790784 0.707293 0.284746
0.810323 0.711881 0.295515
0.266496 0.663485 0.383286
0.266483 0.663445 0.383143
0.266468 0.663400 0.382982
0.266447 0.663336 0.382750
0.266418 0.663250 0.382439
0.266382 0.663140 0.382040
0.280456 0.662341 0.381145
0.312679 0.660448 0.379506
0.334973 0.658836 0.377960
0.355061 0.657189 0.375987
0.354186 0.661684 0.351141
0.380253 0.666595 0.349875
0.407840 0.671611 0.348484
0.435473 0.676472 0.346875
0.462147 0.681009 0.345051
0.487152 0.685120 0.343016
0.510738 0.688868 0.340760
0.532845 0.692258 0.338275
0.553368 0.695287 0.335552
0.572257 0.697960 0.332578
0.589689 0.700317 0.329334
0.605583 0.702355 0.325802
0.619867 0.704073 0.321958
0.632673 0.705499 0.317768
0.651066 0.707645 0.313021
0.672735 0.710139 0.307680
0.694067 0.712456 0.301729
0.715167 0.714607 0.295022
0.734711 0.716737 0.296586
0.753850 0.719461 0.299035
0.773048 0.722748 0.299514
0.792464 0.726553 0.296388
0.812234 0.730824 0.290823
0.273452 0.685885 0.396305
0.273440 0.685848 0.396168
0.273426 0.685806 0.396012
0.273406 0.685746 0.395789
0.273379 0.685664 0.395489
0.273344 0.685561 0.395105
0.274478 0.685380 0.394599
0.313270 0.683285 0.392831
0.337511 0.681649 0.391274
0.358699 0.679968 0.389611
0.366871 0.681851 0.374371
0.381701 0.686811 0.362129
0.409359 0.691910 0.360793
0.437118 0.696871 0.359258
0.463946 0.701515 0.357523
0.489061 0.705725 0.355590
0.512681 0.709559 0.353450
0.534798 0.713032 0.351096
0.555310 0.716140 0.348521
0.574173 0.718892 0.345717
0.591548 0.721325 0.342667
0.607401 0.723442 0.339358
0.621641 0.725239 0.335774
0.634391 0.726745 0.331889
0.652055 0.728894 0.327533
0.673508 0.731485 0.322664
0.694620 0.733908 0.317305
0.715501 0.736176 0.311370
0.736261 0.738302 0.304733
0.755905 0.740357 0.304453
0.774981 0.742951 0.307160
0.794231 0.746131 0.308294
0.813816 0.749863 0.306591
0.280438 0.708190 0.409423
0.280426 0.708154 0.409286
0.280412 0.708114 0.409131
0.280393 0.708056 0.408909
0.280366 0.707978 0.408611
0.280333 0.707879 0.408231
0.280292 0.707757 0.407764
0.312346 0.706067 0.406231
0.339515 0.704358 0.404622
0.361734 0.702702 0.402976
0.379667 0.701834 0.397781
0.383027 0.706836 0.374416
0.410757 0.712023 0.373145
0.438673 0.717087 0.371684
0.465695 0.721842 0.370032
0.490970 0.726156 0.368191
0.514661 0.730076 0.366156
0.536822 0.733631 0.363919
0.557354 0.736817 0.361475
0.576217 0.739644 0.358817
0.593557 0.742146 0.355934
0.609391 0.744335 0.352814
0.623605 0.746205 0.349444
0.636315 0.747781 0.345807
0.653251 0.749916 0.341763
0.674506 0.752589 0.337258
0.695413 0.755101 0.332341
0.716084 0.757466 0.326954
0.736633 0.759698 0.321021
0.757175 0.761808 0.314430
0.777026 0.763825 0.312340
0.796156 0.766315 0.315306
0.815587 0.769419 0.317017
0.287505 0.730605 0.422875
0.287493 0.730571 0.422738
0.287480 0.730532 0.422583
0.287461 0.730476 0.422361
0.287435 0.730401 0.422062
0.287403 0.730305 0.421682
0.287363 0.730187 0.421213
0.308658 0.729060 0.420024
0.340887 0.727185 0.418293
0.364422 0.725535 0.416634
0.386185 0.723765 0.414826
0.391864 0.726839 0.394456
0.412059 0.732127 0.385676
0.440163 0.737307 0.384252
0.467412 0.742180 0.382651
0.492899 0.746603 0.380883
0.516695 0.750612 0.378942
0.538929 0.754248 0.376810
