data/luts/JSZ-CEDAR E.cube
# Baked from the Lightroom preset "JSZ-CEDAR E" by scripts/lightroom-preset-lut.lisp
# Colour only; not in this LUT (add the node instead):
#   Clarity +20
#   Sharpening 60, radius 1.4
#   White balance 5050 K, tint +2, taken relative to 5500 K daylight
TITLE "JSZ-CEDAR E"
LUT_3D_SIZE 5
DOMAIN_MIN 0.0 0.0 0.0
DOMAIN_MAX 1.0 1.0 1.0
0.103424 0.095516 0.089468
0.235223 0.128915 0.123676
0.427817 0.179513 0.176133
0.567867 0.219817 0.218725
0.694273 0.259587 0.261338
0.197141 0.267171 0.160980
0.270638 0.282627 0.155315
0.445049 0.352796 0.252831
0.578138 0.399479 0.291010
0.704852 0.438860 0.323321
0.323894 0.492146 0.254375
0.372617 0.501390 0.247655
0.495359 0.521258 0.232473
0.606627 0.550191 0.279179
0.730891 0.602480 0.356041
0.441971 0.643377 0.307058
0.479960 0.649918 0.301283
0.562438 0.662997 0.289471
0.640382 0.674402 0.279109
0.762870 0.703128 0.323075
0.572622 0.813755 0.365245
0.594803 0.817413 0.361725
0.645368 0.825457 0.353961
0.710420 0.835299 0.344443
0.809302 0.849241 0.330743
0.196819 0.157761 0.297421
0.267402 0.157920 0.298060
0.434835 0.194886 0.337609
0.570006 0.228490 0.376869
0.696346 0.263835 0.413268
0.211440 0.267790 0.274506
0.271337 0.268190 0.275167
0.442299 0.308644 0.317650
0.571621 0.342161 0.352386
0.698142 0.375745 0.387133
0.334108 0.482799 0.313044
0.380206 0.494488 0.309890
0.499436 0.519298 0.302838
0.606178 0.548965 0.353743
0.728645 0.604014 0.431867
0.449393 0.643803 0.305439
0.486025 0.650042 0.299918
0.565795 0.662609 0.288560
0.643141 0.673885 0.278313
0.764872 0.703118 0.324688
0.576909 0.813850 0.364231
0.598362 0.817372 0.360840
0.647449 0.825157 0.353326
0.712538 0.834981 0.343822
0.810990 0.848836 0.330205
0.313585 0.227623 0.531011
0.367249 0.227691 0.531333
0.480940 0.227867 0.532125
0.577046 0.239391 0.544543
0.703298 0.277742 0.584420
0.324215 0.331852 0.526328
0.375953 0.332150 0.526646
0.483252 0.333067 0.527416
0.578466 0.348657 0.542505
0.705279 0.387226 0.581256
0.356204 0.492158 0.505866
0.402028 0.492286 0.506048
0.491337 0.492677 0.506511
0.586090 0.514612 0.528810
0.714782 0.544951 0.559443
0.474243 0.618317 0.519799
0.502237 0.615236 0.520863
0.560334 0.634560 0.520940
0.643348 0.662515 0.531038
0.759452 0.698031 0.583346
0.589440 0.800039 0.488899
0.607779 0.804217 0.487390
0.650898 0.813604 0.484228
0.715619 0.826773 0.480184
0.814642 0.845284 0.474703
0.423801 0.277837 0.698991
0.467960 0.277888 0.699237
0.553852 0.278010 0.699795
0.623463 0.278177 0.700469
0.716589 0.281841 0.704897
0.433118 0.360196 0.696077
0.474807 0.360507 0.696295
0.556068 0.361461 0.696767
0.623077 0.363196 0.697349
0.718706 0.371276 0.703626
0.461448 0.537598 0.683655
0.495685 0.537698 0.683683
0.564617 0.538027 0.683793
0.627420 0.538664 0.684073
0.728201 0.551613 0.696295
0.501206 0.636860 0.656163
0.525360 0.636912 0.656149
0.577394 0.637096 0.656196
0.636967 0.637472 0.656421
0.745691 0.661223 0.680015
0.608391 0.779212 0.674742
0.622462 0.777919 0.674876
0.652756 0.776137 0.674340
0.704775 0.789872 0.673306
0.807659 0.824412 0.689745
0.553528 0.337246 0.897664
0.581385 0.337276 0.897798
0.640081 0.337354 0.898125
0.700448 0.337476 0.898591
0.785724 0.337655 0.899249
0.559527 0.371224 0.894462
0.585908 0.371768 0.894571
0.642006 0.373457 0.894847
0.701943 0.376480 0.895263
0.786481 0.380824 0.895832
0.577680 0.583853 0.882687
0.600181 0.583955 0.882661
0.649132 0.584300 0.882661
0.708313 0.584973 0.882776
0.790745 0.586012 0.882981
0.603925 0.691456 0.860267
0.620811 0.691508 0.860256
0.658989 0.691689 0.860284
0.718197 0.692040 0.860387
0.796727 0.692592 0.860599
0.629667 0.801932 0.826484
0.641198 0.801972 0.826496
0.667977 0.802108 0.826574
0.730843 0.802357 0.826680
0.804823 0.802761 0.826938
