data/luts/JSZ-CEDAR B.cube
# Baked from the Lightroom preset "JSZ-CEDAR B" by scripts/lightroom-preset-lut.lisp
# Colour only; not in this LUT (add the node instead):
#   Clarity -5
#   Vignette -17, midpoint 35, feather 66, roundness +14
#   Grain 9, size 25
TITLE "JSZ-CEDAR B"
LUT_3D_SIZE 5
DOMAIN_MIN 0.0 0.0 0.0
DOMAIN_MAX 1.0 1.0 1.0
0.129267 0.129267 0.129267
0.212369 0.166986 0.169808
0.440920 0.270253 0.275530
0.594598 0.340274 0.352147
0.803376 0.434999 0.455729
0.187836 0.219508 0.199377
0.236049 0.223225 0.173838
0.449754 0.315403 0.267093
0.591324 0.359597 0.348129
0.802362 0.431526 0.441479
0.354520 0.462676 0.398488
0.339510 0.470560 0.345886
0.500305 0.445360 0.270196
0.630881 0.489699 0.325155
0.828780 0.575175 0.416807
0.472533 0.639335 0.535845
0.456364 0.647206 0.482145
0.574488 0.672552 0.400276
0.681654 0.604052 0.338847
0.855520 0.655455 0.407640
0.611794 0.849344 0.696713
0.591927 0.860227 0.629667
0.652868 0.882056 0.545905
0.776395 0.895090 0.502102
0.912728 0.789934 0.418288
0.188572 0.181226 0.236097
0.242868 0.201739 0.248636
0.454833 0.289928 0.337978
0.606938 0.359873 0.418602
0.815515 0.456016 0.530122
0.195993 0.240834 0.242283
0.228813 0.228813 0.228813
0.447648 0.316485 0.322337
0.603700 0.364808 0.399659
0.813775 0.451143 0.511649
0.352595 0.462925 0.393298
0.337644 0.470655 0.339616
0.499831 0.441922 0.277167
0.631250 0.502790 0.363493
0.822398 0.582521 0.478266
0.470937 0.639406 0.531676
0.454268 0.647595 0.475250
0.577260 0.672304 0.398993
0.681296 0.599473 0.336625
0.856846 0.656084 0.408394
0.610352 0.849714 0.692634
0.589935 0.860916 0.622827
0.654487 0.882008 0.545002
0.778538 0.895004 0.501214
0.912521 0.787104 0.417010
0.325842 0.307637 0.489096
0.377795 0.324608 0.494596
0.515501 0.358457 0.515081
0.619322 0.395514 0.540745
0.835444 0.487472 0.632000
0.317998 0.346920 0.485039
0.353841 0.345926 0.479912
0.505466 0.381331 0.504803
0.622037 0.397124 0.537124
0.835733 0.486479 0.627746
0.326726 0.505842 0.516603
0.371158 0.504870 0.512839
0.483126 0.483126 0.483126
0.616455 0.526219 0.538075
0.820342 0.596345 0.629170
0.491508 0.644410 0.599268
0.524014 0.628173 0.589843
0.555314 0.654284 0.512880
0.677647 0.638369 0.496992
0.850497 0.717704 0.596672
0.604910 0.851417 0.676518
0.583743 0.862981 0.601083
0.659559 0.881811 0.542169
0.785443 0.894717 0.498372
0.911845 0.778032 0.413055
0.442909 0.409628 0.689857
0.502404 0.428620 0.695326
0.641031 0.480458 0.710844
0.720573 0.488701 0.729749
0.834606 0.518074 0.744398
0.429940 0.443597 0.677479
0.483775 0.448712 0.683420
0.630432 0.493853 0.701125
0.716508 0.482585 0.721794
0.836442 0.517547 0.740835
0.420305 0.565430 0.695898
0.471791 0.566124 0.688196
0.564201 0.555453 0.658520
0.676831 0.591002 0.688485
0.847682 0.632266 0.751648
0.441322 0.695523 0.707906
0.500911 0.695588 0.703299
0.590813 0.685970 0.683405
0.656876 0.656876 0.656876
0.834207 0.716205 0.727951
0.633664 0.881273 0.833708
0.676358 0.867996 0.822448
0.728694 0.834977 0.797757
0.733115 0.850426 0.732491
0.906688 0.862289 0.716132
0.580853 0.521076 0.901551
0.651082 0.543325 0.906757
0.761117 0.582128 0.916505
0.850740 0.618719 0.926996
0.946293 0.611663 0.941365
0.565750 0.540450 0.895294
0.639946 0.560657 0.901256
0.755612 0.590589 0.912491
0.849996 0.617711 0.924107
0.943531 0.609459 0.936994
0.561049 0.665229 0.910284
0.610261 0.667268 0.897722
0.690195 0.667308 0.885880
0.806681 0.698847 0.904447
0.928153 0.698917 0.931106
0.566604 0.760308 0.913414
0.615959 0.761015 0.906356
0.685382 0.755343 0.888548
0.748256 0.738238 0.863396
0.893312 0.784278 0.899619
0.609803 0.925531 0.942823
0.652643 0.926314 0.940079
0.719336 0.924303 0.933569
0.791647 0.914928 0.914152
0.880192 0.880192 0.880192
