data/luts/JSZ-CEDAR B.cube
# Baked from the Lightroom preset "JSZ-CEDAR B" by scripts/lightroom-preset-lut.lisp
# Colour only; not in this LUT (add the node instead):
#   Clarity -5
#   Vignette -17, midpoint 35, feather 66, roundness +14
#   Grain 9, size 25
TITLE "JSZ-CEDAR B"
LUT_3D_SIZE 33
DOMAIN_MIN 0.0 0.0 0.0
DOMAIN_MAX 1.0 1.0 1.0
0.129267 0.129267 0.129267
0.139463 0.132624 0.133039
0.148189 0.135665 0.136266
0.156748 0.139278 0.139992
0.165568 0.143583 0.144417
0.175123 0.148578 0.149608
0.185936 0.154201 0.155596
0.198389 0.160283 0.162324
0.212369 0.166986 0.169808
0.228392 0.174568 0.178174
0.251865 0.185360 0.189449
0.281636 0.198849 0.203172
0.315773 0.214203 0.218648
0.350736 0.229861 0.234378
0.383823 0.244662 0.249313
0.413997 0.258170 0.263067
0.440920 0.270253 0.275530
0.464618 0.280931 0.286729
0.485277 0.290292 0.296752
0.503969 0.298806 0.306035
0.521860 0.306978 0.315046
0.538867 0.314777 0.323762
0.555103 0.322253 0.332233
0.570686 0.329460 0.340513
0.594598 0.340274 0.352147
0.620660 0.352028 0.364704
0.646936 0.363888 0.377426
0.673413 0.375850 0.390311
0.700030 0.387888 0.403341
0.726630 0.399937 0.416457
0.752931 0.411876 0.429552
0.778477 0.423516 0.442486
0.803376 0.434999 0.455729
0.132804 0.140673 0.133221
0.142044 0.142439 0.134399
0.150942 0.143974 0.136578
0.159099 0.145950 0.139993
0.166870 0.148705 0.144183
0.174631 0.150760 0.148403
0.185230 0.153486 0.153127
0.197796 0.159325 0.159687
0.211871 0.166133 0.167338
0.228030 0.173854 0.175974
0.251682 0.184835 0.187659
0.281563 0.198447 0.201662
0.315745 0.213861 0.217272
0.350723 0.229568 0.233157
0.383808 0.244399 0.248207
0.413971 0.257926 0.262048
0.440883 0.270023 0.274579
0.464570 0.280711 0.285832
0.485219 0.290079 0.295899
0.503910 0.298602 0.305220
0.521799 0.306781 0.314262
0.538805 0.314586 0.323003
0.555039 0.322066 0.331496
0.570621 0.329276 0.339793
0.594565 0.340108 0.351455
0.620628 0.351866 0.364024
0.646903 0.363728 0.376756
0.673380 0.375692 0.389650
0.699996 0.387732 0.402686
0.726594 0.399781 0.415808
0.752893 0.411720 0.428907
0.778431 0.423351 0.441811
0.803311 0.434802 0.454933
0.136548 0.148389 0.138793
0.144119 0.151601 0.138219
0.154411 0.153770 0.139734
0.162457 0.154376 0.141604
0.171202 0.157867 0.145754
0.179479 0.160008 0.149399
0.188578 0.163292 0.154466
0.198598 0.166442 0.160502
0.210499 0.169123 0.166585
0.227563 0.172963 0.173219
0.251388 0.184110 0.185224
0.281430 0.197916 0.199701
0.315692 0.213439 0.215595
0.350685 0.229199 0.231648
0.383775 0.244076 0.246865
0.413931 0.257633 0.260831
0.440834 0.269750 0.273456
0.464510 0.280452 0.284783
0.485149 0.289832 0.294908
0.503840 0.298365 0.304278
0.521729 0.306554 0.313361
0.538733 0.314366 0.322134
0.554966 0.321852 0.330652
0.570547 0.329067 0.338972
0.594526 0.339918 0.350665
0.620592 0.351681 0.363251
0.646866 0.363546 0.375994
0.673343 0.375512 0.388898
0.699957 0.387554 0.401942
0.726554 0.399605 0.415071
0.752850 0.411544 0.428176
0.778383 0.423173 0.441079
0.803241 0.434585 0.454061
0.142077 0.156030 0.146292
0.146438 0.159772 0.143330
0.156382 0.163111 0.144412
0.166409 0.163858 0.145323
0.174158 0.163904 0.146836
0.183273 0.167935 0.151357
0.192989 0.172392 0.155895
0.203556 0.175525 0.160108
0.215770 0.180104 0.166236
0.229746 0.185681 0.174936
0.250887 0.193054 0.186287
0.280562 0.201184 0.198659
0.315538 0.212710 0.212767
0.350589 0.228601 0.229239
0.383690 0.243551 0.244722
0.413850 0.257171 0.258934
0.440745 0.269329 0.271739
0.464412 0.280060 0.283201
0.485041 0.289461 0.293429
0.503734 0.298016 0.302886
0.521623 0.306220 0.312035
0.538626 0.314044 0.320862
0.554859 0.321540 0.329424
0.570439 0.328763 0.337779
0.594469 0.339643 0.349521
0.620538 0.351413 0.362132
0.646812 0.363283 0.374894
0.673288 0.375253 0.387814
0.699901 0.387298 0.400872
0.726495 0.399350 0.414011
0.752788 0.411290 0.427124
0.778315 0.422920 0.440033
0.803148 0.434290 0.452863
0.149105 0.164518 0.154883
0.150331 0.168280 0.149833
0.158516 0.171571 0.150389
0.169372 0.174979 0.150870
0.178450 0.173442 0.150468
0.186242 0.173098 0.152105
0.196075 0.177861 0.156841
0.207213 0.183966 0.162001
0.219499 0.188453 0.166717
0.234044 0.193756 0.173148
0.256243 0.203365 0.184032
0.284309 0.215911 0.199246
0.316275 0.229003 0.216182
0.348779 0.241179 0.233158
0.383175 0.246735 0.244080
0.413675 0.256890 0.256439
0.440584 0.268690 0.269165
0.464251 0.279484 0.280891
0.484875 0.288927 0.291312
0.503577 0.297520 0.300919
0.521470 0.305753 0.310185
0.538475 0.313598 0.319102
0.554709 0.321111 0.327735
0.570289 0.328347 0.336147
0.594392 0.339270 0.347963
0.620463 0.351050 0.360611
0.646737 0.362927 0.373403
0.673212 0.374903 0.386347
0.699824 0.386952 0.399424
0.726415 0.399007 0.412579
0.752703 0.410949 0.425705
0.778223 0.422578 0.438624
0.803040 0.433924 0.451367
0.157349 0.174748 0.164419
0.157555 0.178213 0.159174
0.162366 0.181123 0.157631
0.171197 0.184245 0.157600
0.182752 0.187485 0.157451
0.190986 0.183489 0.155650
0.199061 0.182724 0.157293
0.209956 0.188391 0.162183
0.222606 0.195383 0.168033
0.237555 0.202550 0.174494
0.259710 0.210988 0.183604
0.288195 0.223605 0.197200
0.321033 0.238488 0.212878
0.354218 0.253295 0.229940
0.385021 0.266084 0.247061
0.412777 0.276647 0.262675
0.438864 0.282243 0.273872
0.463909 0.280364 0.278933
0.484616 0.288163 0.288301
0.503344 0.296831 0.298196
0.521252 0.305116 0.307671
0.538266 0.313000 0.316745
0.554505 0.320542 0.325498
0.570089 0.327800 0.334003
0.594290 0.338782 0.345929
0.620363 0.350577 0.358634
0.646639 0.362466 0.371472
0.673114 0.374451 0.384453
0.699723 0.386506 0.397560
0.726312 0.398566 0.410739
0.752594 0.410511 0.423883
0.778105 0.422140 0.436816
0.802918 0.433487 0.449570
0.166317 0.187480 0.174686
0.166064 0.190405 0.169391
0.167897 0.192783 0.165757
0.174977 0.195372 0.165312
0.184259 0.198091 0.164722
0.196622 0.201051 0.163976
0.204410 0.194925 0.161099
0.212962 0.193447 0.162364
0.225384 0.200015 0.167996
0.240560 0.208479 0.175069
0.263304 0.220274 0.185181
0.291650 0.231448 0.196812
0.324353 0.246013 0.212215
0.357773 0.261212 0.228170
0.389399 0.275242 0.242956
0.417875 0.287535 0.257497
0.442478 0.297584 0.272731
0.463821 0.305477 0.286127
0.482114 0.311026 0.297350
0.501694 0.309261 0.301997
0.520932 0.304249 0.304240
0.537974 0.312201 0.313604
0.554230 0.319798 0.322574
0.569825 0.327096 0.331240
0.594150 0.338159 0.343333
0.620230 0.349978 0.356132
0.646510 0.361885 0.369044
0.672986 0.373884 0.382082
0.699596 0.385950 0.395235
0.726181 0.398018 0.408449
0.752457 0.409967 0.421621
0.777957 0.421598 0.434575
0.802766 0.432948 0.447349
0.176223 0.202214 0.186025
0.175627 0.204623 0.180734
0.175043 0.206558 0.175317
0.180549 0.208683 0.174284
0.188107 0.210929 0.173347
0.198095 0.213365 0.172208
0.211536 0.216101 0.170836
0.219267 0.208161 0.167067
0.228501 0.205453 0.167931
0.243622 0.213554 0.174881
0.266573 0.226621 0.185621
0.295439 0.241424 0.198379
0.327930 0.254464 0.211807
0.361111 0.269114 0.227312
0.392546 0.283251 0.242339
0.421187 0.295901 0.255926
0.446686 0.306725 0.267824
0.468821 0.315780 0.279159
0.487106 0.323037 0.292631
0.503566 0.328768 0.304441
0.519276 0.333508 0.314887
0.535116 0.335216 0.322610
0.552753 0.329587 0.324360
0.569471 0.326183 0.327669
0.593957 0.337364 0.340039
0.620052 0.349226 0.353001
0.646342 0.361165 0.366035
0.672824 0.373188 0.379167
0.699436 0.385271 0.392392
0.726019 0.397351 0.405661
0.752288 0.409308 0.418876
0.777777 0.420942 0.431862
0.802582 0.432298 0.444666
0.187836 0.219508 0.199377
0.186974 0.221383 0.194258
0.186151 0.222910 0.189112
0.187918 0.224583 0.185109
0.194117 0.226360 0.183848
0.202299 0.228292 0.182347
0.213257 0.230471 0.180578
0.228117 0.233015 0.178507
0.236049 0.223225 0.173838
0.247106 0.219573 0.174644
0.269980 0.232163 0.185253
0.299083 0.248979 0.198982
0.331933 0.265362 0.213344
0.364810 0.278488 0.226907
0.395985 0.291929 0.241314
0.424414 0.304418 0.254909
0.449754 0.315403 0.267093
0.471992 0.324718 0.277736
0.491280 0.332360 0.286881
0.508714 0.338933 0.295603
0.524247 0.345170 0.309115
0.538945 0.350086 0.320692
0.552994 0.354179 0.330759
0.566344 0.357303 0.339915
0.591324 0.359597 0.348129
0.619003 0.355744 0.352593
0.646117 0.360270 0.362309
0.672614 0.372334 0.375604
0.699233 0.384448 0.388950
0.725818 0.396549 0.402311
0.752083 0.408520 0.415594
0.777560 0.420162 0.428632
0.802362 0.431526 0.441479
0.205514 0.245436 0.220251
0.204436 0.246756 0.215505
0.203373 0.247878 0.210624
0.202030 0.249067 0.204265
0.204620 0.250294 0.200394
0.210978 0.251580 0.198436
0.219474 0.252983 0.196117
0.230968 0.254577 0.193390
0.246642 0.256453 0.190205
0.259135 0.247696 0.185206
0.274345 0.239901 0.184588
0.303159 0.255833 0.198184
0.336129 0.274825 0.213958
0.369160 0.291361 0.228691
0.399909 0.302874 0.241098
0.428011 0.314256 0.253821
0.453129 0.324816 0.265768
0.475204 0.334043 0.276480
0.494371 0.341802 0.285865
0.511857 0.348606 0.294421
0.528536 0.354823 0.302503
0.544332 0.360363 0.310046
0.558112 0.366020 0.323905
0.571294 0.370245 0.335491
0.593864 0.378356 0.349593
0.617740 0.386621 0.363566
0.642441 0.393260 0.376055
0.670120 0.393854 0.383038
0.698568 0.386489 0.385746
0.725567 0.395587 0.398295
0.751831 0.407584 0.411696
0.777298 0.419241 0.424820
0.802100 0.430621 0.437736
0.228152 0.278317 0.247390
0.226959 0.279288 0.242977
0.225771 0.280110 0.238463
0.224254 0.280977 0.232563
0.222392 0.281851 0.225074
0.224653 0.282733 0.220157
0.231219 0.283657 0.217505
0.240032 0.284668 0.214381
0.251941 0.285824 0.210729
0.270279 0.287640 0.206161
0.291163 0.278806 0.199160
0.308608 0.266096 0.196734
0.341172 0.284045 0.212296
0.374151 0.302849 0.228244
0.405388 0.320948 0.243504
0.433094 0.331143 0.254725
0.457723 0.339396 0.264861
0.479367 0.346978 0.274825
0.498172 0.353597 0.284034
0.515374 0.359544 0.292748
0.531847 0.365321 0.301126
0.547554 0.370922 0.309023
0.562542 0.376139 0.316477
0.576875 0.380827 0.323526
0.599425 0.390705 0.341569
0.622978 0.399925 0.358506
0.646952 0.408603 0.373583
0.671187 0.417018 0.387971
0.695512 0.425021 0.401999
0.721952 0.428777 0.411840
0.749485 0.427399 0.417762
0.776981 0.418156 0.420324
0.801786 0.429563 0.433360
0.253685 0.315239 0.278191
0.252468 0.316017 0.274102
0.251253 0.316675 0.269951
0.249686 0.317382 0.264488
0.247749 0.318098 0.257555
0.245416 0.318816 0.248887
0.247221 0.319549 0.242641
0.254234 0.320326 0.239369
0.263602 0.321179 0.235537
0.278296 0.322638 0.230650
0.304211 0.325460 0.223954
0.329389 0.314039 0.214736
0.347177 0.296033 0.210072
0.379667 0.313777 0.225762
0.410466 0.331046 0.240811
0.438576 0.346989 0.254706
0.463670 0.361260 0.267270
0.485099 0.368403 0.276121
0.503579 0.373064 0.283415
0.520541 0.377393 0.290872
0.536719 0.381727 0.298701
0.552060 0.385910 0.306575
0.566678 0.389900 0.314321
0.580696 0.393703 0.321823
0.604365 0.402129 0.333651
0.628985 0.411202 0.345575
0.652817 0.421530 0.364154
0.676634 0.431008 0.382233
0.700833 0.439637 0.397791
0.725081 0.447937 0.412454
0.748984 0.455724 0.426545
0.772301 0.462159 0.439507
0.798208 0.462037 0.445945
0.278729 0.351517 0.308357
0.277564 0.352191 0.304621
0.276391 0.352783 0.300806
0.274862 0.353449 0.295743
0.272963 0.354157 0.289299
0.270672 0.354895 0.281261
0.267945 0.355671 0.271282
0.270566 0.356505 0.264731
0.278434 0.357420 0.260970
0.291043 0.358998 0.256050
0.312560 0.361751 0.249365
0.345376 0.365446 0.241003
0.369692 0.348179 0.229575
0.385627 0.326337 0.223021
0.416017 0.342789 0.237797
0.443781 0.358110 0.251458
0.468591 0.371893 0.263826
0.490417 0.383995 0.274876
0.509407 0.394428 0.284674
0.526804 0.402978 0.293423
0.542823 0.406008 0.299676
0.557997 0.408495 0.305657
0.572426 0.410892 0.312061
0.586443 0.413397 0.319001
0.609890 0.420637 0.330719
0.634137 0.428492 0.343116
0.658612 0.436539 0.355626
0.683326 0.444694 0.368026
0.707208 0.453811 0.386700
0.730793 0.462833 0.405999
0.754497 0.471075 0.421794
0.777492 0.478600 0.436198
0.799868 0.485534 0.449879
0.301688 0.384906 0.335902
0.300604 0.385517 0.332501
0.299495 0.386081 0.328973
0.298035 0.386750 0.324246
0.296210 0.387496 0.318200
0.294002 0.388308 0.310653
0.291373 0.389193 0.301311
0.288274 0.390165 0.289777
0.293753 0.391245 0.284652
0.305214 0.393083 0.279769
0.324155 0.395989 0.273192
0.352443 0.399753 0.265016
0.390823 0.403978 0.255562
0.407993 0.378450 0.242413
0.421480 0.354723 0.234958
0.448915 0.369474 0.248359
0.473466 0.382851 0.260492
0.495097 0.394670 0.271329
0.513958 0.404920 0.280935
0.531436 0.414371 0.289966
0.548110 0.423341 0.298699
0.563935 0.431783 0.307115
0.578860 0.438396 0.314679
0.593128 0.440226 0.320246
0.616516 0.445763 0.329574
0.640643 0.452018 0.340331
0.664957 0.458829 0.352176
0.689450 0.466016 0.364678
0.714050 0.473365 0.377464
0.738598 0.480651 0.390184
0.761969 0.488666 0.408492
0.783941 0.496333 0.428907
0.805737 0.502356 0.444659
0.321979 0.414567 0.360120
0.320975 0.415140 0.356995
0.319933 0.415694 0.353705
0.318547 0.416377 0.349255
0.316804 0.417171 0.343527
0.314687 0.418066 0.336360
0.312163 0.419068 0.327496
0.309189 0.420192 0.316586
0.308235 0.421454 0.305713
0.319081 0.423584 0.300871
0.336508 0.426722 0.294409
0.361997 0.430663 0.286440
0.395885 0.435016 0.277319
0.435871 0.439151 0.267760
0.442766 0.404540 0.253280
0.453759 0.380330 0.245635
0.478042 0.393322 0.257535
0.499471 0.404883 0.268156
0.518202 0.414983 0.277568
0.535651 0.424382 0.286439
0.552310 0.433338 0.295005
0.568143 0.441803 0.303254
0.583248 0.449815 0.311236
0.598532 0.457910 0.319387
0.622854 0.471476 0.331914
0.647321 0.479942 0.342474
0.671718 0.485929 0.352137
0.696269 0.492011 0.362485
0.720884 0.498499 0.374001
0.745383 0.505138 0.386260
0.769461 0.511620 0.398813
0.792667 0.517651 0.411151
0.814580 0.524133 0.428276
0.339542 0.440422 0.380925
0.338610 0.440969 0.378025
0.337631 0.441518 0.374932
0.336315 0.442217 0.370707
0.334649 0.443054 0.365233
0.332618 0.444024 0.358361
0.330190 0.445133 0.349856
0.327328 0.446392 0.339406
0.323966 0.447835 0.326529
0.331953 0.450245 0.319143
0.348461 0.453612 0.312777
0.372155 0.457745 0.304992
0.403086 0.462252 0.296175
0.439024 0.466546 0.287029
0.470356 0.462522 0.277904
0.473523 0.426715 0.262458
0.482257 0.402942 0.255035
0.503466 0.414248 0.265452
0.522054 0.424200 0.274683
0.539461 0.433550 0.283408
0.556092 0.442495 0.291820
0.571924 0.450993 0.299912
0.587049 0.459078 0.307730
0.602708 0.467474 0.315869
0.627099 0.481117 0.328219
0.652233 0.495242 0.341005
0.677576 0.509507 0.353979
0.702595 0.519159 0.365083
0.727371 0.525538 0.374926
0.752040 0.531656 0.384978
0.776288 0.537835 0.395884
0.799626 0.543755 0.407232
0.822315 0.549382 0.418890
0.354520 0.462676 0.398488
0.353651 0.463206 0.395771
0.352727 0.463750 0.392839
0.351475 0.464462 0.388798
0.349877 0.465336 0.383526
0.347921 0.466368 0.376881
0.345577 0.467564 0.368648
0.342811 0.468938 0.358537
0.339510 0.470560 0.345886
0.343575 0.473216 0.334687
0.359536 0.476789 0.328392
0.382055 0.481095 0.320760
0.410947 0.485740 0.312208
0.444088 0.490178 0.303416
0.479840 0.494166 0.294716
0.497561 0.478480 0.286295
0.500305 0.445360 0.270196
0.507094 0.422636 0.263220
0.525525 0.432438 0.272286
0.542874 0.441728 0.280881
0.559460 0.450649 0.289158
0.575271 0.459164 0.297112
0.590397 0.467302 0.304790
0.606438 0.475992 0.312953
0.630881 0.489699 0.325155
0.656059 0.503903 0.337769
0.681460 0.518284 0.350559
0.707060 0.532808 0.363518
0.732767 0.547403 0.376610
0.757884 0.557096 0.387652
0.782313 0.563651 0.397381
0.805848 0.569509 0.406832
0.828780 0.575175 0.416807
0.367780 0.482547 0.413887
0.366955 0.483050 0.411306
0.366068 0.483576 0.408493
0.364855 0.484276 0.404583
0.363297 0.485150 0.399449
0.361379 0.486195 0.392953
0.359075 0.487420 0.384891
0.356353 0.488836 0.374991
0.353019 0.490583 0.362259
0.354184 0.493386 0.348135
0.369792 0.497069 0.341839
0.391483 0.501449 0.334279
0.418861 0.506128 0.325908
0.449941 0.510606 0.317370
0.483201 0.514665 0.308978
0.517215 0.518180 0.300937
0.521100 0.491155 0.292169
0.523413 0.461014 0.276754
0.528658 0.439691 0.270344
0.545932 0.448908 0.278825
0.562457 0.457790 0.286984
0.578229 0.466302 0.294819
0.593337 0.474471 0.302377
0.609769 0.483441 0.310601
0.634247 0.497188 0.322684
0.659446 0.511445 0.335158
0.684882 0.525909 0.347797
0.710529 0.540546 0.360592
0.736295 0.555285 0.373506
0.761991 0.569995 0.386454
0.787294 0.584465 0.399289
0.811132 0.592780 0.409360
0.834268 0.599134 0.418593
0.380333 0.501455 0.428380
0.379545 0.501935 0.425910
0.378689 0.502446 0.423197
0.377511 0.503136 0.419397
0.375987 0.504007 0.414380
0.374102 0.505060 0.408006
0.371831 0.506304 0.400079
0.369142 0.507749 0.390346
0.365720 0.509630 0.377314
0.364527 0.512544 0.360766
0.379874 0.516302 0.354445
0.400901 0.520713 0.346926
0.426999 0.525366 0.338698
0.456357 0.529813 0.330355
0.487560 0.533852 0.322192
0.519309 0.537369 0.314399
0.540318 0.530031 0.307069
0.542690 0.504254 0.297534
0.544524 0.477050 0.283615
0.548808 0.455529 0.277055
0.565235 0.464285 0.285132
0.580932 0.472708 0.292888
0.595986 0.480823 0.300366
0.612803 0.490005 0.308706
0.637285 0.503726 0.320713
0.662475 0.517974 0.333087
0.687917 0.532467 0.345614
0.713585 0.547171 0.358282
0.739382 0.562010 0.371052
0.765116 0.576846 0.383842
0.790459 0.591464 0.396501
0.814927 0.605554 0.408803
0.838866 0.619101 0.420834
0.392136 0.519345 0.441907
0.391379 0.519808 0.439529
0.390551 0.520306 0.436897
0.389403 0.520986 0.433190
0.387909 0.521854 0.428269
0.386053 0.522913 0.421995
0.383810 0.524171 0.414180
0.381150 0.525640 0.404580
0.377590 0.527679 0.391033
0.374571 0.530688 0.372572
0.389742 0.534511 0.366225
0.410237 0.538946 0.358745
0.435236 0.543564 0.350664
0.463131 0.547974 0.342510
0.492590 0.551989 0.334566
0.522430 0.555505 0.327006
0.551732 0.558481 0.319920
0.560908 0.542003 0.313344
0.562836 0.518493 0.303408
0.564522 0.492501 0.290247
0.567952 0.470574 0.283428
0.583563 0.478895 0.291109
0.598551 0.486930 0.298517
0.615766 0.496299 0.307006
0.640232 0.509941 0.318962
0.665382 0.524108 0.331271
0.690793 0.538535 0.343732
0.716434 0.553188 0.356333
0.742210 0.567995 0.369029
0.767927 0.582826 0.381729
0.793256 0.597470 0.394278
0.817719 0.611625 0.406451
0.841722 0.625522 0.418443
0.403295 0.536372 0.454594
0.402564 0.536820 0.452290
0.401760 0.537307 0.449725
0.400637 0.537977 0.446094
0.399169 0.538841 0.441252
0.397337 0.539903 0.435059
0.395118 0.541171 0.427332
0.392481 0.542657 0.417838
0.388730 0.544880 0.403556
0.384365 0.547962 0.383654
0.399418 0.551836 0.377280
0.419465 0.556280 0.369839
0.443505 0.560849 0.361901
0.470127 0.565210 0.353927
0.498077 0.569185 0.346187
0.526272 0.572683 0.338842
0.553869 0.575665 0.331975
0.578125 0.576010 0.325622
0.580123 0.554881 0.319585
0.581906 0.532021 0.308968
0.583473 0.507076 0.296512
0.586127 0.484847 0.289481
0.601040 0.492795 0.296824
0.618677 0.502354 0.305479
0.643124 0.515913 0.317391
0.668230 0.529993 0.329640
0.693604 0.544351 0.342040
0.719214 0.558950 0.354576
0.744960 0.573715 0.367203
0.770646 0.588514 0.379829
0.795937 0.603133 0.392296
0.820361 0.617272 0.404381
0.844358 0.631181 0.416294
0.416501 0.556302 0.469813
0.415752 0.556682 0.467524
0.414922 0.557096 0.464963
0.413758 0.557669 0.461320
0.412226 0.558408 0.456444
0.410305 0.559317 0.450192
0.407971 0.560404 0.442382
0.405158 0.561704 0.432649
0.401056 0.563809 0.417543
0.395668 0.566680 0.396353
0.409741 0.570248 0.389021
0.429156 0.574296 0.381352
0.452122 0.578376 0.373249
0.477420 0.582204 0.365110
0.503891 0.585615 0.357190
0.530636 0.589066 0.350036
0.556742 0.592038 0.343370
0.581628 0.594511 0.337217
0.596557 0.587731 0.331476
0.598412 0.567182 0.325178
0.600065 0.544952 0.314284
0.601519 0.521027 0.302517
0.603475 0.498461 0.295262
0.621558 0.508213 0.304105
0.645981 0.521680 0.315979
0.671036 0.535664 0.328173
0.696367 0.549941 0.340519
0.721938 0.564473 0.352999
0.747645 0.579181 0.365566
0.773290 0.593933 0.378125
0.798532 0.608510 0.390517
0.822908 0.622619 0.402522
0.846889 0.636528 0.414365
0.434885 0.583518 0.491498
0.434149 0.583881 0.489264
0.433330 0.584279 0.486756
0.432176 0.584833 0.483176
0.430652 0.585552 0.478372
0.428736 0.586442 0.472202
0.426403 0.587510 0.464490
0.423484 0.588868 0.454489
0.419219 0.591058 0.438960
0.413716 0.593962 0.417633
0.424150 0.597505 0.407020
0.442713 0.601465 0.399386
0.464328 0.605409 0.391404
0.487947 0.609094 0.383418
0.512512 0.612369 0.375669
0.537159 0.615156 0.368290
0.561202 0.617424 0.361351
0.584132 0.619166 0.354878
0.606174 0.620476 0.348752
0.621607 0.614493 0.342662
0.622499 0.593386 0.336368
0.623157 0.570725 0.325884
0.623591 0.546106 0.313450
0.624795 0.515115 0.302410
0.649089 0.528139 0.314372
0.673985 0.541678 0.326643
0.699160 0.555528 0.339072
0.724629 0.569811 0.351571
0.750291 0.584451 0.364084
0.775886 0.599141 0.376584
0.801069 0.613661 0.388908
0.825388 0.627723 0.400841
0.849341 0.641613 0.412623
0.453641 0.611304 0.513609
0.452918 0.611656 0.511424
0.452111 0.612044 0.508963
0.450969 0.612587 0.505443
0.449458 0.613297 0.500707
0.447553 0.614179 0.494617
0.445230 0.615241 0.487002
0.442142 0.616722 0.476469
0.437751 0.618991 0.460617
0.432157 0.621939 0.439187
0.439116 0.625474 0.425438
0.456877 0.629364 0.417875
0.477261 0.633198 0.410041
0.499358 0.636772 0.402234
0.522207 0.639945 0.394680
0.545036 0.642649 0.387497
0.567231 0.644854 0.380753
0.588337 0.646554 0.374470
0.608708 0.647853 0.368495
0.629539 0.648941 0.362520
0.649797 0.648971 0.356577
0.650425 0.628895 0.350655
0.650835 0.607799 0.342709
0.651892 0.578481 0.327832
0.653764 0.538960 0.312513
0.677851 0.550549 0.324060
0.702949 0.564173 0.336455
0.728292 0.578085 0.348989
0.753771 0.592200 0.361611
0.779175 0.606379 0.374222
0.804162 0.620417 0.386646
0.828285 0.634012 0.398685
0.852067 0.647458 0.410589
0.472533 0.639335 0.535845
0.471821 0.639678 0.533701
0.471024 0.640058 0.531280
0.469894 0.640592 0.527810
0.468394 0.641293 0.523133
0.466500 0.642169 0.517112
0.464182 0.643229 0.509570
0.460854 0.644880 0.498239
0.456364 0.647206 0.482145
0.450692 0.650190 0.460627
0.454417 0.653713 0.443959
0.471418 0.657524 0.436488
0.490685 0.661250 0.428807
0.511406 0.664714 0.421183
0.532718 0.667787 0.413821
0.553929 0.670409 0.406832
0.574488 0.672552 0.400276
0.593988 0.674210 0.394175
0.612914 0.675504 0.388342
0.632250 0.676599 0.382509
0.651781 0.677470 0.376714
0.671509 0.678123 0.370943
0.678568 0.665654 0.365175
0.679758 0.639653 0.356615
0.681654 0.604052 0.338847
0.683536 0.563804 0.323030
0.706867 0.573242 0.333774
0.732140 0.586951 0.346266
0.757547 0.600879 0.358843
0.782875 0.614881 0.371404
0.807768 0.628729 0.383781
0.831801 0.642153 0.395773
0.855520 0.655455 0.407640
0.491513 0.667546 0.558142
0.490810 0.667882 0.556031
0.490023 0.668256 0.553644
0.488904 0.668784 0.550217
0.487415 0.669479 0.545592
0.485530 0.670350 0.539632
0.483144 0.671462 0.531892
0.479616 0.673252 0.519902
0.475015 0.675647 0.503499
0.469280 0.678661 0.481915
0.470006 0.682169 0.462547
0.486276 0.685893 0.455191
0.504521 0.689514 0.447671
0.523993 0.692872 0.440235
0.543920 0.695852 0.433067
0.563682 0.698396 0.426271
0.582783 0.700481 0.419902
0.600856 0.702100 0.413979
0.618527 0.703395 0.408278
0.636550 0.704499 0.402583
0.654726 0.705387 0.396928
0.673061 0.706067 0.391299
0.691597 0.706547 0.385677
0.707874 0.696998 0.378255
0.709796 0.665833 0.367940
0.711700 0.629469 0.349766
0.713551 0.588865 0.333654
0.736068 0.596089 0.343537
0.761400 0.609817 0.356071
0.786646 0.623631 0.368583
0.811445 0.637300 0.380903
0.835393 0.650566 0.392839
0.859050 0.663735 0.404658
0.510443 0.695751 0.580324
0.509750 0.696082 0.578242
0.508971 0.696453 0.575884
0.507863 0.696976 0.572495
0.506385 0.697669 0.567915
0.504512 0.698540 0.562009
0.501957 0.699777 0.553706
0.498291 0.701665 0.541266
0.493579 0.704135 0.524523
0.487797 0.707175 0.502901
0.485771 0.710666 0.481084
0.501346 0.714301 0.473866
0.518654 0.717824 0.466519
0.536989 0.721084 0.459278
0.555668 0.723979 0.452310
0.574129 0.726457 0.445711
0.591926 0.728493 0.439530
0.608736 0.730083 0.433786
0.625312 0.731391 0.428215
