data/luts/JSZ-CEDAR F.cube
# Baked from the Lightroom preset "JSZ-CEDAR F" by scripts/lightroom-preset-lut.lisp
# Colour only; not in this LUT (add the node instead):
#   Clarity +20
#   Sharpening 60, radius 1.4
#   White balance 4600 K, tint -3, taken relative to 5500 K daylight
TITLE "JSZ-CEDAR F"
LUT_3D_SIZE 9
DOMAIN_MIN 0.0 0.0 0.0
DOMAIN_MAX 1.0 1.0 1.0
0.103424 0.095516 0.089468
0.177915 0.118042 0.112330
0.264266 0.144202 0.138963
0.379747 0.179245 0.174749
0.481715 0.210223 0.206449
0.556701 0.233013 0.229789
0.619627 0.252138 0.249375
0.699508 0.276409 0.274217
0.777592 0.300118 0.298454
0.126989 0.184079 0.125663
0.185244 0.196244 0.121849
0.268677 0.216395 0.153204
0.382565 0.248391 0.190361
0.484120 0.269349 0.219427
0.558352 0.273925 0.238607
0.619369 0.253861 0.249658
0.699247 0.276330 0.274136
0.777368 0.300049 0.298384
0.158916 0.295269 0.180595
0.195469 0.298839 0.167975
0.275290 0.312002 0.161270
0.389055 0.332234 0.185055
0.488326 0.367570 0.241873
0.563414 0.384447 0.264038
0.625572 0.393129 0.280521
0.705065 0.403820 0.301658
0.782528 0.409678 0.321398
0.195981 0.425225 0.246071
0.228829 0.422465 0.243222
0.288104 0.435085 0.223405
0.394798 0.451222 0.212471
0.499624 0.464860 0.211166
0.574127 0.482598 0.245506
0.634658 0.500215 0.280562
0.712806 0.527334 0.325328
0.790717 0.545156 0.350637
0.223862 0.521954 0.299171
0.235656 0.521006 0.297654
0.299096 0.525572 0.273770
0.399910 0.542902 0.267091
0.503250 0.557847 0.254249
0.583067 0.567071 0.239520
0.643920 0.578082 0.248195
0.723100 0.599352 0.291840
0.800125 0.624132 0.334243
0.245230 0.593800 0.343695
0.245135 0.593503 0.342729
0.318239 0.589661 0.330854
0.402525 0.607744 0.311071
0.505175 0.623910 0.302043
0.585202 0.634283 0.287864
0.648984 0.640474 0.269082
0.728804 0.654501 0.269501
0.806061 0.674202 0.311288
0.273452 0.685885 0.396305
0.273379 0.685664 0.395489
0.337511 0.681649 0.391274
0.409359 0.691910 0.360793
0.512681 0.709559 0.353450
0.591548 0.721325 0.342667
0.652055 0.728894 0.327533
0.736261 0.738302 0.304733
0.813816 0.749863 0.306591
0.302053 0.776622 0.450963
0.301987 0.776427 0.450168
0.340854 0.774098 0.446965
0.418471 0.773039 0.415942
0.521016 0.792502 0.405556
0.600606 0.805496 0.396248
0.658104 0.813683 0.384107
0.739252 0.824269 0.367236
0.820088 0.833201 0.344047
0.334816 0.880070 0.512833
0.334752 0.879878 0.512119
0.334587 0.879388 0.510292
0.454897 0.872028 0.502891
0.531960 0.886206 0.464773
0.613613 0.900450 0.456572
0.668538 0.908992 0.445424
0.747068 0.920281 0.430371
0.824403 0.929932 0.411458
0.153834 0.125532 0.189731
0.193594 0.125101 0.188344
0.272600 0.146764 0.207709
0.385483 0.181023 0.237625
0.484771 0.211185 0.260160
0.558299 0.233524 0.269412
0.621373 0.252676 0.261429
0.700850 0.276817 0.274634
0.778752 0.300469 0.298813
0.150247 0.189823 0.193568
0.192269 0.188281 0.192230
0.270302 0.205568 0.210228
0.383704 0.234449 0.240431
0.483602 0.255408 0.263298
0.557624 0.261197 0.273119
0.621026 0.252574 0.267356
0.700590 0.276738 0.274554
0.778527 0.300401 0.298744
0.166658 0.296390 0.232525
0.211920 0.292542 0.229157
0.278798 0.305104 0.228371
0.389172 0.332021 0.265297
0.487995 0.359365 0.290647
0.562170 0.375378 0.302302
0.625491 0.386456 0.303908
0.706275 0.401835 0.301534
0.783535 0.407347 0.321176
0.196780 0.426680 0.288265
0.240969 0.423782 0.285774
0.292129 0.426605 0.271311
0.398215 0.447716 0.271979
0.500749 0.463355 0.288682
0.572369 0.482175 0.316816
0.633269 0.501146 0.334023
0.712947 0.526978 0.343773
0.791780 0.544084 0.350654
0.224601 0.523575 0.335054
0.253888 0.521896 0.333342
0.314866 0.518249 0.322579
0.403110 0.538332 0.311315
0.505016 0.555837 0.306248
0.584154 0.566255 0.306045
0.643702 0.577235 0.323946
0.722291 0.599462 0.344922
0.800820 0.624239 0.343064
0.245860 0.595155 0.375441
0.245768 0.594866 0.374590
0.331671 0.589335 0.369398
0.406308 0.602784 0.347350
0.506476 0.620791 0.342689
0.585919 0.632664 0.333908
0.650530 0.639941 0.325406
0.728239 0.653568 0.350322
0.805192 0.674141 0.367303
0.274086 0.687257 0.426453
0.274013 0.687037 0.425659
0.345558 0.682945 0.421289
0.413952 0.686588 0.393270
0.514120 0.705695 0.388508
0.591665 0.718613 0.380221
0.652690 0.727213 0.368503
0.737641 0.737945 0.352633
0.813846 0.749101 0.371343
0.302641 0.777905 0.479184
0.302577 0.777715 0.478472
0.351650 0.775066 0.475174
0.446321 0.768005 0.467846
0.522846 0.787939 0.437993
0.600665 0.801913 0.430719
0.658292 0.811031 0.420041
0.739549 0.822726 0.405431
0.821062 0.832708 0.386594
0.335288 0.881112 0.537419
0.335226 0.880925 0.536799
0.335068 0.880449 0.535209
0.461275 0.873171 0.528068
0.534476 0.881462 0.492667
0.613988 0.896361 0.486671
0.668703 0.905548 0.477647
0.746900 0.917719 0.465146
0.824451 0.928293 0.448356
0.221853 0.162250 0.312453
0.248758 0.161954 0.311506
0.301441 0.161186 0.309024
0.399362 0.185292 0.330364
0.492299 0.213530 0.354110
0.562235 0.234782 0.368616
0.625654 0.254049 0.378688
0.704105 0.277874 0.390785
0.781591 0.301383 0.399940
0.220034 0.218746 0.315365
0.247437 0.217210 0.314419
0.300380 0.213174 0.311929
0.397772 0.229988 0.332248
0.491299 0.247100 0.356027
0.561793 0.245493 0.370340
0.625317 0.253948 0.380299
0.703846 0.277796 0.392450
0.781365 0.301315 0.401633
0.215714 0.303774 0.322049
0.244549 0.302713 0.321140
0.298117 0.299984 0.318730
0.394010 0.317054 0.336639
0.488669 0.340338 0.360936
0.559684 0.354287 0.375751
0.623191 0.363626 0.385756
0.702243 0.375183 0.397722
0.780245 0.382553 0.406489
0.233198 0.427458 0.363687
0.264759 0.425862 0.362073
0.316862 0.421165 0.357323
0.403679 0.435018 0.358809
0.501059 0.459097 0.386823
0.568318 0.478568 0.407835
0.630820 0.492581 0.417130
0.709882 0.509947 0.428996
0.788088 0.524962 0.437964
0.239568 0.526131 0.407794
0.282330 0.524385 0.406017
0.337812 0.520602 0.401930
0.408250 0.523646 0.388900
0.508791 0.550379 0.396289
0.586039 0.563736 0.405005
0.643142 0.575410 0.424511
0.718903 0.600078 0.451397
0.795750 0.625382 0.470081
0.247163 0.597855 0.444480
0.286167 0.596330 0.442889
0.349114 0.592690 0.439019
0.421111 0.586715 0.426490
0.508098 0.611134 0.423493
0.587212 0.628188 0.422757
0.653823 0.638199 0.423188
0.727551 0.651740 0.449191
0.802496 0.674513 0.473163
0.275351 0.689911 0.489491
0.275284 0.689705 0.488927
0.364048 0.685662 0.484768
0.445275 0.678939 0.477893
0.516368 0.694201 0.460409
0.590910 0.710525 0.458985
0.653790 0.722472 0.453682
0.741383 0.737323 0.445468
0.814085 0.747411 0.468665
0.303725 0.780200 0.534643
0.303667 0.780022 0.534154
0.373485 0.776929 0.530882
0.461296 0.771001 0.524879
0.526753 0.776201 0.499864
0.600313 0.792401 0.498521
0.658289 0.803802 0.493854
0.739973 0.818493 0.486849
0.823617 0.831567 0.475789
0.336118 0.882869 0.584626
0.336061 0.882693 0.584194
0.375602 0.880823 0.582028
0.476557 0.875064 0.576473
0.554620 0.870491 0.558350
0.614883 0.886676 0.542986
0.669149 0.897285 0.538923
0.746493 0.911413 0.533066
0.824513 0.924122 0.523971
0.295978 0.203024 0.448789
0.316980 0.202883 0.448354
0.366501 0.202520 0.447227
0.431135 0.201848 0.445096
0.504794 0.217392 0.458529
0.568897 0.236872 0.474870
0.633229 0.256418 0.490035
0.709950 0.279716 0.507556
0.786713 0.302991 0.523230
0.294539 0.243140 0.450428
0.315689 0.241337 0.449977
0.365402 0.236434 0.448800
0.430534 0.226054 0.446555
0.504219 0.221962 0.459240
0.568617 0.236788 0.475614
0.632903 0.256320 0.490800
0.709696 0.279639 0.508389
0.786489 0.302924 0.524134
0.290923 0.334373 0.454441
0.312460 0.333437 0.454013
0.362460 0.331044 0.452893
0.428488 0.326728 0.450773
0.501482 0.334975 0.462403
0.566561 0.347065 0.478945
0.630944 0.356700 0.493957
0.708254 0.367079 0.511361
0.785506 0.372867 0.526878
0.285064 0.436724 0.460558
0.307460 0.436165 0.460140
0.358049 0.434727 0.459033
0.425872 0.432115 0.456941
0.498121 0.440656 0.466263
0.564562 0.456385 0.482984
0.629031 0.469959 0.497801
0.707029 0.485700 0.515137
0.784780 0.499055 0.530589
0.293395 0.527706 0.487134
0.317134 0.527030 0.486390
0.367708 0.525049 0.484236
0.436289 0.521786 0.479755
0.505253 0.528507 0.481498
0.573069 0.545744 0.498406
0.637114 0.566547 0.519621
0.714860 0.587385 0.537128
0.792092 0.606236 0.552125
0.298860 0.598685 0.517024
0.325916 0.597806 0.516095
0.377985 0.595493 0.513666
0.448335 0.589978 0.508139
0.510665 0.591877 0.500628
0.582577 0.612104 0.511610
0.650921 0.627909 0.525255
0.723493 0.648233 0.554826
0.798214 0.671278 0.574401
0.297562 0.691406 0.555454
0.336613 0.690208 0.554211
0.392576 0.687799 0.551680
0.467821 0.682671 0.546572
0.530699 0.674690 0.538422
0.588357 0.695202 0.535262
0.654960 0.713488 0.540828
0.745822 0.734811 0.548801
0.813362 0.744215 0.574691
0.304666 0.781951 0.593860
0.334754 0.780997 0.592874
0.403877 0.778281 0.590170
0.484284 0.773420 0.585473
0.553515 0.765972 0.578469
0.599422 0.776977 0.564067
0.658486 0.792214 0.566948
0.741116 0.811797 0.570066
0.828808 0.830287 0.570865
0.336825 0.884139 0.636677
0.336771 0.883973 0.636409
0.414041 0.881072 0.633704
0.500730 0.876292 0.629328
0.578268 0.869359 0.623091
0.616613 0.872411 0.599654
0.670595 0.885209 0.600815
0.746662 0.902133 0.602071
0.825471 0.918010 0.601478
0.365286 0.232216 0.546447
0.384751 0.232158 0.546289
0.427303 0.232005 0.545854
0.480530 0.231713 0.544974
0.530091 0.231244 0.543498
0.578054 0.239701 0.550583
0.644331 0.259837 0.569004
0.718696 0.282416 0.589271
0.794492 0.305378 0.609117
0.364310 0.232367 0.546951
0.383849 0.232310 0.546795
0.426627 0.232158 0.546364
0.480152 0.231868 0.545492
0.529932 0.231402 0.544025
0.577806 0.239626 0.550883
0.644019 0.259742 0.569297
0.718448 0.282341 0.589599
0.794270 0.305311 0.609472
0.360344 0.348998 0.549826
0.380074 0.348125 0.549659
0.423463 0.345899 0.549201
0.477816 0.341916 0.548283
0.528237 0.335936 0.546754
0.576009 0.335804 0.552908
0.642277 0.345216 0.571071
0.717194 0.353296 0.591116
0.793423 0.355155 0.610692
0.354742 0.456941 0.553255
0.374781 0.456428 0.553066
0.419263 0.455107 0.552559
0.475109 0.452709 0.551584
0.526622 0.449006 0.550031
0.574139 0.450968 0.555049
0.640431 0.464643 0.572871
0.715994 0.479065 0.592713
0.792702 0.491364 0.612044
0.347636 0.535552 0.556817
0.368007 0.535277 0.556600
0.414092 0.534572 0.556034
0.472245 0.533303 0.554997
0.525438 0.531368 0.553414
0.572539 0.534297 0.556824
0.638700 0.551277 0.574321
0.715052 0.570425 0.594046
0.792258 0.588852 0.613244
0.348594 0.598071 0.572469
0.368891 0.597610 0.572028
0.416344 0.596302 0.570771
0.476482 0.593947 0.568341
0.532232 0.592870 0.566268
0.577792 0.593575 0.566124
0.640118 0.607995 0.581209
0.718765 0.632637 0.604535
0.796527 0.655304 0.625434
0.361763 0.690512 0.605799
0.382709 0.689866 0.605145
0.431637 0.688025 0.603323
0.494775 0.684340 0.599791
0.550050 0.679867 0.594768
0.593687 0.679956 0.589779
0.654870 0.696930 0.598765
0.736503 0.716941 0.615360
0.810038 0.738297 0.646474
0.368958 0.780756 0.639497
0.392989 0.779971 0.638739
0.443719 0.777948 0.636822
0.512330 0.774013 0.633207
0.570824 0.768267 0.628050
0.614168 0.762877 0.622103
0.661698 0.778690 0.618976
0.743088 0.801801 0.630190
0.832869 0.824893 0.641032
0.364671 0.883304 0.678277
0.400225 0.882182 0.677268
0.455460 0.879958 0.675299
0.530853 0.875796 0.671712
0.595427 0.870157 0.666937
0.641388 0.863551 0.661362
0.674070 0.871873 0.646229
0.748690 0.891828 0.653468
0.828695 0.911419 0.659885
0.438123 0.256544 0.627868
0.453373 0.256485 0.627698
0.485616 0.256329 0.627236
0.527179 0.256040 0.626341
0.567744 0.255585 0.624895
0.600692 0.254942 0.622802
0.658912 0.264300 0.630437
0.730473 0.286021 0.650079
0.805162 0.308623 0.669927
0.437369 0.256692 0.628362
0.452705 0.256633 0.628193
0.485141 0.256478 0.627732
0.526899 0.256189 0.626841
0.567626 0.255736 0.625398
0.600689 0.255094 0.623310
0.658616 0.264210 0.630703
0.730231 0.285948 0.650368
0.804941 0.308556 0.670229
0.434237 0.353984 0.630916
0.449808 0.353078 0.630732
0.482780 0.350745 0.630237
0.525102 0.346496 0.629285
0.566332 0.339874 0.627756
0.599803 0.330262 0.625557
0.657175 0.325905 0.632132
0.729242 0.327955 0.651513
0.804377 0.308386 0.670994
0.429816 0.469968 0.634119
0.445819 0.469402 0.633904
0.479769 0.467951 0.633345
0.523097 0.465325 0.632322
0.565141 0.461281 0.630754
0.599150 0.455555 0.628575
0.655328 0.456032 0.633930
0.727968 0.468738 0.653083
0.803453 0.479638 0.672383
0.424323 0.554664 0.637426
0.440970 0.554370 0.637182
0.476391 0.553621 0.636562
0.521271 0.552277 0.635466
0.564575 0.550235 0.633838
0.599470 0.547388 0.631632
0.653794 0.550158 0.635225
0.727164 0.568164 0.654162
0.803119 0.585903 0.673225
0.416632 0.608628 0.641591
0.434153 0.608365 0.641327
0.471617 0.607697 0.640666
0.518728 0.606510 0.639523
0.563796 0.604883 0.637859
0.599920 0.603260 0.635636
0.651572 0.605443 0.636984
0.725586 0.625743 0.656023
0.801829 0.646301 0.675138
0.418178 0.689888 0.659520
0.436621 0.689490 0.659060
0.476277 0.688440 0.657874
0.525497 0.686495 0.655752
0.572332 0.684729 0.653185
0.610491 0.683611 0.650904
0.659343 0.683940 0.649553
0.728425 0.698736 0.663981
0.806484 0.722693 0.687398
0.428864 0.779820 0.692685
0.448306 0.779236 0.692056
0.490832 0.777702 0.690436
0.543520 0.774991 0.687644
0.591396 0.771028 0.683635
0.629535 0.768134 0.679450
0.676036 0.767527 0.675629
0.743168 0.784942 0.683042
0.822959 0.804427 0.698157
0.439681 0.881438 0.731307
0.459692 0.880749 0.730622
0.505905 0.878904 0.728818
0.564029 0.875748 0.725788
0.615824 0.871487 0.721739
0.654868 0.866405 0.716903
0.696464 0.861192 0.710628
0.752132 0.876474 0.706636
0.831129 0.898887 0.717727
0.513576 0.285638 0.725210
0.524220 0.285593 0.725077
0.547553 0.285475 0.724725
0.579082 0.285258 0.724053
0.611210 0.284921 0.722979
0.643354 0.284448 0.721452
0.690569 0.283837 0.719487
0.745323 0.290555 0.724560
0.818923 0.312796 0.744853
0.513061 0.285749 0.725580
0.523757 0.285704 0.725448
0.547199 0.285586 0.725096
0.578862 0.285370 0.724425
0.611108 0.285033 0.723352
0.643212 0.284560 0.721827
0.690483 0.283950 0.719863
0.745088 0.290484 0.724751
0.818702 0.312730 0.745052
0.510956 0.354334 0.727374
0.521805 0.353223 0.727223
0.545573 0.350334 0.726824
0.577656 0.344944 0.726076
0.610305 0.336081 0.724895
0.642462 0.321458 0.723207
0.690185 0.291667 0.720909
0.744488 0.290303 0.725239
0.818141 0.312561 0.745558
0.507980 0.482358 0.729708
0.519108 0.481737 0.729534
0.543436 0.480145 0.729090
0.576200 0.477268 0.728295
0.609417 0.472850 0.727100
0.641367 0.466608 0.725463
0.689212 0.458204 0.723331
0.743020 0.453216 0.726632
0.817274 0.462346 0.746424
0.504626 0.575941 0.731808
0.516203 0.575643 0.731609
0.541385 0.574881 0.731111
0.575202 0.573518 0.730246
0.609337 0.571446 0.728985
0.641110 0.568556 0.727293
0.689459 0.564710 0.725066
0.742382 0.564486 0.726976
0.817079 0.581397 0.746473
0.499687 0.632311 0.734636
0.511936 0.632146 0.734423
0.538308 0.631729 0.733897
0.573573 0.630990 0.733000
0.608951 0.629882 0.731712
0.640454 0.628360 0.730003
0.689404 0.626355 0.727753
0.740942 0.626834 0.727951
0.815871 0.646873 0.747445
0.492823 0.702836 0.738151
0.506005 0.702641 0.737933
0.534070 0.702150 0.737398
0.571293 0.701283 0.736494
0.608334 0.699988 0.735205
0.639508 0.698221 0.733511
0.689220 0.695914 0.731273
0.738925 0.693838 0.729322
0.814075 0.713565 0.748904
0.492636 0.779539 0.753107
0.506951 0.779247 0.752771
0.537138 0.778514 0.751946
0.576458 0.777222 0.750537
0.615064 0.775494 0.748597
0.646958 0.773881 0.746501
0.696814 0.772608 0.744213
0.747800 0.771924 0.742558
0.814651 0.784237 0.754515
0.506712 0.879821 0.788976
0.522377 0.879321 0.788465
0.555490 0.878088 0.787219
0.597525 0.876027 0.785171
0.637911 0.873180 0.782381
0.670138 0.869751 0.779022
0.716722 0.866534 0.774532
0.767464 0.865782 0.770898
0.831535 0.879452 0.776697
0.583138 0.315379 0.824678
0.590589 0.315335 0.824545
0.607191 0.315224 0.824196
0.630422 0.315021 0.823551
0.654816 0.314710 0.822543
0.691137 0.314283 0.821162
0.734686 0.313726 0.819352
0.780125 0.313028 0.817068
0.836034 0.317969 0.820107
0.582802 0.315479 0.825013
0.590285 0.315436 0.824880
0.606956 0.315325 0.824532
0.630272 0.315122 0.823888
0.654752 0.314811 0.822880
0.691010 0.314383 0.821498
0.734601 0.313827 0.819689
0.780064 0.313128 0.817404
0.835813 0.317902 0.820275
0.581911 0.318350 0.825897
0.589504 0.315692 0.825735
0.606353 0.315581 0.825388
0.629887 0.315378 0.824743
0.654588 0.315067 0.823736
0.690685 0.314640 0.822354
0.734385 0.314083 0.820544
0.779908 0.313385 0.818260
0.835252 0.317733 0.820703
0.579838 0.488555 0.828062
0.587586 0.487845 0.827898
0.604821 0.486028 0.827485
0.628833 0.482749 0.826754
0.654009 0.477717 0.825668
0.689921 0.470621 0.824177
0.733925 0.461113 0.822250
0.779640 0.448815 0.819871
0.834388 0.437832 0.821408
0.578305 0.595606 0.829474
0.586308 0.595284 0.829292
0.604086 0.594463 0.828837
0.628765 0.592992 0.828051
0.654616 0.590754 0.826909
0.690185 0.587620 0.825342
0.734585 0.583450 0.823321
0.780564 0.578085 0.820845
0.834349 0.574595 0.821110
0.575576 0.657410 0.831845
0.583924 0.657244 0.831657
0.602436 0.656823 0.831190
0.628015 0.656075 0.830386
0.654767 0.654950 0.829221
0.689808 0.653387 0.827630
0.734670 0.651329 0.825573
0.780926 0.648718 0.823054
0.833241 0.647203 0.821731
0.571664 0.726820 0.835007
0.580484 0.726629 0.834817
0.599996 0.726146 0.834345
0.626801 0.725289 0.833535
0.654733 0.724006 0.832366
0.689093 0.722243 0.830779
0.734526 0.719950 0.828722
0.781094 0.717089 0.826206
0.831739 0.713612 0.823192
0.566081 0.795849 0.839177
0.575537 0.795683 0.838985
0.596391 0.795262 0.838509
0.624858 0.794517 0.837694
0.654326 0.793406 0.836519
0.687902 0.791887 0.834935
0.734079 0.789917 0.832878
0.781054 0.787471 0.830363
0.831826 0.784518 0.827352
0.566876 0.879148 0.853698
0.577109 0.878910 0.853437
0.599563 0.878315 0.852791
0.629948 0.877283 0.851696
0.660977 0.875794 0.850150
0.693255 0.873892 0.848119
0.740136 0.871908 0.845607
0.787988 0.870131 0.843107
0.840147 0.868685 0.840967
0.651657 0.350662 0.942553
0.656780 0.350615 0.942400
0.668466 0.350495 0.942008
0.685074 0.350279 0.941300
0.708774 0.349953 0.940229
0.746204 0.349504 0.938757
0.786375 0.348921 0.936830
0.830010 0.348191 0.934415
0.879862 0.347306 0.931478
0.651461 0.350765 0.942896
0.656602 0.350718 0.942743
0.668330 0.350598 0.942351
0.684997 0.350382 0.941643
0.708626 0.350056 0.940572
0.746102 0.349608 0.939101
0.786304 0.349024 0.937175
0.829955 0.348295 0.934760
0.879809 0.347410 0.931823
0.650959 0.351027 0.943769
0.656144 0.350980 0.943616
0.667980 0.350859 0.943224
0.684799 0.350644 0.942517
0.708247 0.350318 0.941446
0.745842 0.349870 0.939975
0.786123 0.349287 0.938050
0.829818 0.348558 0.935637
0.879676 0.347673 0.932701
0.650220 0.490767 0.945243
0.655499 0.489944 0.945078
0.667551 0.487839 0.944659
0.684672 0.484055 0.943921
0.707833 0.478292 0.942815
0.745693 0.470276 0.941285
0.786152 0.459830 0.939321
0.829932 0.446827 0.936891
0.879779 0.429903 0.933968
0.650212 0.617440 0.946187
0.655633 0.617079 0.946010
0.668003 0.616157 0.945567
0.685584 0.614500 0.944793
0.708323 0.611971 0.943642
0.746588 0.608419 0.942035
0.787352 0.603690 0.939990
0.831342 0.597586 0.937472
0.881312 0.589856 0.934445
0.649098 0.687056 0.948466
0.654719 0.686879 0.948286
0.667504 0.686429 0.947834
0.685704 0.685626 0.947046
0.707836 0.684409 0.945881
0.746591 0.682709 0.944249
0.787703 0.680474 0.942171
0.831904 0.677634 0.939614
0.881954 0.674101 0.936538
0.647197 0.755535 0.951692
0.653096 0.755342 0.951512
0.666431 0.754852 0.951061
0.685447 0.753980 0.950274
0.706801 0.752671 0.949118
0.746173 0.750859 0.947493
0.787697 0.748509 0.945426
0.832116 0.745572 0.942882
0.882193 0.741997 0.939822
0.644297 0.825786 0.955938
0.650567 0.825621 0.955758
0.664656 0.825203 0.955308
0.684729 0.824459 0.954523
0.705985 0.823346 0.953374
0.745352 0.821810 0.951763
0.787413 0.819826 0.949709
0.832117 0.817359 0.947181
0.882239 0.814375 0.944142
0.639227 0.900787 0.958404
0.646033 0.900673 0.958385
0.661273 0.900383 0.958343
0.682898 0.899868 0.958285
0.705777 0.899101 0.958227
0.744024 0.897752 0.957157
0.786757 0.895812 0.955131
0.831815 0.893405 0.952636
0.881992 0.890502 0.949636
