data/luts/JSZ-CEDAR A.cube
# Baked from the Lightroom preset "JSZ-CEDAR A" by scripts/lightroom-preset-lut.lisp
# Colour only; not in this LUT (add the node instead):
#   Clarity -5
#   Vignette -17, midpoint 35, feather 66, roundness +14
#   Grain 9, size 25
TITLE "JSZ-CEDAR A"
LUT_3D_SIZE 9
DOMAIN_MIN 0.0 0.0 0.0
DOMAIN_MAX 1.0 1.0 1.0
0.060910 0.067996 0.080277
0.107096 0.084650 0.094092
0.202043 0.127380 0.140139
0.383434 0.208045 0.223149
0.537718 0.277102 0.296045
0.629282 0.319357 0.345216
0.702245 0.353930 0.388563
0.782131 0.391901 0.436569
0.845882 0.423882 0.482466
0.099264 0.134213 0.126788
0.118178 0.131394 0.108904
0.205689 0.155804 0.132470
0.380845 0.228199 0.218139
0.537010 0.274473 0.285076
0.628547 0.317243 0.336676
0.701651 0.352117 0.381210
0.781465 0.390181 0.429784
0.845011 0.421841 0.474600
0.181600 0.240071 0.220366
0.183129 0.238824 0.195454
0.244717 0.248374 0.157845
0.403502 0.292643 0.205920
0.546818 0.348387 0.272904
0.629360 0.376776 0.326397
0.696928 0.368868 0.365400
0.779641 0.385551 0.411399
0.843136 0.417342 0.457039
0.325056 0.425165 0.386465
0.315332 0.428849 0.357568
0.308699 0.436097 0.290174
0.453274 0.410437 0.227917
0.570600 0.431310 0.261488
0.655430 0.471676 0.299271
0.720768 0.478590 0.329826
0.788959 0.488924 0.382414
0.835573 0.495363 0.454334
0.417884 0.560935 0.494675
0.408129 0.565888 0.467468
0.385835 0.576172 0.391823
0.516342 0.598861 0.334918
0.611913 0.534897 0.280615
0.672943 0.525196 0.291326
0.742923 0.559741 0.321746
0.816889 0.595376 0.354519
0.874617 0.619660 0.381609
0.463887 0.636188 0.543767
0.455109 0.641093 0.517682
0.433457 0.652653 0.441753
0.550523 0.676950 0.385433
0.685960 0.692118 0.347899
0.700201 0.591849 0.304829
0.754526 0.590991 0.318100
0.828191 0.629417 0.349390
0.887293 0.659607 0.374887
0.517291 0.723598 0.599900
0.508877 0.727995 0.574117
0.485800 0.739775 0.492583
0.591108 0.761870 0.440087
0.700028 0.774543 0.406148
0.781250 0.765291 0.378773
0.785454 0.663788 0.335694
0.837499 0.655316 0.346169
0.895856 0.684555 0.371365
0.564542 0.804397 0.645841
0.556445 0.808698 0.619881
0.534828 0.822000 0.531146
0.632663 0.841815 0.490720
0.722843 0.853805 0.461004
0.804165 0.861239 0.436708
0.867371 0.838711 0.411363
0.872268 0.739510 0.368154
0.905532 0.712941 0.367532
0.599443 0.870389 0.672943
0.590495 0.875284 0.642563
0.587980 0.889816 0.563378
0.670866 0.906580 0.529769
0.747569 0.917894 0.503926
0.818022 0.925858 0.482362
0.902089 0.933645 0.458757
0.940235 0.887429 0.434447
0.944457 0.805400 0.396432
0.099667 0.105911 0.156276
0.141255 0.117846 0.160677
0.208634 0.139738 0.179984
0.391622 0.218963 0.258692
0.542945 0.285689 0.326611
0.633529 0.326898 0.372694
0.706201 0.360980 0.414235
0.786130 0.399420 0.464204
0.850304 0.432424 0.513788
0.095169 0.143338 0.156333
0.129751 0.140306 0.152212
0.209015 0.164560 0.177396
0.391027 0.230915 0.253876
0.542726 0.284024 0.319553
0.633000 0.325194 0.365881
0.705696 0.359331 0.407631
0.785256 0.397280 0.455990
0.849321 0.430155 0.505243
0.182932 0.238866 0.219909
0.186740 0.236890 0.200643
0.242720 0.246975 0.172476
0.403017 0.296431 0.236385
0.541443 0.357418 0.318726
0.623828 0.379350 0.365677
0.701866 0.372870 0.392848
0.783430 0.392640 0.437902
0.846897 0.424541 0.483870
0.325354 0.424304 0.384591
0.314086 0.428591 0.354598
0.310096 0.435751 0.288932
0.452936 0.404717 0.225021
0.571566 0.431618 0.261967
0.655904 0.471702 0.299556
0.717781 0.483307 0.363465
0.782375 0.499248 0.434313
0.833755 0.492815 0.475555
0.416857 0.561182 0.492204
0.407225 0.566036 0.465030
0.384926 0.576287 0.388749
0.519129 0.598958 0.333923
0.611733 0.532745 0.279604
0.673457 0.525380 0.291572
0.743428 0.559915 0.321992
0.817171 0.595410 0.354682
0.874496 0.621649 0.387932
0.463061 0.636520 0.541546
0.454347 0.641375 0.515419
0.432598 0.652969 0.438593
0.552736 0.677168 0.384672
0.687220 0.692124 0.347501
0.700136 0.590760 0.304386
0.755040 0.591230 0.318327
0.828497 0.629543 0.349532
0.887519 0.659687 0.374998
0.516501 0.723864 0.597706
0.508126 0.728231 0.571865
0.484835 0.740116 0.489037
0.592760 0.762003 0.439433
0.701050 0.774522 0.405763
0.781167 0.764423 0.378495
0.785369 0.662685 0.335240
0.837798 0.655434 0.346309
0.896078 0.684632 0.371473
0.563822 0.804678 0.643704
0.555699 0.808987 0.617513
0.536612 0.822399 0.530175
0.634017 0.841956 0.490174
0.723698 0.853823 0.460678
0.804737 0.861202 0.436481
0.867335 0.837947 0.411124
0.872202 0.738817 0.367861
0.905755 0.713031 0.367636
0.598726 0.870721 0.670646
0.589667 0.875673 0.639725
0.589818 0.890225 0.562479
0.672019 0.906733 0.529315
0.748313 0.917945 0.503652
0.818516 0.925859 0.482178
0.902685 0.933648 0.458561
0.940210 0.886943 0.434263
0.944419 0.804915 0.396220
0.160622 0.161763 0.271520
0.203255 0.174671 0.276794
0.268855 0.200977 0.288081
0.406414 0.241676 0.329866
0.555815 0.306876 0.398126
0.645266 0.348047 0.446554
0.718244 0.382933 0.491334
0.797496 0.421028 0.540832
0.860572 0.452242 0.583969
0.156685 0.191243 0.267270
0.185913 0.192256 0.260756
0.255920 0.211071 0.273083
0.410304 0.252024 0.324683
0.555366 0.304770 0.390148
0.644478 0.345821 0.438402
0.717505 0.380809 0.483495
0.796726 0.419089 0.533785
0.859935 0.450665 0.578257
0.154733 0.259020 0.265914
0.185837 0.257157 0.262462
0.234920 0.245903 0.250749
0.402370 0.306864 0.314074
0.545741 0.360584 0.379169
0.636959 0.385323 0.424982
0.713902 0.390964 0.465578
0.794534 0.413690 0.514016
0.858036 0.446088 0.561616
0.310116 0.437091 0.402596
0.330331 0.428271 0.396996
0.341486 0.421033 0.365291
0.450898 0.417013 0.302181
0.569644 0.461002 0.352420
0.646484 0.484385 0.399530
0.706062 0.499370 0.453928
0.776385 0.495377 0.491120
0.846234 0.495668 0.534984
0.414321 0.561746 0.485986
0.404941 0.566390 0.458784
0.384532 0.576611 0.382543
0.526120 0.599170 0.331438
0.611117 0.531988 0.291678
0.674114 0.539344 0.332789
0.742705 0.580618 0.384530
0.813855 0.622451 0.438226
0.865581 0.633534 0.485990
0.460995 0.637338 0.535898
0.452420 0.642078 0.509622
0.430494 0.653807 0.430351
0.558241 0.677692 0.382789
0.690412 0.692134 0.346494
0.699968 0.587996 0.303287
0.756341 0.591834 0.318902
0.829272 0.629862 0.349892
0.887920 0.661803 0.381089
0.514509 0.724526 0.592106
0.506223 0.728820 0.566107
0.484913 0.740997 0.482345
0.596853 0.762318 0.437816
0.703635 0.774466 0.404788
0.780954 0.762219 0.377788
0.785151 0.659881 0.334105
0.838557 0.655732 0.346663
0.896644 0.684828 0.371749
0.561999 0.805381 0.638246
0.553786 0.809729 0.611376
0.541250 0.823411 0.527701
0.637428 0.842306 0.488803
0.725860 0.853866 0.459853
0.806186 0.861107 0.435906
0.867242 0.836004 0.410517
0.872032 0.737055 0.367122
0.906322 0.713259 0.367898
0.596888 0.871570 0.664709
0.587511 0.876690 0.632249
0.594511 0.891250 0.560217
0.674922 0.907112 0.528177
0.750195 0.918070 0.502959
0.819766 0.925861 0.481712
0.904194 0.933654 0.458064
0.940147 0.885708 0.433789
0.944322 0.803680 0.395684
0.264843 0.256949 0.465685
0.302968 0.268613 0.469217
0.373339 0.292583 0.476983
0.484447 0.320146 0.493569
0.555987 0.334208 0.497393
0.649860 0.374203 0.540790
0.727041 0.407472 0.576497
0.809494 0.443006 0.613818
0.870671 0.471030 0.646915
0.262601 0.287197 0.461646
0.284699 0.283541 0.458864
0.362641 0.303488 0.468131
0.480470 0.319512 0.486640
0.557392 0.333682 0.494371
0.650840 0.373538 0.537429
0.727967 0.406853 0.573210
0.809297 0.442224 0.611005
0.870459 0.470313 0.644343
0.253149 0.334173 0.458813
0.280485 0.335325 0.454893
0.329543 0.334563 0.441013
0.459931 0.367881 0.465624
0.563182 0.394588 0.497814
0.655657 0.416976 0.536811
0.731007 0.416525 0.566186
0.808709 0.440059 0.603235
0.869865 0.468376 0.637398
0.260440 0.466395 0.475884
0.287117 0.464624 0.472801
0.343552 0.459399 0.465250
0.439313 0.436997 0.438662
0.556925 0.475671 0.487224
0.643431 0.503137 0.530390
0.719515 0.516414 0.567371
0.799077 0.525035 0.604727
0.863676 0.523183 0.635180
0.394557 0.588165 0.549741
0.415085 0.583004 0.545758
0.458013 0.567083 0.534512
0.497032 0.577653 0.474729
0.607347 0.578837 0.464535
0.670644 0.591561 0.493940
0.733449 0.624176 0.536893
0.793669 0.643165 0.588524
0.838202 0.651254 0.629999
0.485216 0.635122 0.581614
0.501340 0.628701 0.579189
0.487042 0.642248 0.526375
0.550489 0.670139 0.455961
0.665322 0.687566 0.436958
0.698861 0.620107 0.412973
0.756707 0.635485 0.448025
0.825861 0.679784 0.501918
0.880852 0.718219 0.555984
0.511010 0.725663 0.582042
0.502825 0.729862 0.555614
0.493096 0.742605 0.477815
0.603999 0.762829 0.435012
0.708193 0.774353 0.403069
0.780567 0.758305 0.376536
0.784756 0.654898 0.332157
0.839544 0.668452 0.383654
0.896224 0.708126 0.441562
0.558773 0.806613 0.628401
0.550258 0.811111 0.599817
0.549810 0.825194 0.523307
0.643387 0.842891 0.486424
0.729668 0.853932 0.458402
0.808743 0.860931 0.434889
0.867072 0.832551 0.409441
0.871728 0.733919 0.365826
0.907327 0.713662 0.368364
0.593420 0.873186 0.653271
0.583514 0.878578 0.618100
0.602789 0.892984 0.556333
0.679983 0.907754 0.526204
0.753507 0.918284 0.501742
0.821971 0.925860 0.480889
0.906865 0.933661 0.457183
0.940031 0.883507 0.432926
0.944147 0.801480 0.394736
0.341446 0.320225 0.587715
0.374714 0.330298 0.590261
0.444335 0.353055 0.596153
0.564785 0.399872 0.607936
0.621186 0.389099 0.612583
0.645133 0.389701 0.596437
0.722795 0.422515 0.633041
0.804294 0.456815 0.669314
0.869446 0.484485 0.698306
0.335772 0.345880 0.581750
0.361944 0.344099 0.584800
0.438052 0.361925 0.591827
0.563934 0.398505 0.604830
0.618174 0.386743 0.607941
0.645817 0.389494 0.595223
0.723462 0.422311 0.631740
0.804776 0.456554 0.667910
0.869849 0.484216 0.696909
0.332099 0.396794 0.589979
0.355651 0.398325 0.584946
0.405810 0.397172 0.576852
0.544249 0.440997 0.593196
0.608987 0.435555 0.603106
0.647917 0.427773 0.598772
0.725236 0.424027 0.628649
0.806027 0.455844 0.664144
0.870895 0.483491 0.693177
0.323174 0.501699 0.605440
0.349406 0.501969 0.603328
0.408588 0.500556 0.595474
0.500276 0.488376 0.567658
0.590106 0.512450 0.590496
0.654361 0.524995 0.611196
0.733407 0.537910 0.644292
0.812934 0.544559 0.674351
0.875841 0.539373 0.696914
0.344293 0.615799 0.631429
0.369566 0.616157 0.629862
0.433179 0.616588 0.625411
0.531127 0.608568 0.604310
0.586201 0.591002 0.584213
0.657330 0.604832 0.609496
0.721454 0.626143 0.638410
0.793359 0.652641 0.674363
0.857516 0.664849 0.705156
0.427033 0.689352 0.669718
0.448694 0.686520 0.666020
0.506848 0.676045 0.653783
0.575380 0.642993 0.620603
0.607647 0.661961 0.590623
0.688897 0.679560 0.602828
0.748571 0.691853 0.625276
0.809268 0.715969 0.658103
0.856912 0.735767 0.693727
0.530789 0.742640 0.690892
0.548386 0.737676 0.687630
0.596218 0.718144 0.675641
0.601515 0.731646 0.613413
0.656680 0.751379 0.595929
0.729366 0.765600 0.595334
0.781681 0.732326 0.586628
0.836212 0.745097 0.616264
0.887999 0.775425 0.652926
0.593618 0.799229 0.677053
0.586728 0.804312 0.652662
0.565669 0.819588 0.565927
0.643124 0.836699 0.541957
0.717371 0.847857 0.527658
0.786037 0.855309 0.520139
0.863056 0.855919 0.514230
0.870106 0.773641 0.498965
0.907490 0.769671 0.534102
0.587807 0.875824 0.634132
0.577256 0.881530 0.595210
0.614791 0.895346 0.550906
0.687317 0.908633 0.523360
0.758391 0.918583 0.499949
0.825232 0.925846 0.479667
0.910835 0.933662 0.455873
0.939851 0.880196 0.431587
0.943879 0.798172 0.393333
0.405867 0.368103 0.674879
0.435767 0.377275 0.677125
0.507137 0.400634 0.682845
0.624076 0.444972 0.693599
0.683964 0.448818 0.704188
0.714229 0.442333 0.700801
0.724665 0.437282 0.678308
0.800882 0.469038 0.713531
0.865323 0.496432 0.743840
0.396114 0.378955 0.670574
0.428532 0.385950 0.673249
0.506013 0.402761 0.680017
0.623584 0.444134 0.691062
0.682704 0.446833 0.701657
0.711753 0.440432 0.697081
0.722289 0.435446 0.674601
0.801327 0.468833 0.712469
0.865694 0.496214 0.742752
0.391609 0.437680 0.672094
0.412503 0.439395 0.666763
0.474500 0.444037 0.667055
0.604079 0.483932 0.680999
0.670746 0.490670 0.693019
0.704746 0.467161 0.691836
0.723626 0.434907 0.671873
0.802477 0.468281 0.709634
0.866656 0.495630 0.739855
0.385867 0.537472 0.693980
0.408956 0.537579 0.690665
0.467616 0.536398 0.678277
0.561329 0.535956 0.658635
0.644872 0.561808 0.674216
0.690457 0.551615 0.686566
0.727420 0.541565 0.685953
0.806686 0.549800 0.719790
0.870055 0.544929 0.743931
0.384360 0.630724 0.707371
0.409101 0.631936 0.706382
0.478779 0.634418 0.701919
0.570052 0.628423 0.684574
0.614632 0.612674 0.672702
0.674723 0.621618 0.683600
0.740024 0.648500 0.705093
0.815962 0.677553 0.737229
0.874901 0.684183 0.761879
0.404109 0.695620 0.718816
0.429013 0.697037 0.718042
0.503500 0.701214 0.715503
0.593478 0.703061 0.707020
0.635479 0.688228 0.683731
0.675130 0.677286 0.676211
0.742287 0.694250 0.699869
0.803731 0.714309 0.723797
0.856553 0.735915 0.748803
0.489810 0.787383 0.775631
0.514015 0.784573 0.771313
0.580625 0.774054 0.757019
0.644090 0.752251 0.733430
0.667258 0.736396 0.703322
0.692245 0.747105 0.682603
0.766993 0.763780 0.696430
0.825680 0.773271 0.715583
0.872522 0.785449 0.740149
0.580746 0.844511 0.803991
0.604634 0.839471 0.799015
0.659496 0.822777 0.784222
0.701011 0.796035 0.763674
0.710444 0.797966 0.737150
0.725595 0.817704 0.711978
0.796096 0.841065 0.714673
0.863347 0.838537 0.715537
0.903630 0.833491 0.726485
0.679407 0.865397 0.804473
0.698693 0.857140 0.800239
0.707751 0.859957 0.770577
0.699546 0.876724 0.717829
0.725296 0.890256 0.694906
0.770795 0.900780 0.693967
0.837342 0.914530 0.693157
0.909921 0.927233 0.694960
0.938983 0.889760 0.691560
0.474024 0.417067 0.761933
0.501482 0.425576 0.763847
0.578627 0.450959 0.769471
0.682722 0.489869 0.778247
0.740230 0.506891 0.785571
0.777655 0.499760 0.793365
0.801534 0.493210 0.786216
0.810256 0.486991 0.761751
0.862555 0.507362 0.781925
0.472818 0.419677 0.760218
0.502406 0.425528 0.762495
0.579868 0.450946 0.768168
0.682771 0.489525 0.776889
0.739635 0.505800 0.784238
0.777006 0.498713 0.792032
0.800229 0.492178 0.784172
0.808974 0.485997 0.759747
0.862848 0.507269 0.781377
0.454663 0.479929 0.754512
0.469682 0.475193 0.751783
0.553402 0.493359 0.759280
0.665486 0.526705 0.770162
0.730863 0.544212 0.778372
0.771392 0.518411 0.787790
0.796850 0.489509 0.778880
0.805653 0.483423 0.754557
0.863598 0.507024 0.779957
0.451323 0.575129 0.780601
0.472958 0.575362 0.776422
0.533271 0.575062 0.759686
0.625384 0.583171 0.754091
0.701573 0.603328 0.765911
0.750497 0.606448 0.776298
0.788522 0.582178 0.782484
0.801829 0.554230 0.759504
0.865491 0.548531 0.784892
0.450678 0.664857 0.797136
0.475222 0.665827 0.794854
0.544745 0.667096 0.785328
0.615821 0.659898 0.762710
0.654875 0.647145 0.747592
0.716775 0.666760 0.759173
0.768174 0.678353 0.773925
0.805902 0.678837 0.777999
0.872137 0.690234 0.808162
0.455153 0.715525 0.796142
0.482809 0.717315 0.795013
0.557377 0.720905 0.790157
0.630642 0.719110 0.779178
0.669445 0.709218 0.766125
0.702361 0.700505 0.762522
0.759752 0.710417 0.773246
0.819682 0.733233 0.792481
0.882395 0.765352 0.819995
0.484325 0.788385 0.810762
0.514342 0.790001 0.809681
0.587292 0.793351 0.806460
0.654526 0.793910 0.800690
0.691049 0.786157 0.784558
0.719425 0.771182 0.767783
0.759862 0.759253 0.762006
0.822725 0.773761 0.784864
0.873823 0.787698 0.804777
0.573784 0.871479 0.859058
0.601743 0.867985 0.853686
0.658297 0.858087 0.840426
0.704898 0.843412 0.824107
0.730879 0.828004 0.802875
0.746344 0.820366 0.781562
0.778142 0.832548 0.764770
0.845738 0.849228 0.778371
0.892818 0.851982 0.791913
0.654826 0.916040 0.881497
0.678361 0.910906 0.875942
0.718309 0.899025 0.864243
0.752440 0.882084 0.849322
0.773336 0.861499 0.831208
0.780248 0.860942 0.811496
0.801072 0.887527 0.786431
0.865491 0.910177 0.792271
0.929678 0.920478 0.798369
0.538285 0.458751 0.830546
0.567722 0.468068 0.832551
0.648544 0.495270 0.838356
0.732710 0.526907 0.845363
0.786832 0.549744 0.850967
0.820774 0.545835 0.857509
0.857747 0.538804 0.864910
0.872502 0.532380 0.849451
0.879772 0.527441 0.829729
0.539513 0.458793 0.829622
0.569121 0.468184 0.831642
0.649806 0.495409 0.837455
0.732874 0.526707 0.844399
0.786602 0.549417 0.849985
0.820314 0.545069 0.856550
0.857343 0.538043 0.863963
0.871559 0.531641 0.847987
0.878838 0.526716 0.828272
0.505763 0.500246 0.820823
0.539798 0.508879 0.823467
0.629158 0.533617 0.830756
0.718143 0.559024 0.839178
0.777305 0.572421 0.846027
0.817774 0.551079 0.853730
0.856303 0.536087 0.861528
0.869134 0.529744 0.844227
0.876442 0.524856 0.824533
0.510324 0.602718 0.841996
0.534003 0.603253 0.836048
0.590942 0.602982 0.815023
0.680101 0.617865 0.825995
0.747394 0.633585 0.835380
0.796083 0.640908 0.843361
0.838374 0.620836 0.853883
0.863679 0.591972 0.846840
0.872032 0.552903 0.822899
0.513674 0.693494 0.863737
0.540683 0.694438 0.859854
0.604024 0.694607 0.846645
0.656418 0.687901 0.824477
0.698965 0.683345 0.814299
0.756817 0.701216 0.825891
0.811128 0.718691 0.838236
0.853071 0.709286 0.852262
0.865325 0.689202 0.835995
0.523078 0.744229 0.868375
0.552334 0.745613 0.865573
0.615730 0.746800 0.856753
0.669217 0.742969 0.842724
0.702158 0.733175 0.826607
0.729166 0.724043 0.821249
0.790761 0.742336 0.832628
0.838634 0.753983 0.845680
0.871830 0.764086 0.849835
0.538594 0.801914 0.871657
0.569322 0.803775 0.870362
0.630211 0.806308 0.866585
0.684486 0.805406 0.860286
0.720913 0.798313 0.849623
0.746786 0.788023 0.840093
0.785388 0.779267 0.837220
0.834992 0.783743 0.845751
0.884970 0.799957 0.860952
0.584174 0.877532 0.896109
0.612545 0.878922 0.894870
0.662728 0.880592 0.891988
0.712047 0.880536 0.887706
0.746488 0.877941 0.878369
0.769819 0.866360 0.860714
0.802408 0.851913 0.843035
0.837713 0.842710 0.838353
0.888955 0.852649 0.855922
0.661045 0.942535 0.933550
0.682170 0.939792 0.929260
0.717707 0.933902 0.920965
0.754812 0.924906 0.909863
0.783549 0.913507 0.895330
0.799997 0.904203 0.877413
0.823316 0.897144 0.853897
0.853107 0.905142 0.842466
0.906607 0.917261 0.853904
0.610498 0.500613 0.892139
0.643568 0.511432 0.894367
0.715241 0.536303 0.899516
0.778882 0.560421 0.904690
0.826668 0.580154 0.909180
0.860221 0.585979 0.913887
0.895444 0.578282 0.920347
0.926526 0.571448 0.923518
0.932334 0.565737 0.903685
0.612217 0.500979 0.891687
0.645280 0.511820 0.893922
0.716261 0.536506 0.899040
0.779179 0.560390 0.904176
0.826682 0.580031 0.908660
0.860028 0.585557 0.913387
0.895292 0.577866 0.919861
0.926037 0.571048 0.922726
0.931836 0.565337 0.902885
0.588763 0.537550 0.885596
0.625023 0.547350 0.888351
0.700643 0.568652 0.894475
0.768049 0.586153 0.900704
0.821002 0.594730 0.906346
0.859510 0.584453 0.912072
0.894889 0.576786 0.918595
0.924783 0.570025 0.920696
0.930580 0.564331 0.900866
0.574823 0.626838 0.891063
0.598424 0.627436 0.882964
0.656700 0.628742 0.881722
0.731949 0.647348 0.890074
0.790731 0.659329 0.897586
0.836257 0.664522 0.904143
0.880029 0.653448 0.912584
0.918056 0.623936 0.920944
0.928106 0.578986 0.899660
0.582422 0.719696 0.918028
0.608362 0.720283 0.912595
0.656047 0.719285 0.898589
0.694423 0.713329 0.878444
0.741976 0.715951 0.879380
0.794611 0.730482 0.888753
0.850221 0.746169 0.899429
0.891729 0.744238 0.910444
0.921291 0.721662 0.914051
0.594557 0.770745 0.926067
0.620542 0.771466 0.921999
0.665700 0.771124 0.912415
0.706146 0.767223 0.898388
0.734493 0.758616 0.880361
0.761554 0.752577 0.875409
0.824566 0.774177 0.887171
0.871953 0.793031 0.897777
0.908807 0.795371 0.911191
0.611328 0.825281 0.932950
0.635883 0.825989 0.930387
0.677222 0.825939 0.924670
0.718579 0.823013 0.915678
0.750557 0.815793 0.903555
0.772211 0.805732 0.893229
0.808573 0.797592 0.889949
0.859802 0.809294 0.898594
0.900868 0.816083 0.908970
0.631837 0.884972 0.939346
0.653468 0.886314 0.938607
0.691410 0.888109 0.936913
0.733927 0.888756 0.933943
0.768965 0.885610 0.927396
0.793177 0.878294 0.918392
0.826083 0.867092 0.907519
0.859022 0.859458 0.905048
0.899633 0.860281 0.911183
0.675950 0.949844 0.964710
0.692061 0.950431 0.963818
0.723768 0.951200 0.961727
0.760852 0.951175 0.958491
0.793028 0.949898 0.952572
0.815598 0.943429 0.939817
0.844838 0.929791 0.918435
0.872721 0.920048 0.906926
0.904171 0.913948 0.904246
