data/luts/JSZ-CEDAR G.cube
# Baked from the Lightroom preset "JSZ-CEDAR G" by scripts/lightroom-preset-lut.lisp
# Colour only; not in this LUT (add the node instead):
#   Clarity +20
#   Sharpening 60, radius 1.4
#   White balance 4600 K, tint -3, taken relative to 5500 K daylight
TITLE "JSZ-CEDAR G"
LUT_3D_SIZE 5
DOMAIN_MIN 0.0 0.0 0.0
DOMAIN_MAX 1.0 1.0 1.0
0.135672 0.128187 0.122464
0.219900 0.155372 0.150347
0.420709 0.221431 0.218452
0.581493 0.278762 0.277744
0.795901 0.352504 0.353327
0.170957 0.237044 0.153370
0.237759 0.253048 0.158400
0.431348 0.314838 0.235679
0.590068 0.368169 0.286385
0.803009 0.437001 0.363715
0.247545 0.484642 0.228702
0.292001 0.492526 0.228148
0.467517 0.520389 0.225283
0.620082 0.550488 0.271619
0.825313 0.627283 0.378425
0.324510 0.702201 0.291393
0.371857 0.709736 0.289510
0.521742 0.732164 0.283540
0.659308 0.751924 0.278294
0.858339 0.785145 0.319609
0.414985 0.908753 0.346645
0.470625 0.917043 0.343948
0.588340 0.934014 0.338383
0.713715 0.951512 0.332707
0.891097 0.975061 0.324989
0.204567 0.171606 0.267560
0.247617 0.171933 0.268717
0.432896 0.218432 0.318629
0.589542 0.271024 0.371723
0.800195 0.347480 0.443584
0.206225 0.244593 0.259143
0.247347 0.245407 0.260301
0.435991 0.297585 0.314395
0.591421 0.348010 0.366968
0.801510 0.416643 0.437665
0.277532 0.478659 0.316926
0.305846 0.479340 0.305899
0.475728 0.516847 0.313235
0.623856 0.550102 0.368479
0.824035 0.625333 0.463320
0.341001 0.694878 0.342807
0.386973 0.703998 0.336874
0.528073 0.727518 0.335865
0.665091 0.749297 0.336842
0.860820 0.783985 0.387861
0.429942 0.910091 0.345635
0.483909 0.918079 0.343029
0.594486 0.933973 0.337822
0.720021 0.951448 0.332148
0.894707 0.974614 0.324564
0.319967 0.251239 0.533805
0.366209 0.251354 0.534272
0.489009 0.251703 0.535660
0.614335 0.273685 0.559484
0.813389 0.333977 0.622621
0.321807 0.316240 0.532125
0.369567 0.316784 0.532605
0.489702 0.318496 0.533996
0.616195 0.344589 0.559384
0.814667 0.408398 0.621459
0.329268 0.497858 0.525543
0.380940 0.498192 0.525897
0.492892 0.499237 0.526890
0.624376 0.529112 0.556418
0.820649 0.589483 0.615458
0.407781 0.697660 0.568841
0.455295 0.695624 0.567133
0.544491 0.688820 0.561153
0.673456 0.728967 0.573756
0.859718 0.777297 0.635018
0.511729 0.896681 0.613339
0.549347 0.894144 0.611720
0.601726 0.897359 0.587531
0.726881 0.927042 0.596826
0.899104 0.964784 0.609091
0.475247 0.330332 0.798341
0.517605 0.330421 0.798706
0.599124 0.330666 0.799639
0.701351 0.331084 0.801153
0.836502 0.340963 0.812593
0.478661 0.375511 0.796876
0.520062 0.376085 0.797196
0.599791 0.377880 0.798044
0.702248 0.381181 0.799453
0.837806 0.396344 0.811644
0.490328 0.566175 0.790543
0.528887 0.566493 0.790662
0.603385 0.567523 0.791129
0.706772 0.569457 0.792048
0.843698 0.585711 0.806661
0.511419 0.721761 0.775825
0.544876 0.721991 0.775919
0.610413 0.722759 0.776385
0.714869 0.724220 0.777337
0.853401 0.745817 0.798007
0.578350 0.904819 0.799095
0.604044 0.904070 0.798458
0.656608 0.902131 0.796902
0.758195 0.899285 0.792538
0.892468 0.929071 0.809075
0.623641 0.390346 0.998835
0.645827 0.390347 0.998849
0.694860 0.390347 0.998865
0.802433 0.390335 0.998835
0.908949 0.390307 0.998719
0.625977 0.390346 0.998837
0.647637 0.390347 0.998850
0.696017 0.390347 0.998865
0.803872 0.390335 0.998834
0.909847 0.403934 0.998640
0.634674 0.607835 0.997337
0.654847 0.608153 0.997256
0.701505 0.609180 0.997062
0.810695 0.611077 0.996608
0.914950 0.613991 0.996156
0.648968 0.774670 0.995084
0.666760 0.774854 0.995014
0.713965 0.775449 0.994830
0.821243 0.776559 0.994429
0.921897 0.778319 0.994067
0.665251 0.932551 0.989076
0.680949 0.932684 0.989191
0.732711 0.933110 0.989562
0.834291 0.933918 0.990287
0.930254 0.935203 0.991581
