data/luts/JSZ-CEDAR G.cube
# Baked from the Lightroom preset "JSZ-CEDAR G" by scripts/lightroom-preset-lut.lisp
# Colour only; not in this LUT (add the node instead):
#   Clarity +20
#   Sharpening 60, radius 1.4
#   White balance 4600 K, tint -3, taken relative to 5500 K daylight
TITLE "JSZ-CEDAR G"
LUT_3D_SIZE 9
DOMAIN_MIN 0.0 0.0 0.0
DOMAIN_MAX 1.0 1.0 1.0
0.135672 0.128187 0.122464
0.174338 0.140370 0.134916
0.219900 0.155372 0.150347
0.303886 0.182931 0.178726
0.420709 0.221431 0.218452
0.510947 0.252803 0.251005
0.581493 0.278762 0.277744
0.694821 0.317576 0.317602
0.795901 0.352504 0.353327
0.148241 0.174554 0.134577
0.184885 0.186088 0.141371
0.227305 0.197626 0.158435
0.309386 0.225198 0.186238
0.424647 0.261245 0.224053
0.513849 0.289240 0.255582
0.584213 0.311686 0.282119
0.697107 0.347475 0.321687
0.797940 0.379960 0.356962
0.170957 0.237044 0.153370
0.195653 0.243208 0.155353
0.237759 0.253048 0.158400
0.320444 0.273601 0.189820
0.431348 0.314838 0.235679
0.519106 0.344122 0.262906
0.590068 0.368169 0.286385
0.702544 0.404327 0.327020
0.803009 0.437001 0.363715
0.210886 0.368866 0.193502
0.227928 0.372288 0.193713
0.261553 0.378898 0.194109
0.341283 0.393258 0.194732
0.450134 0.413132 0.218678
0.532290 0.440775 0.262781
0.602211 0.469927 0.299691
0.713276 0.513554 0.345195
0.813739 0.547796 0.374775
0.247545 0.484642 0.228702
0.261435 0.487138 0.228534
0.292001 0.492526 0.228148
0.368944 0.505235 0.226992
0.467517 0.520389 0.225283
0.549469 0.532844 0.234007
0.620082 0.550488 0.271619
0.728390 0.587829 0.328431
0.825313 0.627283 0.378425
0.279160 0.570567 0.253924
0.291476 0.572689 0.253623
0.323006 0.578017 0.252836
0.399068 0.590165 0.250802
0.487805 0.603623 0.248321
0.562167 0.614636 0.246223
0.637457 0.625784 0.250361
0.743815 0.651894 0.306412
0.838710 0.684297 0.355671
0.324510 0.702201 0.291393
0.335724 0.704019 0.290952
0.371857 0.709736 0.289510
0.443522 0.720650 0.286636
0.521742 0.732164 0.283540
0.586771 0.741615 0.281042
0.659308 0.751924 0.278294
0.765977 0.766324 0.274221
0.858339 0.785145 0.319609
0.367652 0.813289 0.321673
0.380967 0.815351 0.321063
0.421718 0.821542 0.319198
0.487013 0.831196 0.316235
0.555955 0.841129 0.313161
0.613889 0.849381 0.310646
0.685900 0.859376 0.307558
0.784702 0.872566 0.303361
0.875850 0.884498 0.299607
0.414985 0.908753 0.346645
0.430965 0.911157 0.345867
0.470625 0.917043 0.343948
0.528326 0.925438 0.341192
0.588340 0.934014 0.338383
0.640439 0.941404 0.336009
0.713715 0.951512 0.332707
0.806481 0.963920 0.328604
0.891097 0.975061 0.324989
0.163050 0.145729 0.181072
0.184347 0.145812 0.181380
0.223952 0.154952 0.191147
0.309498 0.181324 0.218408
0.424238 0.219340 0.255241
0.512777 0.250362 0.284386
0.583766 0.276927 0.308489
0.696571 0.316144 0.345952
0.797120 0.351256 0.379710
0.165204 0.179020 0.179162
0.184705 0.179270 0.179478
0.224986 0.189943 0.190406
0.311035 0.216811 0.217897
0.425043 0.252551 0.254525
0.513032 0.280765 0.283480
0.584228 0.304253 0.307608
0.696932 0.340700 0.344961
0.797441 0.373674 0.378542
0.182860 0.234101 0.190770
0.197741 0.234102 0.189067
0.237992 0.247718 0.196400
0.321799 0.273673 0.230373
0.432153 0.308623 0.264589
0.518168 0.336287 0.292548
0.589546 0.359900 0.316550
0.701795 0.396310 0.353290
0.802005 0.429469 0.386366
0.225105 0.363176 0.228407
0.230616 0.366756 0.219418
0.263156 0.374141 0.221502
0.345119 0.391150 0.225854
0.452108 0.412376 0.254619
0.531854 0.440802 0.299043
0.601670 0.471392 0.338218
0.713191 0.508813 0.373608
0.812812 0.541828 0.405398
0.251382 0.484099 0.232347
0.264706 0.486447 0.232738
0.295332 0.491755 0.233763
0.373127 0.504651 0.235285
0.470300 0.519878 0.237748
0.550928 0.532464 0.252641
0.621540 0.550440 0.294750
0.728742 0.588405 0.355429
0.824597 0.628586 0.409495
0.282400 0.570445 0.253629
0.294468 0.572521 0.253335
0.327081 0.578008 0.252518
0.403127 0.590115 0.250484
0.490485 0.603343 0.248046
0.563775 0.614196 0.245984
0.639497 0.625488 0.251711
0.745386 0.651844 0.307488
0.839771 0.684230 0.356467
0.327450 0.702186 0.291125
0.338509 0.703976 0.290691
0.376185 0.709916 0.289186
0.447135 0.720697 0.286344
0.524063 0.732010 0.283304
0.588185 0.741329 0.280845
0.661328 0.751710 0.278075
0.767649 0.766055 0.274019
0.859386 0.784998 0.320348
0.370778 0.813461 0.321433
0.384931 0.815646 0.320785
0.425958 0.821864 0.318908
0.490263 0.831355 0.315993
0.558000 0.841107 0.312976
0.615195 0.849253 0.310497
0.687791 0.859319 0.307384
0.786231 0.872454 0.303205
0.876953 0.884328 0.299471
0.419158 0.909125 0.346362
0.435219 0.911536 0.345581
0.474458 0.917349 0.343685
0.531181 0.925591 0.340979
0.590113 0.934008 0.338223
0.641642 0.941316 0.335877
0.715502 0.951495 0.332549
0.807906 0.963849 0.328464
0.892119 0.974935 0.324869
0.204567 0.171606 0.267560
0.219035 0.171700 0.267894
0.247617 0.171933 0.268717
0.323457 0.185182 0.283254
0.432896 0.218432 0.318629
0.517384 0.244112 0.346781
0.589542 0.271024 0.371723
0.701010 0.311268 0.409429
0.800195 0.347480 0.443584
0.205012 0.201658 0.265279
0.219085 0.201928 0.265616
0.247423 0.202607 0.266448
0.324957 0.218017 0.282407
0.433634 0.252205 0.317591
0.517565 0.279265 0.345593
0.589937 0.303196 0.370529
0.701338 0.339328 0.408060
0.800509 0.371971 0.441983
0.206225 0.244593 0.259143
0.219514 0.244823 0.259476
0.247347 0.245407 0.260301
0.329161 0.264135 0.279791
0.435991 0.297585 0.314395
0.518595 0.324062 0.341946
0.591421 0.348010 0.366968
0.702574 0.383981 0.404133
0.801510 0.416643 0.437665
0.237875 0.364103 0.285702
0.249401 0.363493 0.285336
0.274539 0.361427 0.283975
0.353784 0.384913 0.290580
0.455208 0.410300 0.325718
0.530750 0.439005 0.361172
0.603586 0.463060 0.384551
0.713568 0.498324 0.419348
0.811656 0.529906 0.451038
0.277532 0.478659 0.316926
0.288157 0.477938 0.316577
0.305846 0.479340 0.305899
0.380338 0.497020 0.307718
0.475728 0.516847 0.313235
0.553815 0.530958 0.330107
0.623856 0.550102 0.368479
0.728529 0.590294 0.425026
0.824035 0.625333 0.463320
0.310989 0.560830 0.335226
0.317838 0.561119 0.331652
0.336707 0.568370 0.316536
0.410475 0.582840 0.318153
0.494408 0.598340 0.319958
0.566274 0.611169 0.321915
0.644124 0.624249 0.334843
0.746665 0.651140 0.390003
0.838521 0.684847 0.439686
0.341001 0.694878 0.342807
0.347115 0.696983 0.337260
0.386973 0.703998 0.336874
0.454866 0.715524 0.336226
0.528073 0.727518 0.335865
0.589972 0.737497 0.336232
0.665091 0.749297 0.336842
0.771849 0.765344 0.338127
0.860820 0.783985 0.387861
0.380271 0.811627 0.338960
0.395706 0.814043 0.338673
0.436540 0.820344 0.337875
0.497962 0.829601 0.336894
0.562455 0.839098 0.336469
0.617721 0.847146 0.337054
0.691748 0.857727 0.337548
0.789475 0.871338 0.337817
0.879670 0.883766 0.339021
0.429942 0.910091 0.345635
0.445973 0.912484 0.344858
0.483909 0.918079 0.343029
0.538220 0.925947 0.340445
0.594486 0.933973 0.337822
0.644656 0.941086 0.335543
0.720021 0.951448 0.332148
0.811505 0.963665 0.328110
0.894707 0.974614 0.324564
0.266938 0.217935 0.422433
0.278592 0.217993 0.422646
0.307052 0.218139 0.423185
0.372457 0.218410 0.424206
0.447218 0.222852 0.429746
0.525162 0.246542 0.455078
0.599585 0.269159 0.479600
0.708802 0.302324 0.515188
0.805584 0.336804 0.546980
0.267315 0.242005 0.421188
0.278857 0.242276 0.421407
0.307559 0.242957 0.421960
0.372889 0.244159 0.423004
0.447929 0.250739 0.429374
0.525389 0.276054 0.454591
0.599974 0.300891 0.479194
0.709075 0.336540 0.514678
0.805866 0.368658 0.546228
0.268376 0.287865 0.417757
0.279667 0.288042 0.417978
0.309115 0.288496 0.418543
0.374185 0.289325 0.419599
0.450018 0.297436 0.428031
0.526343 0.321846 0.452883
0.601426 0.346291 0.477606
0.710314 0.381352 0.512740
0.806869 0.413082 0.543944
0.269888 0.380319 0.411542
0.280806 0.380517 0.411767
0.311886 0.381024 0.412351
0.376171 0.381931 0.413420
0.453542 0.393756 0.425531
0.528074 0.417577 0.449611
0.604331 0.442178 0.474274
0.712975 0.476737 0.508644
0.809182 0.507780 0.539157
0.295347 0.484779 0.427534
0.305501 0.484576 0.427444
0.338237 0.483554 0.426776
0.397702 0.481337 0.424306
0.473930 0.497958 0.433557
0.546895 0.518860 0.457224
0.621178 0.545819 0.489457
0.726528 0.577685 0.520164
0.820531 0.606244 0.548536
0.327282 0.565913 0.443633
0.338090 0.565497 0.443394
0.373157 0.563642 0.442152
0.427031 0.558456 0.438424
0.495031 0.581704 0.440384
0.567852 0.602818 0.451780
0.649420 0.620303 0.473944
0.744753 0.649713 0.522344
0.834073 0.682459 0.559017
0.378574 0.694337 0.471113
0.392031 0.693583 0.470686
0.427211 0.691181 0.469269
0.464127 0.696131 0.451020
0.530632 0.711724 0.455731
0.589341 0.724988 0.460281
0.669470 0.742309 0.466179
0.778062 0.763531 0.478250
0.861173 0.781345 0.523092
0.431304 0.801450 0.484731
0.445320 0.800481 0.484255
0.464640 0.802473 0.468313
0.508094 0.813628 0.458495
0.566229 0.825029 0.460463
0.618211 0.834981 0.462847
0.695207 0.849261 0.466030
0.793093 0.866762 0.470019
0.884492 0.882711 0.474655
0.460476 0.896145 0.460551
0.465061 0.898870 0.450372
0.499161 0.905014 0.450412
0.548119 0.913647 0.450663
0.598945 0.922414 0.451398
0.646318 0.930457 0.452774
0.723966 0.943311 0.454413
0.814192 0.957861 0.456679
0.896820 0.970982 0.459922
0.319967 0.251239 0.533805
0.330374 0.251269 0.533926
0.366209 0.251354 0.534272
0.427097 0.251502 0.534877
0.489009 0.251703 0.535660
0.538272 0.251953 0.536582
0.614335 0.273685 0.559484
0.720117 0.305792 0.593080
0.813389 0.333977 0.622621
0.320598 0.261391 0.533222
0.331114 0.261832 0.533349
0.367246 0.262951 0.533712
0.427781 0.264820 0.534340
0.489248 0.267315 0.535155
0.538220 0.270308 0.536114
0.614824 0.295565 0.559499
0.720477 0.330959 0.592999
0.813683 0.362658 0.622372
0.321807 0.316240 0.532125
0.332786 0.316392 0.532250
0.369567 0.316784 0.532605
0.429257 0.317478 0.533211
0.489702 0.318496 0.533996
0.538061 0.319863 0.534929
0.616195 0.344589 0.559384
0.721677 0.378209 0.592469
0.814667 0.408398 0.621459
0.323998 0.408854 0.529980
0.336287 0.409029 0.530107
0.373760 0.409476 0.530445
0.431905 0.410262 0.530994
0.490597 0.411419 0.531700
0.539102 0.414145 0.533731
0.619085 0.439912 0.558666
0.724315 0.473499 0.590959
0.816971 0.503560 0.619217
0.329268 0.497858 0.525543
0.343203 0.497953 0.525644
0.380940 0.498192 0.525897
0.436737 0.498613 0.526313
0.492892 0.499237 0.526890
0.542649 0.503907 0.531468
0.624376 0.529112 0.556418
0.728900 0.561150 0.587858
0.820649 0.589483 0.615458
0.352978 0.568775 0.533930
0.367630 0.568584 0.533767
0.403774 0.567930 0.533189
0.454737 0.566844 0.531912
0.507815 0.568407 0.531835
0.557050 0.575353 0.536599
0.638601 0.600018 0.562523
0.742693 0.635540 0.596986
0.831884 0.663519 0.623768
0.407781 0.697660 0.568841
0.422127 0.697126 0.568389
0.455295 0.695624 0.567133
0.500479 0.692670 0.564712
0.544491 0.688820 0.561153
0.585362 0.701547 0.558135
0.673456 0.728967 0.573756
0.782381 0.757104 0.597769
0.859718 0.777297 0.635018
0.461505 0.806568 0.595631
0.474805 0.805877 0.595126
0.504433 0.804106 0.593848
0.544889 0.800988 0.591638
0.580811 0.798807 0.585112
0.615677 0.812453 0.577766
0.698125 0.834529 0.586823
0.797720 0.859562 0.597071
0.891745 0.881541 0.607524
0.511729 0.896681 0.613339
0.523367 0.895953 0.612871
0.549347 0.894144 0.611720
0.584832 0.891157 0.609862
0.601726 0.897359 0.587531
0.645388 0.908012 0.591012
0.726881 0.927042 0.596826
0.816130 0.946938 0.603077
0.899104 0.964784 0.609091
0.387910 0.289340 0.661236
0.402834 0.289378 0.661391
0.439247 0.289475 0.661780
0.490637 0.289639 0.662415
0.542240 0.289866 0.663263
0.585648 0.290158 0.664313
0.644521 0.290537 0.665673
0.735054 0.310352 0.686921
0.823695 0.337099 0.715162
0.389031 0.289073 0.660349
0.403975 0.289112 0.660505
0.440227 0.289210 0.660893
0.491272 0.289373 0.661528
0.542522 0.289601 0.662376
0.585748 0.289893 0.663427
0.644766 0.290272 0.664791
0.735574 0.313974 0.686506
0.824041 0.348421 0.714708
0.391202 0.345803 0.658854
0.406166 0.345968 0.659009
0.441981 0.346387 0.659392
0.492165 0.347122 0.660019
0.542543 0.348206 0.660852
0.585342 0.349664 0.661882
0.644788 0.351535 0.663195
0.736651 0.374672 0.685732
0.824996 0.403381 0.713485
0.395472 0.436533 0.655774
0.410396 0.436719 0.655902
0.445408 0.437188 0.656214
0.494196 0.438016 0.656726
0.543153 0.439248 0.657437
0.585289 0.440919 0.658363
0.645553 0.443059 0.659533
0.739242 0.468428 0.683601
0.827277 0.497242 0.710661
0.403000 0.530434 0.649862
0.417684 0.530532 0.649953
0.451316 0.530782 0.650179
0.498055 0.531225 0.650575
0.544906 0.531892 0.651172
0.586063 0.532806 0.652003
0.647494 0.533971 0.653034
0.743767 0.561036 0.679594
0.830939 0.588072 0.706051
0.413584 0.590490 0.640962
0.427655 0.590553 0.641032
0.459275 0.590712 0.641214
0.503249 0.590999 0.641550
0.547302 0.591439 0.642094
0.587181 0.592049 0.642882
0.651040 0.593723 0.644726
0.749551 0.623459 0.674291
0.835227 0.649493 0.700302
0.446365 0.699246 0.649922
0.459127 0.699057 0.649731
0.487601 0.698547 0.649229
0.526794 0.697552 0.648289
0.566250 0.697033 0.647363
0.604520 0.698165 0.647363
0.674541 0.706002 0.651798
0.767408 0.731428 0.677659
0.851355 0.761469 0.709112
0.496825 0.808945 0.674652
0.508066 0.808517 0.674305
0.533245 0.807429 0.673436
0.567657 0.805572 0.671988
0.601937 0.803099 0.670130
0.635244 0.800744 0.667978
0.703678 0.815349 0.666715
0.800062 0.844903 0.685497
0.888905 0.868947 0.705478
0.543035 0.899379 0.691888
0.552886 0.898872 0.691524
0.574852 0.897629 0.690646
0.604831 0.895635 0.689277
0.635742 0.893107 0.687615
0.670370 0.889306 0.685099
0.731858 0.909741 0.677686
0.820127 0.935406 0.690524
0.903656 0.958507 0.702444
0.475247 0.330332 0.798341
0.488325 0.330358 0.798448
0.517605 0.330421 0.798706
0.558303 0.330525 0.799112
0.599124 0.330666 0.799639
0.637328 0.330847 0.800293
0.701351 0.331084 0.801153
0.768691 0.331365 0.802153
0.836502 0.340963 0.812593
0.476350 0.330166 0.797787
0.489338 0.330192 0.797895
0.518423 0.330255 0.798152
0.558846 0.330359 0.798558
0.599407 0.330500 0.799085
0.637487 0.330682 0.799742
0.701665 0.330919 0.800604
0.768889 0.331201 0.801607
0.836864 0.341072 0.812322
0.478661 0.375511 0.796876
0.491432 0.375674 0.796970
0.520062 0.376085 0.797196
0.559831 0.376809 0.797558
0.599791 0.377880 0.798044
0.637598 0.379329 0.798662
0.702248 0.381181 0.799453
0.769264 0.383441 0.800376
0.837806 0.396344 0.811644
0.483071 0.464409 0.794787
0.495459 0.464590 0.794852
0.523320 0.465049 0.795009
0.561964 0.465864 0.795277
0.600923 0.467084 0.795668
0.638272 0.468748 0.796194
0.703795 0.470875 0.796827
0.770455 0.473489 0.797586
0.840042 0.488048 0.809817
0.490328 0.566175 0.790543
0.502178 0.566264 0.790576
0.528887 0.566493 0.790662
0.565859 0.566902 0.790834
0.603385 0.567523 0.791129
0.640012 0.568377 0.791566
0.706772 0.569457 0.792048
0.772770 0.570796 0.792697
0.843698 0.585711 0.806661
0.499804 0.630134 0.784360
0.510979 0.630185 0.784382
0.536093 0.630316 0.784447
0.570790 0.630557 0.784600
0.606461 0.630931 0.784888
0.643767 0.631451 0.785323
0.710289 0.632106 0.785812
0.775225 0.632929 0.786481
0.847882 0.649834 0.803029
0.511419 0.721761 0.775825
0.521738 0.721825 0.775848
0.544876 0.721991 0.775919
0.576804 0.722293 0.776083
0.610413 0.722759 0.776385
0.649605 0.723402 0.776825
0.714869 0.724220 0.777337
0.778436 0.725248 0.778040
0.853401 0.745817 0.798007
0.536587 0.814030 0.779097
0.545785 0.813958 0.779015
0.566346 0.813785 0.778823
0.594638 0.813513 0.778544
0.625444 0.813165 0.778212
0.666386 0.813137 0.777836
0.730352 0.814511 0.777982
0.794438 0.818090 0.780259
0.864116 0.834612 0.796819
0.578350 0.904819 0.799095
0.586303 0.904599 0.798905
0.604044 0.904070 0.798458
0.628527 0.903250 0.797787
0.656608 0.902131 0.796902
0.698441 0.899832 0.794938
0.758195 0.899285 0.792538
0.820191 0.908369 0.793348
0.892468 0.929071 0.809075
0.554624 0.362828 0.906964
0.564425 0.362844 0.907028
0.586381 0.362884 0.907182
0.616670 0.362951 0.907432
0.649069 0.363046 0.907776
0.689052 0.363174 0.908229
0.753231 0.363336 0.908806
0.815673 0.363530 0.909476
0.869953 0.363760 0.910250
0.555453 0.362707 0.906559
0.565188 0.362723 0.906623
0.586993 0.362762 0.906776
0.617075 0.362829 0.907026
0.649336 0.362925 0.907370
0.689479 0.363052 0.907824
0.753554 0.363215 0.908401
0.815884 0.363409 0.909071
0.870073 0.363639 0.909846
0.557386 0.391036 0.905700
0.566961 0.391237 0.905757
0.588403 0.391744 0.905896
0.617985 0.392631 0.906125
0.649926 0.393931 0.906446
0.690510 0.395658 0.906870
0.754377 0.397811 0.907391
0.816484 0.400382 0.907999
0.870507 0.403368 0.908710
0.560978 0.478860 0.903936
0.570283 0.479043 0.903970
0.591115 0.479509 0.904057
0.619869 0.480339 0.904213
0.651306 0.481588 0.904454
0.692731 0.483293 0.904771
0.756284 0.485482 0.905130
0.818039 0.488188 0.905577
0.871800 0.491435 0.906141
0.567090 0.590381 0.900262
0.575994 0.590472 0.900272
0.595917 0.590704 0.900307
0.623448 0.591124 0.900397
0.654147 0.591759 0.900570
0.696778 0.592625 0.900803
0.759720 0.593730 0.901071
0.820767 0.595100 0.901466
0.873951 0.596749 0.902018
0.574660 0.659103 0.895529
0.583009 0.659151 0.895539
0.601690 0.659276 0.895575
0.627575 0.659505 0.895668
0.657308 0.659855 0.895842
0.701521 0.660331 0.896068
0.763507 0.660941 0.896339
0.823512 0.661709 0.896744
0.875906 0.662647 0.897312
0.583808 0.750066 0.889296
0.591489 0.750127 0.889309
0.608671 0.750285 0.889350
0.632733 0.750570 0.889450
0.661305 0.751005 0.889631
0.707603 0.751597 0.889853
0.768355 0.752360 0.890141
0.827013 0.753320 0.890566
0.878440 0.754491 0.891157
0.593690 0.834305 0.881925
0.600610 0.834347 0.881943
0.616097 0.834456 0.881998
0.638387 0.834654 0.882116
0.665573 0.834956 0.882318
0.714501 0.835363 0.882557
0.773717 0.835893 0.882887
0.830693 0.836563 0.883361
0.880991 0.837382 0.883999
0.611998 0.908701 0.882699
0.618048 0.908687 0.882676
0.631671 0.908661 0.882631
0.652188 0.908627 0.882574
0.677495 0.908586 0.882512
0.729021 0.908353 0.882097
0.786275 0.908908 0.882030
0.841828 0.910339 0.882752
0.892122 0.912418 0.884371
0.623641 0.390346 0.998835
0.630493 0.390347 0.998840
0.645827 0.390347 0.998849
0.667914 0.390348 0.998858
0.694860 0.390347 0.998865
0.743597 0.390344 0.998863
0.802433 0.390335 0.998835
0.859020 0.390322 0.998784
0.908949 0.390307 0.998719
0.624306 0.390346 0.998836
0.631110 0.390347 0.998840
0.646341 0.390347 0.998849
0.668329 0.390348 0.998858
0.695188 0.390347 0.998865
0.744103 0.390344 0.998862
0.802839 0.390335 0.998835
0.859318 0.390322 0.998784
0.909179 0.390307 0.998718
0.625977 0.390346 0.998837
0.632663 0.390347 0.998841
0.647637 0.390347 0.998850
0.669381 0.390348 0.998859
0.696017 0.390347 0.998865
0.745385 0.390344 0.998862
0.803872 0.390335 0.998834
0.860104 0.396577 0.998758
0.909847 0.403934 0.998640
0.629124 0.484568 0.998657
0.635620 0.484735 0.998644
0.650188 0.485163 0.998614
0.671582 0.485929 0.998564
0.697899 0.487086 0.998495
0.748214 0.488669 0.998350
0.806421 0.490725 0.998150
0.862301 0.493295 0.997923
0.911838 0.496417 0.997704
0.634674 0.607835 0.997337
0.640882 0.607924 0.997312
0.654847 0.608153 0.997256
0.675729 0.608562 0.997170
0.701505 0.609180 0.997062
0.753115 0.610008 0.996849
0.810695 0.611077 0.996608
0.865848 0.612402 0.996372
0.914950 0.613991 0.996156
0.641167 0.683759 0.996311
0.646989 0.683799 0.996287
0.660176 0.683900 0.996234
0.680409 0.684084 0.996151
0.705914 0.684364 0.996046
0.758725 0.684733 0.995832
0.815388 0.685217 0.995603
0.869517 0.685828 0.995384
0.918045 0.686575 0.995188
0.648968 0.774670 0.995084
0.654358 0.774722 0.995063
0.666760 0.774854 0.995014
0.686196 0.775091 0.994938
0.713965 0.775449 0.994830
0.765763 0.775929 0.994635
0.821243 0.776559 0.994429
0.874058 0.777353 0.994238
0.921897 0.778319 0.994067
0.657556 0.863478 0.993994
0.662478 0.863510 0.993978
0.674209 0.863591 0.993940
0.692691 0.863737 0.993879
0.723338 0.863956 0.993782
0.773866 0.864251 0.993628
0.827877 0.864640 0.993471
0.879096 0.865133 0.993330
0.926119 0.865736 0.993207
0.665251 0.932551 0.989076
0.669878 0.932589 0.989108
0.680949 0.932684 0.989191
0.698410 0.932855 0.989346
0.732711 0.933110 0.989562
0.781857 0.933459 0.989863
0.834291 0.933918 0.990287
0.883881 0.934498 0.990857
0.930254 0.935203 0.991581
