data/luts/JSZ-CEDAR G.cube
# Baked from the Lightroom preset "JSZ-CEDAR G" by scripts/lightroom-preset-lut.lisp
# Colour only; not in this LUT (add the node instead):
#   Clarity +20
#   Sharpening 60, radius 1.4
#   White balance 4600 K, tint -3, taken relative to 5500 K daylight
TITLE "JSZ-CEDAR G"
LUT_3D_SIZE 33
DOMAIN_MIN 0.0 0.0 0.0
DOMAIN_MAX 1.0 1.0 1.0
0.135672 0.128187 0.122464
0.144998 0.131090 0.125425
0.154528 0.134066 0.128463
0.164503 0.137217 0.131685
0.174338 0.140370 0.134916
0.184494 0.143668 0.138301
0.195328 0.147223 0.141955
0.207085 0.151110 0.145955
0.219900 0.155372 0.150347
0.233807 0.160023 0.155142
0.251176 0.165781 0.161076
0.275471 0.173700 0.169225
0.303886 0.182931 0.178726
0.334077 0.192763 0.188854
0.364101 0.202607 0.199005
0.393067 0.212190 0.208899
0.420709 0.221431 0.218452
0.446544 0.230182 0.227512
0.470263 0.238349 0.235979
0.491695 0.245878 0.243800
0.510947 0.252803 0.251005
0.529018 0.259425 0.257845
0.546398 0.265850 0.264455
0.562984 0.272019 0.270806
0.581493 0.278762 0.277744
0.610330 0.288632 0.287884
0.638963 0.298431 0.297947
0.667188 0.308097 0.307872
0.694821 0.317576 0.317602
0.721693 0.326814 0.327076
0.747636 0.335754 0.336227
0.772449 0.344340 0.344999
0.795901 0.352504 0.353327
0.139503 0.141374 0.126062
0.147755 0.143241 0.127639
0.157021 0.145915 0.130407
0.166727 0.149509 0.134464
0.176626 0.153150 0.138020
0.186775 0.156781 0.141500
0.197486 0.160420 0.145158
0.209038 0.164177 0.149005
0.221648 0.168242 0.153189
0.235390 0.172711 0.157812
0.252686 0.178308 0.163609
0.276873 0.186029 0.171608
0.305167 0.195042 0.180966
0.335239 0.204637 0.190963
0.365153 0.214223 0.200992
0.394025 0.223524 0.210772
0.421582 0.232452 0.220211
0.447339 0.240856 0.229154
0.470986 0.248638 0.237500
0.492350 0.255742 0.245194
0.511541 0.262200 0.252266
0.529560 0.268316 0.259013
0.546893 0.274252 0.265537
0.563438 0.279975 0.271806
0.581971 0.286326 0.278686
0.610770 0.295817 0.288750
0.639369 0.305267 0.298742
0.667563 0.314613 0.308599
0.695168 0.323796 0.318265
0.722020 0.332759 0.327671
0.747943 0.341447 0.336759
0.772738 0.349799 0.345472
0.796170 0.357746 0.353743
0.142174 0.152419 0.128756
0.150882 0.154993 0.130698
0.160169 0.157644 0.132689
0.170082 0.160423 0.135392
0.179487 0.163447 0.139485
0.188965 0.167146 0.144229
0.199350 0.171065 0.148332
0.210751 0.174791 0.151748
0.223225 0.178775 0.155495
0.236821 0.183070 0.159960
0.254073 0.188498 0.165632
0.278179 0.196025 0.173496
0.306370 0.204822 0.182728
0.336336 0.214186 0.192613
0.366150 0.223533 0.202544
0.394939 0.232594 0.212238
0.422422 0.241281 0.221600
0.448113 0.249447 0.230472
0.471703 0.256994 0.238754
0.493016 0.263869 0.246388
0.512165 0.270103 0.253406
0.530154 0.276001 0.260119
0.547456 0.281717 0.266634
0.563972 0.287229 0.272891
0.582550 0.293399 0.279777
0.611323 0.302695 0.289819
0.639898 0.311959 0.299788
0.668069 0.321128 0.309622
0.695656 0.330142 0.319262
0.722495 0.338946 0.328638
0.748406 0.347482 0.337697
0.773189 0.355691 0.346382
0.796609 0.363503 0.354627
0.144924 0.163138 0.131475
0.153609 0.165958 0.133371
0.162734 0.168811 0.135278
0.172703 0.171828 0.137277
0.183087 0.174722 0.139696
0.192465 0.177114 0.143845
0.202233 0.180309 0.148678
0.212730 0.184316 0.153998
0.224787 0.188602 0.158419
0.238295 0.192956 0.162385
0.255607 0.198495 0.167557
0.279681 0.206050 0.175155
0.307779 0.214792 0.184292
0.337637 0.224072 0.194091
0.367340 0.233312 0.203946
0.396036 0.242256 0.213577
0.423435 0.250819 0.222884
0.449051 0.258853 0.231707
0.472573 0.266265 0.239945
0.493828 0.273003 0.247540
0.512931 0.279103 0.254524
0.530889 0.284869 0.261207
0.548158 0.290440 0.267731
0.564642 0.295803 0.274013
0.583293 0.301858 0.280946
0.612036 0.311011 0.290993
0.640583 0.320135 0.300963
0.668729 0.329168 0.310794
0.696298 0.338049 0.320420
0.723123 0.346723 0.329779
0.749021 0.355134 0.338820
0.773790 0.363222 0.347486
0.797196 0.370918 0.355711
0.148241 0.174554 0.134577
0.156660 0.177346 0.136241
0.165223 0.180088 0.137865
0.174598 0.182996 0.139573
0.184885 0.186088 0.141371
0.196268 0.189324 0.143399
0.205785 0.191016 0.147724
0.215934 0.193681 0.152693
0.227305 0.197626 0.158435
0.239990 0.202777 0.164980
0.257249 0.208593 0.170523
0.281322 0.216291 0.177723
0.309386 0.225198 0.186238
0.339182 0.234617 0.195418
0.368758 0.243833 0.205209
0.397347 0.252737 0.214789
0.424647 0.261245 0.224053
0.450173 0.269215 0.232840
0.473616 0.276556 0.241048
0.494801 0.283218 0.248617
0.513849 0.289240 0.255582
0.531773 0.294931 0.262252
0.549011 0.300426 0.268763
0.565461 0.305694 0.275082
0.584213 0.311686 0.282119
0.612923 0.320738 0.292206
0.641437 0.329761 0.302207
0.669556 0.338694 0.312057
0.697107 0.347475 0.321687
0.723916 0.356050 0.331047
0.749797 0.364364 0.340084
0.774550 0.372357 0.348744
0.797940 0.379960 0.356962
0.152467 0.187329 0.138279
0.160473 0.189894 0.139624
0.168176 0.192289 0.140871
0.176743 0.194882 0.142209
0.186272 0.197685 0.143643
0.197008 0.200748 0.145194
0.209300 0.204140 0.146895
0.219499 0.205440 0.151228
0.230549 0.208016 0.156725
0.242973 0.212081 0.163075
0.259581 0.218572 0.171734
0.283213 0.227214 0.180921
0.311174 0.236212 0.189333
0.340836 0.245682 0.198366
0.370329 0.255071 0.207421
0.398861 0.264155 0.216230
0.426079 0.272745 0.225100
0.451499 0.280695 0.233860
0.474847 0.288006 0.242047
0.495949 0.294630 0.249601
0.514932 0.300612 0.256558
0.532818 0.306265 0.263229
0.550020 0.311719 0.269741
0.566436 0.316942 0.276060
0.585328 0.322929 0.283194
0.613996 0.331904 0.293375
0.642472 0.340852 0.303448
0.670565 0.349706 0.313345
0.698095 0.358409 0.323008
0.724883 0.366907 0.332391
0.750745 0.375145 0.341445
0.775478 0.383062 0.350115
0.798849 0.390589 0.358338
0.157826 0.201829 0.142692
0.165255 0.204018 0.143690
0.171986 0.205956 0.144567
0.179683 0.208126 0.145543
0.188364 0.210518 0.146608
0.198190 0.213159 0.147773
0.209431 0.216094 0.149056
0.222379 0.219372 0.150472
0.234200 0.221130 0.154772
0.246340 0.223777 0.160919
0.262965 0.229024 0.169536
0.285930 0.237968 0.181657
0.313269 0.248231 0.192819
0.342769 0.257797 0.201744
0.372086 0.267231 0.210700
0.400471 0.276335 0.219427
0.427589 0.285031 0.227804
0.452961 0.293184 0.235669
0.476278 0.300710 0.242921
0.497283 0.307328 0.250453
0.516192 0.313295 0.257414
0.534033 0.318935 0.264099
0.551194 0.324371 0.270625
0.567571 0.329572 0.276958
0.586643 0.335602 0.284170
0.615273 0.344552 0.294377
0.643712 0.353440 0.304557
0.671775 0.362225 0.314556
0.699277 0.370861 0.324298
0.726039 0.379292 0.333740
0.751876 0.387463 0.342839
0.776585 0.395314 0.351543
0.799930 0.402774 0.359791
0.163911 0.217899 0.147579
0.170590 0.219715 0.148290
0.176512 0.221299 0.148906
0.183477 0.223133 0.149613
0.191456 0.225196 0.150403
0.200552 0.227500 0.151276
0.210967 0.230076 0.152243
0.222933 0.232958 0.153314
0.236659 0.236169 0.154492
0.250119 0.238410 0.158467
0.266794 0.241982 0.167066
0.289630 0.249357 0.179081
0.316245 0.259911 0.193270
0.345002 0.270990 0.205530
0.374116 0.280514 0.214373
0.402329 0.289674 0.223008
0.429287 0.298396 0.231303
0.454511 0.306556 0.239096
0.477696 0.314076 0.246282
0.498669 0.320912 0.252802
0.517580 0.327121 0.258699
0.535423 0.332912 0.264781
0.552536 0.338347 0.271338
0.568869 0.343542 0.277702
0.588158 0.349646 0.285021
0.616753 0.358597 0.295242
0.645169 0.367476 0.305421
0.673203 0.376224 0.315495
0.700669 0.384799 0.325392
0.727398 0.393186 0.334967
0.753205 0.401335 0.344171
0.777887 0.409185 0.352963
0.801207 0.416667 0.361287
0.170957 0.237044 0.153370
0.176698 0.238502 0.153844
0.181941 0.239821 0.154270
0.188275 0.241396 0.154776
0.195653 0.243208 0.155353
0.204130 0.245258 0.156000
0.213858 0.247567 0.156720
0.225015 0.250158 0.157520
0.237759 0.253048 0.158400
0.252263 0.256250 0.159361
0.271391 0.259635 0.163919
0.294069 0.264798 0.175802
0.320444 0.273601 0.189820
0.348477 0.284778 0.204842
0.376557 0.296589 0.218915
0.404574 0.305949 0.227460
0.431348 0.314838 0.235679
0.456406 0.323146 0.243410
0.479444 0.330803 0.250547
0.500289 0.337773 0.257031
0.519106 0.344122 0.262906
0.536938 0.350183 0.268489
0.554101 0.356060 0.273877
0.570494 0.361724 0.279037
0.590068 0.368169 0.286385
0.618651 0.377364 0.296669
0.647058 0.386492 0.306911
0.675084 0.395497 0.317046
0.702544 0.404327 0.327020
0.729257 0.412933 0.336780
0.755042 0.421275 0.346235
0.779705 0.429322 0.355228
0.803009 0.437001 0.363715
0.179934 0.265187 0.161881
0.184822 0.266343 0.162165
0.189463 0.267434 0.162433
0.195208 0.268777 0.162760
0.202006 0.270354 0.163142
0.209880 0.272161 0.163576
0.218936 0.274211 0.164063
0.229304 0.276521 0.164605
0.241100 0.279099 0.165202
0.254555 0.281977 0.165858
0.274352 0.286027 0.166758
0.300117 0.290686 0.170504
0.326136 0.296302 0.184305
0.353793 0.305086 0.199099
0.381379 0.315562 0.213922
0.408268 0.326837 0.228402
0.434068 0.338197 0.242007
0.458923 0.346699 0.249639
0.481780 0.354512 0.256692
0.502470 0.361612 0.263106
0.521174 0.368079 0.268929
0.538937 0.374256 0.274477
0.556044 0.380239 0.279827
0.572393 0.386000 0.284944
0.592378 0.392919 0.291164
0.621050 0.402561 0.300007
0.649515 0.412042 0.309290
0.677527 0.421186 0.319469
0.704972 0.430141 0.329481
0.731673 0.438860 0.339274
0.757442 0.447292 0.348793
0.782077 0.455382 0.357985
0.805344 0.463076 0.366724
0.190061 0.298844 0.172112
0.194298 0.299783 0.172274
0.198453 0.300701 0.172432
0.203712 0.301860 0.172631
0.210032 0.303246 0.172868
0.217416 0.304853 0.173141
0.225937 0.306689 0.173449
0.235688 0.308765 0.173794
0.246752 0.311085 0.174173
0.259495 0.313708 0.174594
0.278378 0.317434 0.175168
0.303449 0.322181 0.175868
0.332774 0.327427 0.177468
0.359988 0.332713 0.192042
0.387164 0.340592 0.206654
0.413713 0.349896 0.220957
0.439171 0.359850 0.234677
0.463064 0.369870 0.247544
0.485078 0.379559 0.259379
0.505040 0.388660 0.270080
0.523606 0.395284 0.275948
0.541306 0.401546 0.281414
0.558357 0.407593 0.286684
0.574656 0.413403 0.291727
0.594998 0.420510 0.297984
0.623639 0.430244 0.306723
0.652112 0.439898 0.315391
0.680212 0.449418 0.323926
0.707753 0.458754 0.332272
0.734458 0.467594 0.341746
0.760206 0.476061 0.351308
0.784818 0.484168 0.360532
0.808056 0.491850 0.369353
0.200569 0.334300 0.182935
0.204314 0.335087 0.183022
0.208086 0.335878 0.183110
0.212959 0.336899 0.183223
0.218901 0.338138 0.183360
0.225906 0.339592 0.183520
0.234024 0.341263 0.183702
0.243321 0.343157 0.183906
0.253854 0.345278 0.184131
0.266214 0.347724 0.184382
0.284563 0.351216 0.184716
0.308377 0.355591 0.185107
0.336103 0.360514 0.185517
0.366193 0.365690 0.185917
0.393324 0.370511 0.198895
0.419505 0.377335 0.213035
0.444633 0.385353 0.226604
0.468231 0.393847 0.239335
0.489992 0.402318 0.251045
0.509750 0.410440 0.261626
0.527709 0.418122 0.271195
0.544877 0.425686 0.280301
0.561434 0.433155 0.289043
0.577279 0.440449 0.297369
0.597864 0.448379 0.305016
0.626466 0.458203 0.313633
0.654900 0.467918 0.322183
0.682963 0.477472 0.330603
0.710467 0.486818 0.338838
0.737232 0.495910 0.346834
0.763070 0.504698 0.354538
0.787745 0.513046 0.362358
0.810948 0.520695 0.371247
0.210886 0.368866 0.193502
0.214256 0.369545 0.193544
0.217727 0.370243 0.193587
0.222288 0.371159 0.193643
0.227928 0.372288 0.193713
0.234637 0.373625 0.193796
0.242448 0.375170 0.193889
0.251407 0.376928 0.193994
0.261553 0.378898 0.194109
0.273800 0.381235 0.194237
0.291883 0.384568 0.194395
0.314865 0.388674 0.194566
0.341283 0.393258 0.194732
0.369668 0.398049 0.194880
0.398696 0.402830 0.195006
0.425348 0.407294 0.205254
0.450134 0.413132 0.218678
0.473438 0.419896 0.231262
0.494948 0.426985 0.242832
0.514489 0.433994 0.253295
0.532290 0.440775 0.262781
0.549352 0.447568 0.271835
0.565811 0.454353 0.280531
0.581563 0.461039 0.288816
0.602211 0.469927 0.299691
0.630063 0.482136 0.314358
0.657799 0.494558 0.328768
0.685816 0.504173 0.337072
0.713276 0.513554 0.345195
0.739997 0.522657 0.353083
0.765792 0.531436 0.360683
0.790453 0.539838 0.367936
0.813739 0.547796 0.374775
0.220866 0.401810 0.203569
0.223944 0.402409 0.203581
0.227173 0.403037 0.203595
0.231480 0.403872 0.203613
0.236871 0.404915 0.203636
0.243338 0.406161 0.203662
0.250903 0.407609 0.203692
0.259598 0.409260 0.203725
0.269445 0.411114 0.203759
0.281798 0.413397 0.203792
0.299776 0.416619 0.203816
0.322180 0.420527 0.203824
0.347640 0.424854 0.203811
0.374750 0.429350 0.203776
0.402337 0.433824 0.203716
0.430042 0.438226 0.203631
0.455643 0.442311 0.211036
0.478646 0.447226 0.223471
0.499886 0.452832 0.234905
0.519195 0.458645 0.245253
0.536830 0.464452 0.254661
0.553780 0.470404 0.263666
0.570132 0.476444 0.272318
0.585785 0.482468 0.280565
0.606881 0.490784 0.291691
0.634643 0.502076 0.306317
0.662278 0.513735 0.320797
0.689584 0.525595 0.335026
0.716377 0.537506 0.348907
0.742807 0.547722 0.359033
0.768550 0.556509 0.366530
0.793158 0.564898 0.373683
0.816381 0.572825 0.380434
0.230362 0.432399 0.212894
0.233209 0.432937 0.212888
0.236241 0.433510 0.212881
0.240338 0.434282 0.212872
0.245520 0.435255 0.212860
0.251784 0.436427 0.212846
0.259145 0.437796 0.212828
0.267624 0.439361 0.212807
0.277232 0.441121 0.212780
0.289889 0.443394 0.212736
0.307859 0.446537 0.212654
0.329851 0.450291 0.212533
0.354587 0.454411 0.212373
0.380722 0.458667 0.212181
0.407212 0.462892 0.211965
0.433742 0.467045 0.211729
0.459757 0.471052 0.211481
0.483769 0.474742 0.216180
0.504721 0.478840 0.227484
0.523783 0.483431 0.237721
0.541245 0.488236 0.247056
0.558075 0.493318 0.256017
0.574314 0.498584 0.264628
0.589862 0.503920 0.272838
0.611453 0.511615 0.284247
0.639119 0.521958 0.298837
0.666659 0.532775 0.313282
0.693872 0.543885 0.327477
0.720573 0.555126 0.341326
0.746582 0.566353 0.354738
0.771709 0.577423 0.367623
0.795814 0.587786 0.379027
0.818948 0.595695 0.385710
0.239264 0.460092 0.221303
0.241929 0.460584 0.221284
0.244800 0.461112 0.221263
0.248720 0.461833 0.221234
0.253725 0.462750 0.221198
0.259816 0.463861 0.221152
0.267005 0.465164 0.221097
0.275304 0.466659 0.221032
0.284727 0.468342 0.220955
0.297874 0.470642 0.220836
0.315910 0.473725 0.220655
0.337609 0.477352 0.220418
0.361772 0.481303 0.220136
0.387114 0.485360 0.219821
0.412724 0.489381 0.219486
0.438316 0.493330 0.219136
0.463344 0.497133 0.218780
0.487318 0.500732 0.218430
0.509385 0.504029 0.220745
0.528186 0.507433 0.230872
0.545471 0.511257 0.240139
0.562173 0.515481 0.249057
0.578293 0.519983 0.257628
0.593729 0.524639 0.265803
0.615864 0.531697 0.277527
0.643429 0.541105 0.292084
0.670868 0.551090 0.306495
0.697983 0.561459 0.320656
0.724587 0.572038 0.334474
0.750500 0.582671 0.347856
0.775518 0.593211 0.360726
0.799425 0.603512 0.372991
0.821978 0.613417 0.384531
0.247545 0.484642 0.228702
0.250064 0.485097 0.228672
0.252805 0.485590 0.228639
0.256579 0.486268 0.228593
0.261435 0.487138 0.228534
0.267380 0.488197 0.228461
0.274423 0.489446 0.228373
0.282572 0.490880 0.228270
0.292001 0.492526 0.228148
0.305669 0.494864 0.227960
0.323798 0.497902 0.227696
0.345266 0.501427 0.227369
0.368944 0.505235 0.226992
0.393613 0.509126 0.226584
0.418492 0.512978 0.226158
0.443305 0.516756 0.225721
0.467517 0.520389 0.225283
0.490667 0.523822 0.224856
0.512394 0.527015 0.224450
0.532363 0.529937 0.224806
0.549469 0.532844 0.234007
0.566039 0.536259 0.242882
0.582033 0.540039 0.251414
0.597352 0.544050 0.259551
0.620082 0.550488 0.271619
0.647542 0.559014 0.286144
0.674877 0.568212 0.300521
0.701887 0.577878 0.314648
0.728390 0.587829 0.328431
0.754192 0.597900 0.341791
0.779092 0.607937 0.354648
0.802880 0.617785 0.366900
0.825313 0.627283 0.378425
0.255362 0.506610 0.235243
0.257763 0.507035 0.235205
0.260395 0.507500 0.235163
0.264045 0.508144 0.235104
0.268771 0.508976 0.235029
0.274586 0.509994 0.234935
0.281499 0.511198 0.234822
0.289512 0.512584 0.234690
0.299183 0.514241 0.234528
0.313339 0.516621 0.234279
0.331563 0.519628 0.233948
0.352829 0.523071 0.233549
0.376068 0.526761 0.233099
0.400134 0.530512 0.232620
0.424377 0.534227 0.232126
0.448511 0.537866 0.231623
0.472014 0.541360 0.231123
0.494450 0.544659 0.230640
0.515480 0.547724 0.230182
0.534921 0.550542 0.229757
0.553179 0.553178 0.229356
0.569741 0.555863 0.237332
0.585606 0.558975 0.245816
0.600804 0.562389 0.253909
0.624184 0.568234 0.266348
0.651535 0.575940 0.280833
0.678762 0.584407 0.295169
0.705666 0.593421 0.309253
0.732057 0.602789 0.322999
0.757738 0.612340 0.336335
0.782517 0.621911 0.349167
0.806185 0.631340 0.361392
0.828497 0.640462 0.372889
0.263058 0.527502 0.241398
0.265362 0.527904 0.241354
0.267901 0.528346 0.241305
0.271443 0.528962 0.241236
0.276053 0.529760 0.241147
0.281750 0.530743 0.241036
0.288541 0.531908 0.240903
0.296425 0.533253 0.240747
0.306576 0.534964 0.240542
0.321169 0.537381 0.240238
0.339465 0.540360 0.239848
0.360524 0.543728 0.239387
0.383333 0.547310 0.238876
0.406822 0.550936 0.238340
0.430477 0.554528 0.237789
0.453978 0.558042 0.237232
0.476824 0.561414 0.236683
0.498602 0.564593 0.236154
0.518991 0.567545 0.235655
0.537841 0.570260 0.235192
0.555624 0.572810 0.234753
0.573112 0.575304 0.234319
0.589172 0.577802 0.240453
0.604242 0.580631 0.248499
0.628325 0.585855 0.261338
0.655562 0.592752 0.275783
0.682674 0.600498 0.290074
0.709461 0.608866 0.304117
0.735724 0.617658 0.317835
0.761277 0.626693 0.331142
0.785930 0.635800 0.343944
0.809471 0.644813 0.356138
0.831655 0.653561 0.367601
0.270640 0.547336 0.247178
0.272861 0.547718 0.247129
0.275322 0.548141 0.247074
0.278768 0.548732 0.246997
0.283274 0.549501 0.246896
0.288860 0.550451 0.246771
0.295536 0.551581 0.246620
0.303311 0.552889 0.246444
0.314173 0.554693 0.246192
0.329142 0.557139 0.245837
0.347477 0.560088 0.245393
0.368319 0.563383 0.244880
0.390693 0.566861 0.244318
0.413627 0.570367 0.243734
0.436727 0.573845 0.243136
0.459628 0.577243 0.242535
0.481855 0.580500 0.241944
0.503017 0.583568 0.241377
0.522808 0.586414 0.240844
0.541111 0.589033 0.240349
0.558474 0.591504 0.239878
0.575557 0.593923 0.239412
0.592227 0.596272 0.238955
0.607655 0.598587 0.243354
0.632493 0.603165 0.256626
0.659608 0.609272 0.271030
0.686596 0.616310 0.285280
0.713247 0.624046 0.299293
0.739374 0.632271 0.312981
0.764793 0.640796 0.326256
0.789313 0.649444 0.339025
0.812721 0.658044 0.351185
0.834769 0.666420 0.362610
0.279160 0.570567 0.253924
0.281311 0.570939 0.253872
0.283704 0.571351 0.253813
0.287066 0.571931 0.253731
0.291476 0.572689 0.253623
0.296959 0.573628 0.253489
0.303523 0.574749 0.253327
0.311454 0.576093 0.253131
0.323006 0.578017 0.252836
0.338274 0.580518 0.252438
0.356593 0.583472 0.251953
0.377171 0.586740 0.251399
0.399068 0.590165 0.250802
0.421426 0.593614 0.250185
0.443945 0.597044 0.249557
0.466221 0.600400 0.248931
0.487805 0.603623 0.248321
0.508326 0.606668 0.247740
0.527496 0.609504 0.247197
0.545234 0.612130 0.246698
0.562167 0.614636 0.246223
0.578822 0.617097 0.245755
0.595062 0.619496 0.245301
0.610772 0.621823 0.244863
0.637457 0.625784 0.250361
0.664447 0.630991 0.264688
0.691300 0.637238 0.278867
0.717818 0.644279 0.292805
0.743815 0.651894 0.306412
0.769107 0.659885 0.319602
0.793502 0.668068 0.332282
0.816787 0.676265 0.344346
0.838710 0.684297 0.355671
0.290372 0.604367 0.263740
0.292458 0.604721 0.263681
0.294784 0.605116 0.263614
0.298062 0.605672 0.263520
0.302372 0.606400 0.263396
0.307741 0.607305 0.263242
0.314179 0.608386 0.263056
0.322591 0.609785 0.262811
0.334685 0.611764 0.262450
0.350129 0.614254 0.261984
0.368319 0.617145 0.261428
0.388520 0.620311 0.260803
0.409831 0.623606 0.260138
0.431525 0.626919 0.259456
0.453360 0.630215 0.258764
0.474909 0.633436 0.258078
0.495748 0.636526 0.257412
0.515531 0.639444 0.256780
0.533988 0.642161 0.256191
0.551083 0.644679 0.255648
0.567514 0.647098 0.255128
0.583659 0.649473 0.254621
0.599387 0.651790 0.254131
0.614590 0.654034 0.253664
0.642417 0.657898 0.252748
0.670536 0.661890 0.255616
0.697206 0.666800 0.269792
0.723545 0.672653 0.283719
0.749368 0.679210 0.297312
0.774490 0.686259 0.310484
0.798718 0.693602 0.323141
0.821837 0.701052 0.335178
0.843593 0.708422 0.346471
0.301721 0.637781 0.273315
0.303751 0.638120 0.273249
0.306018 0.638499 0.273176
0.309219 0.639033 0.273071
0.313436 0.639735 0.272934
0.318699 0.640608 0.272762
0.325090 0.641665 0.272553
0.334256 0.643160 0.272249
0.346789 0.645177 0.271827
0.362346 0.647649 0.271298
0.380372 0.650476 0.270680
0.400178 0.653542 0.269995
0.420914 0.656713 0.269273
0.441985 0.659899 0.268536
0.463171 0.663068 0.267791
0.484036 0.666162 0.267054
0.504179 0.669128 0.266343
0.523271 0.671928 0.265673
0.541063 0.674534 0.265056
0.557569 0.676956 0.264489
0.573535 0.679298 0.263947
0.589211 0.681596 0.263418
0.604474 0.683836 0.262908
0.620045 0.686113 0.262390
0.647416 0.689906 0.261429
0.675259 0.693723 0.260454
0.703213 0.697561 0.260758
0.729364 0.702168 0.274680
0.755003 0.707615 0.288262
0.779946 0.713674 0.301417
0.803997 0.720136 0.314054
0.826939 0.726801 0.326066
0.848519 0.733474 0.337327
0.313127 0.670489 0.282559
0.315106 0.670815 0.282488
0.317320 0.671180 0.282408
0.320451 0.671694 0.282295
0.324582 0.672372 0.282146
0.329744 0.673217 0.281959
0.336519 0.674317 0.281713
0.346342 0.675893 0.281351
0.359215 0.677934 0.280872
0.374819 0.680379 0.280288
0.392647 0.683139 0.279616
0.412033 0.686105 0.278881
0.432198 0.689157 0.278114
0.452676 0.692225 0.277337
0.473231 0.695278 0.276560
0.493430 0.698254 0.275799
0.512897 0.701106 0.275071
0.531327 0.703797 0.274386
0.548494 0.706302 0.273755
0.564467 0.708636 0.273174
0.580010 0.710905 0.272614
0.595261 0.713132 0.272068
0.610102 0.715301 0.271542
0.626373 0.717653 0.270964
0.653112 0.721351 0.269975
0.680278 0.725070 0.268973
0.707673 0.728787 0.267967
0.735099 0.732478 0.266965
0.760677 0.736763 0.279367
0.785430 0.741800 0.292508
0.809295 0.747350 0.305124
0.832053 0.753203 0.317111
0.853446 0.759156 0.328340
0.324510 0.702201 0.291393
0.326443 0.702515 0.291317
0.328608 0.702867 0.291232
0.331674 0.703363 0.291112
0.335724 0.704019 0.290952
0.340888 0.704851 0.290749
0.348398 0.706050 0.290450
0.358743 0.707685 0.290036
0.371857 0.709736 0.289510
0.387440 0.712148 0.288884
0.405021 0.714841 0.288178
0.423945 0.717710 0.287419
0.443522 0.720650 0.286636
0.463424 0.723612 0.285843
0.483360 0.726553 0.285052
0.502917 0.729419 0.284279
0.521742 0.732164 0.283540
0.539543 0.734751 0.282847
0.556124 0.737160 0.282207
0.571615 0.739413 0.281616
0.586771 0.741615 0.281042
0.601633 0.743774 0.280484
0.616090 0.745876 0.279946
0.633130 0.748313 0.279306
0.659308 0.751924 0.278294
0.685875 0.755554 0.277272
0.712637 0.759179 0.276247
0.739403 0.762776 0.275228
0.765977 0.766324 0.274221
0.790903 0.770274 0.283857
0.814574 0.774897 0.296452
0.837138 0.779925 0.308412
0.858339 0.785145 0.319609
0.335768 0.732628 0.299763
0.337658 0.732931 0.299684
0.339776 0.733271 0.299596
0.342778 0.733752 0.299472
0.346751 0.734388 0.299307
0.352435 0.735291 0.299071
0.360567 0.736571 0.298731
0.371298 0.738247 0.298281
0.384550 0.740297 0.297725
0.400041 0.742672 0.297076
0.417325 0.745296 0.296352
0.435761 0.748069 0.295582
0.454766 0.750902 0.294790
0.474107 0.753761 0.293988
0.493441 0.756597 0.293189
0.512378 0.759357 0.292411
0.530584 0.761998 0.291667
0.547786 0.764486 0.290971
0.563814 0.766804 0.290328
0.578872 0.768983 0.289729
0.593668 0.771121 0.289146
0.608172 0.773216 0.288578
0.622274 0.775255 0.288031
0.640152 0.777786 0.287328
0.665829 0.781316 0.286299
0.691862 0.784863 0.285262
0.718060 0.788403 0.284222
0.744239 0.791915 0.283190
0.770206 0.795375 0.282173
0.795759 0.798762 0.281179
0.819790 0.802382 0.288144
0.842152 0.806584 0.300074
0.863156 0.811072 0.311237
0.346756 0.761458 0.307643
0.348605 0.761752 0.307563
0.350678 0.762081 0.307474
0.353619 0.762548 0.307347
0.357931 0.763228 0.307161
0.364246 0.764218 0.306887
0.372851 0.765558 0.306513
0.383852 0.767257 0.306035
0.397159 0.769296 0.305457
0.412499 0.771626 0.304791
0.429436 0.774176 0.304057
0.447368 0.776853 0.303282
0.465823 0.779585 0.302488
0.484610 0.782344 0.301682
0.503355 0.785078 0.300882
0.521691 0.787736 0.300104
0.539301 0.790277 0.299362
0.555926 0.792671 0.298666
