data/luts/JSZ-CEDAR C.cube
# Baked from the Lightroom preset "JSZ-CEDAR C" by scripts/lightroom-preset-lut.lisp
# Colour only; not in this LUT (add the node instead):
#   Clarity +30
#   Vignette -12, midpoint 0, feather 74, roundness +14
#   Grain 8, size 33
TITLE "JSZ-CEDAR C"
LUT_3D_SIZE 9
DOMAIN_MIN 0.0 0.0 0.0
DOMAIN_MAX 1.0 1.0 1.0
0.148072 0.148072 0.148072
0.181127 0.156481 0.159587
0.231229 0.174644 0.182650
0.294094 0.187762 0.200798
0.399876 0.209273 0.225542
0.506168 0.231546 0.252618
0.600179 0.250466 0.279048
0.697394 0.268982 0.308673
0.802027 0.286039 0.346091
0.166078 0.193417 0.171888
0.187094 0.192924 0.166726
0.190312 0.174507 0.157782
0.274149 0.214527 0.202583
0.393348 0.245929 0.239873
0.501348 0.258907 0.260425
0.596838 0.272089 0.285016
0.695928 0.280819 0.310950
0.802259 0.286955 0.344504
0.203638 0.252729 0.220482
0.206696 0.252412 0.204722
0.240003 0.251619 0.206570
0.254442 0.231002 0.194598
0.354820 0.269491 0.230630
0.474225 0.309908 0.274521
0.580590 0.341773 0.315978
0.684510 0.356546 0.342947
0.790707 0.356183 0.363164
0.259250 0.370447 0.307682
0.260024 0.370066 0.293290
0.261599 0.369097 0.263384
0.325179 0.367361 0.265036
0.378457 0.347196 0.265760
0.418032 0.346318 0.264116
0.509996 0.384309 0.302057
0.620000 0.423384 0.344749
0.740074 0.458526 0.392685
0.320793 0.499732 0.403210
0.321496 0.499502 0.390873
0.323132 0.498917 0.362222
0.357569 0.497870 0.327201
0.452279 0.496287 0.332719
0.501899 0.469143 0.337684
0.537408 0.471796 0.343845
0.579188 0.475613 0.347597
0.660335 0.505234 0.377940
0.374931 0.612423 0.481395
0.375590 0.612255 0.470166
0.377608 0.611829 0.436923
0.394007 0.611067 0.381886
0.484560 0.609919 0.387146
0.567389 0.608341 0.391997
0.607253 0.572110 0.398093
0.647188 0.578633 0.408976
0.691241 0.584488 0.415132
0.432440 0.731476 0.560451
0.433316 0.731335 0.546182
0.435749 0.730977 0.507330
0.439853 0.730338 0.443203
0.519604 0.729376 0.444629
0.598038 0.728053 0.449128
0.674520 0.726336 0.453513
0.724195 0.693614 0.458634
0.760460 0.688481 0.474066
0.491942 0.852483 0.625786
0.492921 0.852373 0.610312
0.495322 0.852093 0.572681
0.499046 0.851594 0.514966
0.556925 0.850841 0.503285
0.629752 0.849805 0.507454
0.706237 0.848460 0.511856
0.787768 0.846781 0.516613
0.844743 0.819335 0.521472
0.548423 0.965680 0.675206
0.549327 0.965592 0.661116
0.551464 0.965368 0.627997
0.554680 0.964967 0.578403
0.595616 0.964364 0.558397
0.663244 0.963536 0.562278
0.738253 0.962463 0.566620
0.819544 0.961126 0.571386
0.901869 0.959508 0.576254
0.167452 0.156469 0.191865
0.199011 0.162772 0.201555
0.249528 0.178214 0.211813
0.307042 0.186993 0.218613
0.409336 0.207215 0.238256
0.513135 0.228951 0.263171
0.606088 0.247522 0.289031
0.704014 0.264660 0.321605
0.808411 0.281249 0.359732
0.165863 0.183862 0.182248
0.181536 0.181536 0.181536
0.222056 0.191268 0.195553
0.299076 0.216887 0.222604
0.404504 0.235853 0.245093
0.509416 0.253429 0.269519
0.603633 0.265343 0.293182
0.703590 0.270510 0.321546
0.808646 0.282160 0.358087
0.207760 0.247609 0.230804
0.208326 0.246573 0.214819
0.233247 0.243931 0.208935
0.246229 0.221065 0.196543
0.374497 0.276916 0.249494
0.491264 0.314998 0.292488
0.592386 0.336532 0.323271
0.691909 0.337852 0.339437
0.798035 0.350035 0.375029
0.258340 0.367809 0.300635
0.259206 0.367426 0.287368
0.266195 0.366449 0.270699
0.327295 0.364701 0.276587
0.373902 0.342430 0.273441
0.416198 0.342736 0.269490
0.520882 0.388311 0.314492
0.632373 0.425732 0.357244
0.757174 0.462177 0.412275
0.320310 0.498140 0.397881
0.320994 0.497909 0.385854
0.322654 0.497320 0.356922
0.362505 0.496267 0.326775
0.454370 0.494673 0.338983
0.500665 0.469023 0.351162
0.534314 0.468704 0.348965
0.575258 0.471485 0.350947
0.669738 0.509913 0.392002
0.374622 0.611263 0.476844
0.375274 0.611095 0.465751
0.377383 0.610668 0.431240
0.398801 0.609905 0.381646
0.487870 0.608754 0.386826
0.569490 0.607173 0.391607
0.607322 0.573546 0.412298
0.645303 0.577155 0.415609
0.688385 0.581763 0.419477
0.432268 0.730503 0.555308
0.433169 0.730362 0.540711
0.435616 0.730003 0.501734
0.440937 0.729363 0.439674
0.522664 0.728399 0.444372
0.600088 0.727074 0.448813
0.676209 0.725354 0.453179
0.723210 0.692104 0.469351
0.759224 0.687902 0.481683
0.491910 0.851722 0.620261
0.492886 0.851612 0.604861
0.495264 0.851332 0.567640
0.498934 0.850831 0.510796
0.559744 0.850076 0.503108
0.631811 0.849038 0.507233
0.707975 0.847690 0.511617
0.789232 0.846008 0.516359
0.843966 0.816820 0.522356
0.548438 0.965070 0.670198
0.549331 0.964982 0.656297
0.551438 0.964758 0.623669
0.554603 0.964357 0.574877
0.598159 0.963753 0.558272
0.665290 0.962924 0.562124
0.739989 0.961850 0.566450
0.821034 0.960512 0.571203
0.903065 0.958892 0.576054
0.199042 0.166102 0.251184
0.223171 0.169826 0.258222
0.268835 0.175477 0.270579
0.331624 0.184489 0.261481
0.432590 0.201569 0.273259
0.532524 0.220553 0.297452
0.624464 0.236697 0.325936
0.721333 0.252951 0.358551
0.823814 0.269789 0.394249
0.186823 0.183912 0.236524
0.209231 0.188475 0.244390
0.256979 0.196760 0.260485
0.333628 0.210680 0.263227
0.430791 0.222898 0.276099
0.531200 0.235195 0.299111
0.624512 0.240463 0.324795
0.721707 0.253864 0.356780
0.824115 0.270623 0.392656
0.194352 0.233176 0.231687
0.202670 0.230040 0.227589
0.225816 0.225816 0.225816
0.307243 0.249562 0.252889
0.419790 0.280376 0.285325
0.520517 0.297719 0.311536
0.613612 0.310996 0.339782
0.712050 0.323136 0.371707
0.815861 0.334430 0.406407
0.273266 0.359770 0.342211
0.284139 0.360176 0.342929
0.292150 0.359621 0.322792
0.333661 0.357525 0.298400
0.360520 0.325767 0.276186
0.447297 0.358938 0.306455
0.558556 0.400079 0.353681
0.679618 0.438376 0.409021
0.795254 0.445547 0.438876
0.341839 0.494042 0.440144
0.343307 0.493807 0.430235
0.347157 0.493209 0.402882
0.367094 0.492138 0.354833
0.457572 0.490519 0.365125
0.496906 0.465088 0.366596
0.524905 0.458937 0.358759
0.579250 0.470745 0.373250
0.700400 0.523774 0.433248
0.381068 0.608301 0.482944
0.383333 0.608132 0.475029
0.388974 0.607702 0.445280
0.405786 0.606935 0.397939
0.490863 0.605779 0.408901
0.569173 0.604189 0.420759
0.606716 0.573823 0.432032
0.639638 0.572171 0.429804
0.676832 0.571435 0.432860
0.431873 0.728019 0.541596
0.432817 0.727877 0.526436
0.435266 0.727517 0.487668
0.451906 0.726875 0.439199
0.530215 0.725906 0.443704
0.602169 0.724575 0.462029
0.675884 0.722849 0.477115
0.720695 0.687859 0.494206
0.755642 0.685628 0.498490
0.491822 0.849778 0.606277
0.492783 0.849667 0.591164
0.495096 0.849385 0.555077
0.498629 0.848882 0.500439
0.566765 0.848123 0.502646
0.637026 0.847079 0.506665
0.712362 0.845724 0.511004
0.789700 0.844033 0.533184
0.841980 0.815089 0.552429
0.548460 0.963515 0.657717
0.549323 0.963427 0.644305
0.551353 0.963202 0.612918
0.554390 0.962800 0.566120
0.604489 0.962195 0.557944
0.670454 0.961364 0.561731
0.744375 0.960287 0.566014
0.824801 0.958945 0.570734
0.905356 0.957320 0.579543
0.224558 0.171686 0.356467
0.241723 0.173186 0.361278
0.282502 0.176636 0.372826
0.377596 0.183389 0.394930
0.458614 0.192334 0.373545
0.567038 0.203131 0.379067
0.655385 0.218086 0.397011
0.748422 0.235219 0.421083
0.847029 0.253496 0.448393
0.225121 0.177948 0.352742
0.242496 0.178765 0.357815
0.284475 0.180469 0.369990
0.381002 0.183517 0.392413
0.461573 0.192770 0.370311
0.569086 0.203418 0.375944
0.655943 0.218910 0.395129
0.748936 0.235975 0.419522
0.847469 0.254167 0.447093
0.219217 0.237785 0.333635
0.229299 0.237765 0.335548
0.266678 0.239200 0.350745
0.375194 0.254338 0.383818
0.471459 0.265760 0.374727
0.564511 0.275900 0.385921
0.650287 0.286323 0.405986
0.743568 0.297581 0.430376
0.842581 0.308999 0.457372
0.243027 0.335389 0.339518
0.250874 0.335210 0.338403
0.269591 0.331955 0.330653
0.319155 0.319155 0.319155
0.433826 0.352104 0.360792
0.542694 0.383437 0.398858
0.631725 0.394540 0.423576
0.727429 0.405256 0.450669
0.827991 0.415380 0.479346
0.331002 0.482649 0.459493
0.340258 0.482823 0.459736
0.372450 0.484086 0.461336
0.398459 0.484362 0.422048
0.460164 0.480964 0.405596
0.473943 0.442870 0.386568
0.520407 0.448892 0.393059
0.643825 0.504525 0.452804
0.770447 0.550019 0.510369
0.415916 0.602381 0.559623
0.426683 0.602808 0.558083
0.431590 0.602374 0.522726
0.440116 0.601600 0.467125
0.494595 0.600433 0.451621
0.569701 0.598828 0.465352
0.599796 0.569721 0.469348
0.618235 0.553058 0.453415
0.670423 0.561831 0.464649
0.468197 0.723563 0.605175
0.469862 0.723421 0.590901
0.474008 0.723058 0.556292
0.480909 0.722410 0.504459
0.530718 0.721435 0.490913
0.601841 0.720094 0.503828
0.675241 0.718354 0.520111
0.717970 0.686187 0.538730
0.742509 0.676331 0.531885
0.510733 0.846285 0.627506
0.512521 0.846173 0.614970
0.516830 0.845888 0.585570
0.523709 0.845380 0.542278
0.570264 0.844614 0.532549
0.637180 0.843560 0.543007
0.710325 0.842192 0.556260
0.788311 0.840485 0.575103
0.838413 0.810620 0.598174
0.548435 0.960732 0.636429
0.549245 0.960643 0.623896
0.551139 0.960417 0.594673
0.556715 0.960013 0.553961
0.614941 0.959405 0.558505
0.675608 0.958570 0.576127
0.746338 0.957488 0.590720
0.824028 0.956139 0.606260
0.902189 0.954505 0.625151
0.258663 0.181235 0.482961
0.273364 0.182124 0.486298
0.320906 0.184898 0.496176
0.418778 0.190357 0.515274
0.530358 0.195238 0.535127
0.574850 0.200848 0.491923
0.670895 0.210533 0.495794
0.774359 0.220585 0.499840
0.874546 0.236443 0.512292
0.261306 0.181256 0.481497
0.275970 0.182147 0.484837
0.324753 0.184997 0.494919
0.422653 0.190472 0.514057
0.532639 0.195219 0.533570
0.576655 0.201087 0.490004
0.672403 0.210724 0.493935
0.775686 0.220745 0.498082
0.875081 0.236987 0.511242
0.247078 0.230702 0.467159
0.262527 0.231864 0.471166
0.314612 0.235794 0.483425
0.414383 0.242836 0.505696
0.528074 0.248061 0.528586
0.581739 0.252646 0.493670
0.677458 0.258293 0.497051
0.779323 0.263488 0.501219
0.873513 0.274615 0.517238
0.261577 0.328672 0.452200
0.273132 0.329033 0.453542
0.306524 0.329711 0.456994
0.391265 0.335293 0.482036
0.517490 0.352145 0.518757
0.592633 0.360978 0.503660
0.684886 0.366233 0.508041
0.771268 0.373730 0.520373
0.864562 0.382576 0.537931
0.294976 0.451830 0.461891
0.307267 0.452403 0.461660
0.338783 0.453956 0.460236
0.378721 0.447762 0.444604
0.435459 0.435459 0.435459
0.527638 0.457098 0.466967
0.637040 0.496167 0.511216
0.741069 0.522806 0.544150
0.837134 0.535909 0.567946
0.383765 0.586620 0.568526
0.397087 0.586930 0.568320
0.430426 0.587950 0.568298
0.478927 0.588354 0.563753
0.492850 0.581109 0.505999
0.551734 0.575281 0.494241
0.568845 0.537068 0.479239
0.621747 0.546889 0.494182
0.748144 0.606121 0.555471
0.483750 0.712932 0.671289
0.496768 0.713457 0.671892
0.528218 0.714929 0.673932
0.552314 0.715628 0.646835
0.561418 0.714641 0.594096
0.599475 0.713285 0.572148
0.674248 0.711525 0.584673
0.706783 0.678326 0.582330
0.714373 0.649882 0.551853
0.579157 0.840965 0.758868
0.580930 0.840852 0.746964
0.585254 0.840563 0.719576
0.592308 0.840047 0.680325
0.601746 0.839270 0.637064
0.632508 0.838202 0.613274
0.706168 0.836815 0.626983
0.785367 0.835084 0.642492
0.833168 0.804023 0.660002
0.608620 0.956518 0.750131
0.610332 0.956428 0.740733
0.614532 0.956200 0.719411
0.621556 0.955793 0.688820
0.631321 0.955181 0.654458
0.670548 0.954339 0.643860
0.741673 0.953247 0.659065
0.819150 0.951887 0.676461
0.897074 0.950240 0.695185
0.308495 0.191086 0.594901
0.328744 0.192035 0.598500
0.381921 0.194492 0.607816
0.470215 0.198496 0.623326
0.572772 0.202804 0.641400
0.657020 0.205780 0.650391
0.682281 0.209565 0.596155
0.783773 0.219748 0.599155
0.889672 0.230056 0.602765
0.312011 0.191145 0.594070
0.332446 0.192103 0.597697
0.385636 0.194564 0.607017
0.473489 0.198554 0.622474
0.574662 0.202768 0.640248
0.655846 0.205735 0.646635
0.683711 0.209742 0.594721
0.785044 0.219899 0.597716
0.890761 0.230183 0.601347
0.309022 0.222530 0.586858
0.329959 0.223409 0.590838
0.383572 0.225583 0.600902
0.471344 0.228766 0.617363
0.573213 0.231124 0.636368
0.652500 0.230231 0.641048
0.687406 0.228510 0.594112
0.788383 0.226955 0.595142
0.893525 0.230504 0.597723
0.303710 0.319421 0.564074
0.310466 0.308026 0.568325
0.364173 0.312856 0.581014
0.451580 0.320098 0.601381
0.557822 0.327617 0.626218
0.645615 0.329965 0.639799
0.694732 0.332731 0.604980
0.796679 0.337343 0.607050
0.901970 0.340467 0.609231
0.329695 0.446473 0.553789
0.342760 0.447312 0.554721
0.374525 0.449183 0.557117
0.420145 0.446447 0.556514
0.497743 0.451566 0.576381
0.603609 0.470525 0.611883
0.704330 0.496491 0.622285
0.802210 0.506324 0.628484
0.887487 0.512807 0.638834
0.370378 0.555053 0.567425
0.382554 0.555860 0.567300
0.410906 0.557689 0.566495
0.445457 0.557984 0.558445
0.483446 0.544381 0.538647
0.535402 0.535402 0.535402
0.623270 0.553572 0.563171
0.737777 0.594386 0.608867
0.850891 0.631729 0.649847
0.464719 0.696448 0.679785
0.476278 0.696714 0.679463
0.503705 0.697456 0.678964
0.544998 0.698685 0.678234
0.575895 0.691750 0.653873
0.585668 0.682631 0.597073
0.648881 0.676894 0.587290
0.673145 0.638658 0.573635
0.718532 0.640508 0.582870
0.565386 0.827093 0.786236
0.575768 0.827492 0.786506
0.600172 0.828518 0.787415
0.637655 0.830382 0.789705
0.669075 0.831821 0.774531
0.677041 0.830732 0.722020
0.707548 0.828966 0.685567
0.785830 0.825921 0.693141
0.818892 0.790850 0.688292
0.666573 0.948675 0.887400
0.675470 0.949101 0.888060
0.696427 0.950160 0.889839
0.703943 0.949948 0.859896
0.710556 0.949328 0.819974
0.719044 0.948476 0.772272
0.739492 0.947371 0.729244
0.818555 0.945993 0.740851
0.896797 0.944325 0.753389
0.387301 0.202335 0.714132
0.407040 0.203112 0.717395
0.454610 0.204978 0.725312
0.528625 0.207866 0.737918
0.616910 0.211307 0.753749
0.701885 0.214129 0.768760
0.784682 0.216795 0.776889
0.803317 0.219786 0.712270
0.899835 0.229464 0.710459
0.390859 0.202382 0.713483
0.410511 0.203157 0.716736
0.457805 0.205013 0.724619
0.531293 0.207885 0.737162
0.619037 0.211310 0.752931
0.703201 0.214080 0.767760
0.783688 0.216745 0.773715
0.802335 0.219738 0.709210
0.900871 0.229584 0.709264
0.399857 0.202501 0.711816
0.419273 0.203268 0.715039
0.465850 0.205102 0.722834
0.538000 0.207931 0.735217
0.624407 0.211316 0.750837
0.706544 0.213954 0.765205
0.781147 0.216619 0.765622
0.801514 0.219760 0.702835
0.903500 0.229887 0.706212
0.381034 0.292219 0.694721
0.400235 0.293193 0.698498
0.446219 0.295432 0.707574
0.517457 0.298584 0.721837
0.603890 0.301785 0.739701
0.693224 0.303618 0.757950
0.775377 0.303671 0.765338
0.807171 0.304483 0.711361
0.909324 0.309836 0.713974
0.383140 0.442651 0.667899
0.394532 0.442755 0.668717
0.421512 0.442718 0.670814
0.472986 0.437974 0.687201
0.559997 0.448825 0.712066
0.659640 0.459658 0.740328
0.762145 0.466175 0.765475
0.817021 0.471658 0.731288
0.920705 0.477409 0.734499
0.410295 0.550602 0.656062
0.420952 0.551400 0.656855
0.446056 0.553207 0.658880
0.481803 0.553267 0.659779
0.522103 0.546890 0.656813
0.591448 0.551242 0.674803
0.697550 0.571716 0.711156
0.812435 0.605736 0.734148
0.925777 0.628412 0.751017
0.455026 0.663283 0.676059
0.464409 0.663878 0.675958
0.485962 0.665187 0.675429
0.513868 0.666266 0.670754
0.543425 0.660254 0.656904
0.580928 0.646339 0.639359
0.637283 0.637283 0.637283
0.728540 0.654769 0.665286
0.841124 0.693760 0.710725
0.550929 0.810628 0.793288
0.559394 0.810804 0.793038
0.579460 0.811259 0.792562
0.611400 0.812130 0.792201
0.645989 0.810657 0.784430
0.671820 0.800079 0.751655
0.683046 0.789304 0.689953
0.754346 0.783318 0.685267
0.781822 0.747039 0.674349
0.644429 0.934389 0.893564
0.651992 0.934657 0.893686
0.670163 0.935339 0.894104
0.698834 0.936530 0.895164
0.738582 0.938572 0.897622
0.773291 0.939259 0.881813
0.778671 0.936867 0.819058
0.815220 0.933461 0.783556
0.889574 0.928769 0.787154
0.475053 0.213974 0.838138
0.491323 0.214536 0.840737
0.529676 0.215861 0.846946
0.588381 0.217898 0.856750
0.661437 0.220446 0.869502
0.747018 0.223435 0.885028
0.833101 0.225751 0.898994
0.914927 0.228281 0.900576
0.932635 0.230974 0.834818
0.478009 0.213999 0.837611
0.494161 0.214557 0.840196
0.532216 0.215874 0.846370
0.590530 0.217900 0.856130
0.663164 0.220436 0.868837
0.748648 0.223424 0.884362
0.834233 0.225708 0.898207
0.914151 0.228238 0.898014
0.931873 0.230931 0.832424
0.485439 0.214059 0.836251
0.501291 0.214609 0.838799
0.538597 0.215904 0.844885
0.595950 0.217902 0.854538
0.667523 0.220410 0.867133
0.752416 0.223365 0.882539
0.837109 0.225597 0.896195
0.912165 0.228127 0.891478
0.929922 0.230819 0.826317
0.475544 0.276054 0.825796
0.491016 0.276541 0.828533
0.527442 0.277622 0.835057
0.584009 0.279104 0.845436
0.655049 0.280574 0.858951
0.741598 0.281908 0.875729
0.830468 0.281477 0.891188
0.907938 0.279976 0.888334
0.926375 0.277320 0.823155
0.437107 0.413658 0.794846
0.451933 0.414850 0.798255
0.486922 0.417568 0.806351
0.542410 0.421594 0.819312
0.612987 0.426138 0.836085
0.701649 0.431148 0.857050
0.804765 0.435544 0.880545
0.900150 0.435994 0.895685
0.928315 0.435608 0.838908
0.462841 0.552374 0.776502
0.471285 0.552630 0.777163
0.491282 0.553131 0.778847
0.523076 0.553539 0.781846
0.567741 0.547477 0.795721
0.659168 0.562273 0.824926
0.771437 0.578890 0.859544
0.884218 0.590326 0.889473
0.939163 0.598664 0.857682
0.488589 0.655156 0.763920
0.496342 0.655761 0.764569
0.514998 0.657185 0.766221
0.543588 0.658541 0.768189
0.578398 0.656557 0.767632
0.620421 0.648663 0.763836
0.694636 0.652702 0.781387
0.802603 0.673494 0.817667
0.915238 0.708351 0.844786
0.533962 0.774565 0.789203
0.540810 0.774954 0.789109
0.557179 0.775830 0.788860
0.580771 0.776917 0.786798
0.609016 0.776905 0.779906
0.641587 0.767530 0.762574
0.684251 0.752715 0.745095
0.743987 0.743987 0.743987
0.829397 0.758295 0.769146
0.624058 0.917053 0.902246
0.630302 0.917149 0.902017
0.645218 0.917384 0.901516
0.670862 0.917872 0.900828
0.706286 0.918156 0.898481
0.738145 0.912131 0.878514
0.764090 0.897630 0.837477
0.779165 0.885802 0.777912
0.852110 0.880112 0.780987
0.558702 0.224827 0.954847
0.571075 0.225216 0.956804
0.600888 0.226157 0.961568
0.648296 0.227659 0.969330
0.710544 0.229643 0.979843
0.790162 0.232170 0.993453
0.879276 0.234039 1.000000
0.968358 0.234977 1.000000
1.000000 0.235922 1.000000
0.560947 0.224835 0.954406
0.573247 0.225222 0.956355
0.602899 0.226159 0.961101
0.650027 0.227654 0.968833
0.712150 0.229635 0.979335
0.791651 0.232159 0.992937
0.880386 0.234059 1.000000
0.969348 0.234995 1.000000
1.000000 0.235939 1.000000
0.566591 0.224853 0.953273
0.578726 0.225236 0.955201
0.607968 0.226162 0.959900
0.654386 0.227638 0.967554
0.716231 0.229614 0.978035
0.795434 0.232133 0.991617
0.883205 0.234108 1.000000
0.971862 0.235042 1.000000
1.000000 0.235982 1.000000
0.568255 0.247863 0.948667
0.580276 0.247843 0.950657
0.609250 0.247698 0.955504
0.655257 0.247097 0.963392
0.718127 0.245511 0.974372
0.799084 0.241624 0.988588
0.888211 0.234196 1.000000
0.976327 0.235126 1.000000
1.000000 0.236060 0.991378
0.529358 0.388460 0.925232
0.541019 0.388916 0.927555
0.569104 0.389952 0.933192
0.613799 0.391380 0.942322
0.676824 0.393114 0.955233
0.757617 0.394889 0.971786
0.855905 0.396425 0.991794
0.950707 0.394284 1.000000
1.000000 0.389626 1.000000
0.512509 0.545719 0.889760
0.519309 0.545608 0.890284
0.528827 0.534875 0.894532
0.566338 0.533664 0.906061
0.629560 0.540402 0.922621
0.711094 0.548578 0.943749
0.811694 0.557929 0.969347
0.922612 0.566639 0.996570
1.000000 0.568783 1.000000
0.535399 0.656356 0.879946
0.541714 0.656611 0.880457
0.556805 0.657171 0.881756
0.582578 0.657971 0.884085
0.618590 0.657535 0.886459
0.667324 0.650109 0.897844
0.769047 0.668723 0.931470
0.887397 0.688991 0.969858
0.996419 0.702236 1.000000
0.560286 0.763127 0.867673
0.566042 0.763601 0.868172
0.580568 0.764786 0.869443
0.605538 0.766615 0.871452
0.638339 0.766866 0.871756
0.677535 0.762904 0.868761
0.723274 0.753193 0.863131
0.796844 0.756396 0.878301
0.893920 0.774644 0.910229
0.604414 0.878342 0.896035
0.609880 0.878655 0.895958
0.623547 0.879426 0.895761
0.646218 0.880680 0.894855
0.674082 0.881706 0.890401
0.705910 0.880432 0.880648
0.742569 0.866601 0.859401
0.788125 0.852643 0.844771
0.845403 0.845403 0.845403
