data/luts/JSZ-CEDAR D.cube
# Baked from the Lightroom preset "JSZ-CEDAR D" by scripts/lightroom-preset-lut.lisp
# Colour only; not in this LUT (add the node instead):
#   Clarity +33
#   Dehaze +21
#   Vignette -10, midpoint 0, feather 100, roundness +7
#   Grain 12, size 33
#   Sharpening 60, radius 1.4
TITLE "JSZ-CEDAR D"
LUT_3D_SIZE 5
DOMAIN_MIN 0.0 0.0 0.0
DOMAIN_MAX 1.0 1.0 1.0
0.175649 0.168808 0.163576
0.359896 0.249784 0.246095
0.545503 0.324673 0.322562
0.672670 0.375847 0.374620
0.904430 0.468043 0.466902
0.133161 0.382601 0.166728
0.340628 0.359306 0.237847
0.538500 0.450872 0.361178
0.665140 0.506787 0.412028
0.902946 0.605257 0.504138
0.175836 0.582097 0.238692
0.308291 0.546540 0.302297
0.524642 0.546529 0.302310
0.642160 0.585076 0.366036
0.894214 0.720478 0.533801
0.220044 0.727242 0.298009
0.220044 0.727242 0.298009
0.514022 0.682697 0.346854
0.624949 0.682614 0.346436
0.873532 0.762845 0.471240
0.296809 0.970555 0.395001
0.296809 0.970555 0.395001
0.296809 0.970555 0.395001
0.676549 0.911091 0.419977
0.856396 0.910983 0.419431
0.287920 0.239787 0.354294
0.382219 0.246342 0.361256
0.550463 0.309794 0.423021
0.679446 0.361706 0.473705
0.907199 0.452338 0.562571
0.241877 0.353152 0.350377
0.335130 0.331560 0.328830
0.543959 0.428706 0.427595
0.671835 0.479662 0.478721
0.905452 0.571710 0.569562
0.304157 0.545274 0.416244
0.356686 0.545275 0.416268
0.529554 0.545252 0.405064
0.649035 0.591373 0.474060
0.897213 0.713082 0.599957
0.350441 0.681037 0.447360
0.350441 0.681037 0.447360
0.523558 0.680919 0.426571
0.629022 0.680839 0.426170
0.877058 0.767536 0.554388
0.430893 0.910547 0.489501
0.430893 0.910547 0.489501
0.456163 0.910528 0.489408
0.678251 0.910385 0.452430
0.859756 0.910277 0.451885
0.410254 0.302723 0.542969
0.475889 0.302768 0.543236
0.563737 0.308032 0.548852
0.700974 0.354466 0.596102
0.915919 0.438136 0.673999
0.390736 0.403959 0.543092
0.462659 0.403995 0.543310
0.558601 0.408189 0.547722
0.693476 0.456067 0.594253
0.914126 0.543063 0.675724
0.174017 0.576213 0.575275
0.302242 0.576204 0.575269
0.509265 0.507957 0.507032
0.652534 0.570447 0.569044
0.906288 0.683936 0.680473
0.348645 0.675385 0.586809
0.348645 0.675385 0.586809
0.551906 0.669491 0.579479
0.628232 0.660483 0.564039
0.887732 0.776464 0.698730
0.430325 0.908246 0.665574
0.430325 0.908246 0.665574
0.525924 0.908179 0.665237
0.682945 0.908082 0.644019
0.869934 0.907978 0.643492
0.530790 0.348067 0.678930
0.566099 0.348086 0.679042
0.615091 0.348109 0.679183
0.740656 0.367842 0.699238
0.931324 0.431556 0.762807
0.519264 0.422405 0.677978
0.558764 0.422413 0.678031
0.612414 0.422419 0.678084
0.733630 0.440245 0.695931
0.929460 0.508728 0.761467
0.475018 0.579586 0.672911
0.531117 0.578764 0.671967
0.590023 0.565240 0.658087
0.702926 0.582645 0.675180
0.922763 0.671673 0.758686
0.214510 0.707977 0.706382
0.240835 0.707959 0.706288
0.538215 0.670226 0.668085
0.626864 0.624027 0.622135
0.896565 0.746468 0.742323
0.428900 0.903872 0.744084
0.428900 0.903872 0.744084
0.605177 0.903753 0.743480
0.707381 0.903511 0.742948
0.880122 0.897822 0.723634
0.662945 0.425110 0.909314
0.678383 0.425108 0.909309
0.707148 0.425104 0.909294
0.835792 0.425070 0.909151
0.953438 0.438824 0.922603
0.658410 0.426300 0.908700
0.675277 0.426298 0.908695
0.702405 0.426294 0.908681
0.831477 0.426260 0.908538
0.950972 0.439394 0.921372
0.642781 0.646539 0.904776
0.665566 0.646521 0.904687
0.699438 0.646495 0.904554
0.819626 0.646401 0.904079
0.945740 0.657469 0.914618
0.589856 0.733432 0.900020
0.632588 0.733398 0.899851
0.689783 0.733354 0.899627
0.786209 0.727941 0.893802
0.927521 0.737115 0.902522
0.292722 0.955260 0.950631
0.292722 0.955260 0.950631
0.446332 0.955162 0.950138
0.636854 0.937620 0.932310
0.849402 0.841926 0.836941
