data/luts/JSZ-CEDAR D.cube
# Baked from the Lightroom preset "JSZ-CEDAR D" by scripts/lightroom-preset-lut.lisp
# Colour only; not in this LUT (add the node instead):
#   Clarity +33
#   Dehaze +21
#   Vignette -10, midpoint 0, feather 100, roundness +7
#   Grain 12, size 33
#   Sharpening 60, radius 1.4
TITLE "JSZ-CEDAR D"
LUT_3D_SIZE 33
DOMAIN_MIN 0.0 0.0 0.0
DOMAIN_MAX 1.0 1.0 1.0
0.175649 0.168808 0.163576
0.197534 0.177442 0.172364
0.220321 0.188502 0.183614
0.242833 0.199981 0.195294
0.264909 0.210825 0.206336
0.286457 0.220157 0.215851
0.308542 0.229065 0.224942
0.332476 0.238721 0.234798
0.359896 0.249784 0.246095
0.388648 0.261387 0.257945
0.416958 0.272811 0.269614
0.444053 0.283745 0.280781
0.469198 0.293892 0.291143
0.491907 0.303054 0.300499
0.512143 0.311218 0.308832
0.529980 0.318412 0.316175
0.545503 0.324673 0.322562
0.558791 0.330030 0.328027
0.570206 0.334632 0.332720
0.579875 0.338530 0.336694
0.587884 0.341758 0.339984
0.594300 0.344343 0.342620
0.613690 0.352153 0.350574
0.641793 0.363455 0.362061
0.672670 0.375847 0.374620
0.705372 0.388943 0.387854
0.739006 0.402382 0.401391
0.772654 0.415797 0.414860
0.805295 0.428781 0.427856
0.835694 0.440848 0.439897
0.862265 0.451375 0.450372
0.884170 0.460040 0.458974
0.904430 0.468043 0.466902
0.183466 0.194393 0.172655
0.194764 0.191702 0.172593
0.216363 0.200865 0.183315
0.240012 0.214286 0.197790
0.262743 0.226345 0.210158
0.284712 0.236407 0.220268
0.306992 0.245591 0.229446
0.330971 0.255410 0.239328
0.358460 0.266617 0.250658
0.387351 0.278364 0.262569
0.415822 0.289918 0.274304
0.443055 0.300955 0.285528
0.468341 0.311194 0.295946
0.491170 0.320431 0.305348
0.511507 0.328655 0.313719
0.529428 0.335898 0.321091
0.545023 0.342199 0.327504
0.558368 0.347588 0.332988
0.569829 0.352216 0.337696
0.579537 0.356133 0.341681
0.587581 0.359378 0.344980
0.594029 0.361978 0.347621
0.613191 0.369695 0.355452
0.641307 0.380998 0.366898
0.672211 0.393395 0.379420
0.704954 0.406500 0.392618
0.738638 0.419949 0.406122
0.772345 0.433375 0.419561
0.805051 0.446373 0.432530
0.835522 0.458457 0.444551
0.862172 0.469004 0.455015
0.884134 0.477682 0.463605
0.904431 0.485691 0.471515
0.185260 0.222812 0.178372
0.200504 0.215199 0.183093
0.215578 0.215209 0.183150
0.236788 0.222988 0.193537
0.260314 0.237221 0.211412
0.282783 0.249410 0.224211
0.305287 0.259249 0.233496
0.329327 0.269498 0.243412
0.356888 0.281058 0.254780
0.385935 0.293111 0.266759
0.414587 0.304917 0.278572
0.441977 0.316150 0.289861
0.467424 0.326553 0.300343
0.490390 0.335920 0.309797
0.510841 0.344247 0.318212
0.528857 0.351573 0.325619
0.544534 0.357941 0.332061
0.557943 0.363382 0.337567
0.569460 0.368051 0.342288
0.579218 0.372002 0.346281
0.587306 0.375274 0.349585
0.593791 0.377895 0.352232
0.612690 0.385526 0.359929
0.640812 0.396856 0.371337
0.671740 0.409283 0.383825
0.704521 0.422420 0.396991
0.738253 0.435902 0.410465
0.772017 0.449360 0.423879
0.804789 0.462390 0.436827
0.835333 0.474506 0.448832
0.862067 0.485088 0.459290
0.884089 0.493790 0.467871
0.904424 0.501813 0.475767
0.179569 0.250826 0.179490
0.203545 0.238283 0.193312
0.219748 0.238294 0.193376
0.236574 0.238305 0.193443
0.256828 0.244364 0.202631
0.280112 0.256933 0.219797
0.302930 0.270215 0.235930
0.327072 0.281808 0.247150
0.354725 0.293949 0.258566
0.383994 0.306500 0.270644
0.412906 0.318710 0.282568
0.440523 0.330255 0.293950
0.466201 0.340916 0.304526
0.489364 0.350486 0.314059
0.509980 0.358974 0.322538
0.528132 0.366427 0.329997
0.543927 0.372898 0.336479
0.557436 0.378420 0.342010
0.569036 0.383152 0.346749
0.578862 0.387155 0.350757
0.587008 0.390469 0.354074
0.593543 0.393125 0.356732
0.612058 0.400638 0.364247
0.640174 0.412015 0.375616
0.671121 0.424496 0.388068
0.703940 0.437688 0.401205
0.737725 0.451225 0.414654
0.771555 0.464738 0.428047
0.804405 0.477822 0.440980
0.835042 0.489991 0.452979
0.861882 0.500628 0.463441
0.883980 0.509368 0.472020
0.904361 0.517416 0.479905
0.169804 0.277322 0.177764
0.169804 0.277322 0.177764
0.220422 0.260924 0.202716
0.239966 0.260937 0.202795
0.256783 0.260949 0.202864
0.276423 0.265240 0.210281
0.299841 0.276445 0.226812
0.324166 0.289909 0.243984
0.351872 0.305796 0.262193
0.381433 0.319088 0.274402
0.410698 0.331892 0.286476
0.438621 0.343891 0.297987
0.464613 0.354925 0.308692
0.488043 0.364786 0.318332
0.508882 0.373504 0.326898
0.527223 0.381139 0.334424
0.543185 0.387755 0.340955
0.556828 0.393390 0.346523
0.568535 0.398213 0.351290
0.578451 0.402290 0.355321
0.586673 0.405664 0.358658
0.593272 0.408368 0.361333
0.611268 0.415728 0.368614
0.639365 0.427176 0.379937
0.670327 0.439737 0.392353
0.703186 0.453011 0.405460
0.737031 0.466630 0.418887
0.770939 0.480223 0.432263
0.803885 0.493384 0.445187
0.834634 0.505630 0.457187
0.861609 0.516344 0.467663
0.883804 0.525140 0.476248
0.904236 0.533225 0.484129
0.160800 0.301461 0.175212
0.160800 0.301461 0.175212
0.219607 0.283009 0.212843
0.239988 0.283023 0.210862
0.258878 0.283037 0.210941
0.276182 0.283049 0.211012
0.295796 0.286050 0.216703
0.320519 0.297220 0.234100
0.348333 0.312018 0.253723
0.378206 0.329414 0.274828
0.407896 0.344645 0.290394
0.436216 0.357282 0.302072
0.462615 0.368834 0.312944
0.486392 0.379098 0.322725
0.507524 0.388130 0.331400
0.526115 0.396011 0.339006
0.542290 0.402824 0.345603
0.556103 0.408616 0.351222
0.567944 0.413561 0.356029
0.577974 0.417738 0.360092
0.586292 0.421193 0.363457
0.592972 0.423963 0.366155
0.610304 0.431130 0.373143
0.638371 0.442679 0.384415
0.669343 0.455352 0.396792
0.702244 0.468741 0.409870
0.736158 0.482472 0.423275
0.770157 0.496175 0.436638
0.803216 0.509443 0.449559
0.834102 0.521793 0.461566
0.861242 0.532611 0.472066
0.883552 0.541484 0.480671
0.904034 0.549622 0.488564
0.152538 0.325720 0.172673
0.152538 0.325720 0.172673
0.152538 0.325720 0.172673
0.236408 0.305807 0.218790
0.259318 0.305823 0.218886
0.277976 0.305836 0.218964
0.296067 0.305849 0.219040
0.316043 0.308014 0.223269
0.343932 0.320132 0.242882
0.374268 0.335795 0.264268
0.404496 0.352934 0.285601
0.433261 0.370147 0.305905
0.460164 0.382554 0.317294
0.484378 0.393357 0.327247
0.505887 0.402805 0.336053
0.524788 0.411013 0.343763
0.541224 0.418088 0.350445
0.555248 0.424084 0.356131
0.567256 0.429191 0.360989
0.577425 0.433499 0.365094
0.585860 0.437061 0.368494
0.592641 0.439917 0.371224
0.609158 0.446848 0.377860
0.637178 0.458532 0.389073
0.668157 0.471355 0.401408
0.701102 0.484897 0.414456
0.735093 0.498779 0.427841
0.769197 0.512627 0.441194
0.802388 0.526034 0.454116
0.833437 0.538520 0.466139
0.860768 0.549473 0.476680
0.883208 0.558450 0.485326
0.903751 0.566656 0.493236
0.143479 0.352314 0.169893
0.143479 0.352314 0.169893
0.143479 0.352314 0.169893
0.234876 0.330785 0.232523
0.258180 0.330800 0.227590
0.279176 0.330815 0.227678
0.298288 0.330829 0.227758
0.317261 0.330842 0.227837
0.338575 0.332271 0.230703
0.369438 0.345253 0.252391
0.400370 0.360739 0.274173
0.429784 0.376904 0.294900
0.457253 0.392852 0.314255
0.481971 0.407693 0.331626
0.503936 0.417930 0.341050
0.523215 0.426573 0.348889
0.539967 0.433992 0.355677
0.554249 0.440260 0.361448
0.566458 0.445580 0.366369
0.576794 0.450059 0.370527
0.585371 0.453759 0.373971
0.592273 0.456727 0.376739
0.607820 0.463381 0.382961
0.635778 0.475250 0.394108
0.666757 0.488275 0.406396
0.699751 0.502022 0.419410
0.733829 0.516104 0.432775
0.768054 0.530143 0.446120
0.801398 0.543734 0.459048
0.832632 0.556397 0.471097
0.860172 0.567526 0.481707
0.882772 0.576636 0.490406
0.903386 0.584932 0.498336
0.133161 0.382601 0.166728
0.133161 0.382601 0.166728
0.133161 0.382601 0.166728
0.133161 0.382601 0.166728
0.253798 0.359245 0.237490
0.279740 0.359263 0.237597
0.300411 0.359278 0.237682
0.320251 0.359292 0.237764
0.340628 0.359306 0.237847
0.363609 0.359710 0.238718
0.395375 0.372520 0.261013
0.425593 0.387003 0.282256
0.453804 0.401864 0.302093
0.479190 0.416002 0.319891
0.501676 0.428970 0.335596
0.521386 0.440605 0.349310
0.538500 0.450872 0.361178
0.553091 0.457707 0.367451
0.565540 0.463310 0.372449
0.576076 0.468017 0.376670
0.584821 0.471901 0.380167
0.591866 0.475016 0.382980
0.606287 0.481355 0.388728
0.634166 0.493483 0.399796
0.665140 0.506787 0.412028
0.698187 0.520815 0.425006
0.732363 0.535169 0.438348
0.766726 0.549468 0.451685
0.800246 0.563303 0.464622
0.831673 0.576202 0.476726
0.859456 0.587557 0.487417
0.882248 0.596844 0.496181
0.902946 0.605257 0.504138
0.127333 0.414053 0.167587
0.127333 0.414053 0.167587
0.127333 0.414053 0.167587
0.127333 0.414053 0.167587
0.253417 0.388783 0.257366
0.278224 0.388798 0.247880
0.301560 0.388814 0.247974
0.322604 0.388829 0.248059
0.343385 0.388843 0.248141
0.366390 0.388858 0.248232
0.389993 0.388874 0.248324
0.420620 0.400227 0.268752
0.449701 0.413517 0.289138
0.475890 0.426653 0.307445
0.499035 0.438941 0.323570
0.519280 0.450096 0.337627
0.536832 0.460015 0.349776
0.551780 0.468616 0.360093
0.564501 0.476031 0.368850
0.575267 0.482368 0.376244
0.584206 0.487669 0.382373
0.591418 0.491968 0.387309
0.604539 0.498979 0.394613
0.632333 0.511434 0.405600
0.663292 0.525085 0.417773
0.696391 0.539461 0.430711
0.730673 0.554151 0.444033
0.765189 0.568768 0.457365
0.798883 0.582907 0.470340
0.830525 0.596093 0.482512
0.858583 0.607723 0.493298
0.881604 0.617225 0.502144
0.902399 0.625782 0.510132
0.136100 0.444798 0.180694
0.136100 0.444798 0.180694
0.136100 0.444798 0.180694
0.136100 0.444798 0.180694
0.136100 0.444798 0.180694
0.271721 0.417654 0.257899
0.300843 0.417673 0.258012
0.323676 0.417688 0.258100
0.345300 0.417702 0.258183
0.368514 0.417717 0.258270
0.392842 0.417733 0.258361
0.416193 0.417747 0.258445
0.444876 0.427243 0.275942
0.472019 0.439071 0.294854
0.495945 0.450490 0.311478
0.516822 0.461042 0.325941
0.534886 0.470528 0.338417
0.550266 0.478825 0.349011
0.563308 0.485997 0.357973
0.574339 0.492150 0.365537
0.583500 0.497316 0.371807
0.590900 0.501521 0.376864
0.602527 0.508186 0.384796
0.630242 0.524314 0.403631
0.661193 0.541985 0.423241
0.694339 0.556759 0.436141
0.728731 0.571835 0.449445
0.763397 0.586819 0.462794
0.797276 0.601308 0.475824
0.829158 0.614825 0.488076
0.857523 0.626767 0.498971
0.880815 0.636524 0.507915
0.901721 0.645245 0.515941
0.144482 0.474143 0.193190
0.144482 0.474143 0.193190
0.144482 0.474143 0.193190
0.144482 0.474143 0.193190
0.144482 0.474143 0.193190
0.144482 0.474143 0.193190
0.297170 0.445216 0.267567
0.323036 0.445231 0.267660
0.346082 0.445245 0.267738
0.369467 0.445257 0.267814
0.394566 0.445270 0.267890
0.418882 0.445281 0.267959
0.441409 0.445291 0.268019
0.467513 0.452879 0.282286
0.492358 0.463226 0.299501
0.513978 0.473052 0.314441
0.532638 0.482027 0.327302
0.548522 0.489968 0.338222
0.561937 0.496862 0.347422
0.573274 0.502807 0.355182
0.582691 0.507820 0.361617
0.590307 0.511919 0.366812
0.600245 0.517326 0.373582
0.627870 0.532656 0.392335
0.658756 0.550234 0.413186
0.691976 0.569549 0.435472
0.726512 0.587861 0.454454
0.761324 0.603255 0.467840
0.795405 0.618130 0.480934
0.827552 0.632013 0.493277
0.856258 0.644305 0.504295
0.879867 0.654350 0.513356
0.900898 0.663255 0.521426
0.152211 0.501136 0.204667
0.152211 0.501136 0.204667
0.152211 0.501136 0.204667
0.152211 0.501136 0.204667
0.152211 0.501136 0.204667
0.152211 0.501136 0.204667
0.287335 0.470544 0.276302
0.320001 0.470560 0.276398
0.345119 0.470571 0.276467
0.369017 0.470581 0.276528
0.394847 0.470590 0.276589
0.420246 0.470599 0.276643
0.443739 0.470606 0.276690
0.465035 0.470612 0.276728
0.488219 0.476457 0.287902
0.510704 0.485450 0.303405
0.530057 0.493855 0.316716
0.546523 0.501408 0.328014
0.560370 0.508007 0.337494
0.572059 0.513732 0.345481
0.581767 0.518585 0.352104
0.589629 0.522575 0.357459
0.597677 0.526711 0.362933
0.625238 0.541229 0.381623
0.656032 0.557998 0.402394
0.689258 0.576606 0.424670
0.723903 0.596465 0.447759
0.758940 0.616966 0.471056
0.793251 0.632890 0.485474
0.825687 0.647163 0.497919
0.854766 0.659831 0.509074
0.878745 0.670197 0.518272
0.899916 0.679296 0.526395
0.159212 0.525396 0.214932
0.159212 0.525396 0.214932
0.159212 0.525396 0.214932
0.159212 0.525396 0.214932
0.159212 0.525396 0.214932
0.159212 0.525396 0.214932
0.159212 0.525396 0.214932
0.313421 0.493322 0.284198
0.342004 0.493331 0.284260
0.367121 0.493339 0.284309
0.393480 0.493346 0.284356
0.420066 0.493352 0.284397
0.444712 0.493357 0.284431
0.467064 0.493360 0.284457
0.486613 0.493363 0.284477
0.506948 0.497720 0.292915
0.527103 0.505507 0.306753
0.544235 0.512650 0.318488
0.558585 0.518950 0.328297
0.570675 0.524455 0.336545
0.580715 0.529152 0.343384
0.588855 0.533035 0.348920
0.595201 0.536107 0.353231
0.622340 0.549635 0.371616
0.653018 0.565580 0.392295
0.686239 0.583470 0.414555
0.720962 0.602730 0.437697
0.756149 0.622752 0.461103
0.790754 0.642855 0.484088
0.823545 0.660167 0.501921
0.853031 0.673229 0.513226
0.877438 0.683946 0.522586
0.898767 0.693248 0.530768
0.165478 0.546913 0.223987
0.165478 0.546913 0.223987
0.165478 0.546913 0.223987
0.165478 0.546913 0.223987
0.165478 0.546913 0.223987
0.165478 0.546913 0.223987
0.165478 0.546913 0.223987
0.299579 0.513512 0.291072
0.336193 0.513521 0.291134
0.363679 0.513527 0.291174
0.390378 0.513531 0.291207
0.418201 0.513535 0.291236
0.444222 0.513537 0.291258
0.467751 0.513539 0.291273
0.488352 0.513539 0.291283
0.506078 0.513539 0.291288
0.523729 0.516656 0.297384
0.541620 0.523370 0.309622
0.556556 0.529375 0.319818
0.569103 0.534667 0.328366
0.579519 0.539215 0.335451
0.587973 0.543000 0.341194
0.594586 0.546016 0.345681
0.619174 0.557613 0.362321
0.649705 0.572734 0.382888
0.682908 0.589910 0.405128
0.717706 0.608578 0.428325
0.753052 0.628131 0.451844
0.787897 0.647891 0.474998
0.821049 0.667067 0.497006
0.851038 0.684603 0.516743
0.875940 0.695700 0.526290
0.897445 0.705210 0.534539
0.171018 0.565791 0.231893
0.171018 0.565791 0.231893
0.171018 0.565791 0.231893
0.171018 0.565791 0.231893
0.171018 0.565791 0.231893
0.171018 0.565791 0.231893
0.171018 0.565791 0.231893
0.171018 0.565791 0.231893
0.326504 0.531237 0.297136
0.357947 0.531241 0.297169
0.385561 0.531244 0.297192
0.414532 0.531245 0.297209
0.442137 0.531245 0.297219
0.467001 0.531245 0.297224
0.488835 0.531243 0.297224
0.507542 0.531242 0.297221
0.523458 0.531240 0.297216
0.538633 0.533342 0.301355
0.554253 0.539060 0.312005
0.567318 0.544148 0.320897
0.578159 0.548559 0.328264
0.586967 0.552259 0.334240
0.593879 0.555229 0.338925
0.615739 0.564979 0.353707
0.646088 0.579287 0.374142
0.679254 0.595760 0.396352
0.714123 0.613849 0.419604
0.749635 0.632951 0.443243
0.784736 0.652388 0.466575
0.818238 0.671374 0.488824
0.848692 0.688947 0.509038
0.874216 0.703879 0.525977
0.895947 0.715334 0.537724
0.175836 0.582097 0.238692
0.175836 0.582097 0.238692
0.175836 0.582097 0.238692
0.175836 0.582097 0.238692
0.175836 0.582097 0.238692
0.175836 0.582097 0.238692
0.175836 0.582097 0.238692
0.175836 0.582097 0.238692
0.308291 0.546540 0.302297
0.349328 0.546543 0.302328
0.379235 0.546544 0.302341
0.408946 0.546543 0.302348
0.438276 0.546542 0.302348
0.464696 0.546539 0.302343
0.487973 0.546536 0.302334
0.507827 0.546533 0.302322
0.524642 0.546529 0.302310
0.538811 0.546526 0.302299
0.551637 0.547800 0.304818
0.565292 0.552700 0.314104
0.576614 0.556991 0.321790
0.585819 0.560620 0.328031
0.593066 0.563559 0.332938
0.612038 0.571563 0.345759
0.642160 0.585076 0.366036
0.675268 0.600867 0.388204
0.710200 0.618400 0.411508
0.745883 0.637074 0.435270
0.781254 0.656214 0.458791
0.815130 0.675037 0.481296
0.846078 0.692592 0.501844
0.872241 0.707668 0.519213
0.894214 0.720478 0.533801
0.179977 0.596030 0.244480
0.179977 0.596030 0.244480
0.179977 0.596030 0.244480
0.179977 0.596030 0.244480
0.179977 0.596030 0.244480
0.179977 0.596030 0.244480
0.179977 0.596030 0.244480
0.179977 0.596030 0.244480
0.179977 0.596030 0.244480
0.336494 0.559620 0.306723
0.370938 0.559619 0.306729
0.401421 0.559617 0.306728
0.432515 0.559613 0.306719
0.460793 0.559609 0.306704
0.485694 0.559604 0.306686
0.506893 0.559599 0.306667
0.524755 0.559595 0.306648
0.539739 0.559591 0.306630
0.552181 0.559587 0.306614
0.562994 0.560238 0.307903
0.574858 0.564428 0.315953
0.584510 0.568004 0.322491
0.592132 0.570926 0.327649
0.608077 0.577296 0.338419
0.637920 0.590037 0.358506
0.670941 0.605167 0.380618
0.705928 0.622167 0.403968
0.741785 0.640439 0.427856
0.777438 0.659309 0.451573
0.811708 0.677997 0.474347
0.843179 0.695564 0.495249
0.870028 0.710818 0.513079
0.892286 0.723630 0.527860
0.183533 0.607939 0.249412
0.183533 0.607939 0.249412
0.183533 0.607939 0.249412
0.183533 0.607939 0.249412
0.183533 0.607939 0.249412
0.183533 0.607939 0.249412
0.183533 0.607939 0.249412
0.183533 0.607939 0.249412
0.183533 0.607939 0.249412
0.313552 0.570800 0.310472
0.359641 0.570798 0.310474
0.392163 0.570794 0.310465
0.424765 0.570789 0.310447
0.455230 0.570783 0.310424
0.481941 0.570776 0.310397
0.504726 0.570770 0.310371
0.523814 0.570764 0.310345
0.539743 0.570759 0.310321
0.552950 0.570754 0.310300
0.563777 0.570750 0.310282
0.572866 0.570924 0.310620
0.583019 0.574464 0.317496
0.591060 0.577384 0.322933
0.603827 0.582217 0.331555
0.633370 0.594217 0.351441
0.666269 0.608702 0.373476
0.701297 0.625186 0.396864
0.737328 0.643078 0.420876
0.773274 0.661701 0.444797
0.807956 0.680279 0.467853
0.839978 0.697883 0.489127
0.867550 0.713342 0.507441
0.890176 0.726215 0.522471
0.186533 0.617944 0.253544
0.186533 0.617944 0.253544
0.186533 0.617944 0.253544
0.186533 0.617944 0.253544
0.186533 0.617944 0.253544
0.186533 0.617944 0.253544
0.186533 0.617944 0.253544
0.186533 0.617944 0.253544
0.186533 0.617944 0.253544
0.186533 0.617944 0.253544
0.343793 0.580190 0.313617
0.381386 0.580185 0.313601
0.414914 0.580179 0.313578
0.447746 0.580171 0.313546
0.476565 0.580163 0.313512
0.501227 0.580155 0.313477
0.521756 0.580148 0.313445
0.538788 0.580142 0.313416
0.552866 0.580136 0.313390
0.564347 0.580131 0.313368
0.573788 0.580127 0.313349
0.581465 0.580124 0.313333
0.589830 0.582888 0.318743
0.599186 0.586248 0.325060
0.628513 0.597580 0.344805
0.661249 0.611436 0.366738
0.696299 0.627423 0.390150
0.732501 0.644953 0.414286
0.768747 0.663352 0.438415
0.803859 0.681846 0.461764
0.836457 0.699514 0.483426
0.864785 0.715206 0.502247
0.887876 0.728203 0.517589
0.188999 0.626138 0.256921
0.188999 0.626138 0.256921
0.188999 0.626138 0.256921
0.188999 0.626138 0.256921
0.188999 0.626138 0.256921
0.188999 0.626138 0.256921
0.188999 0.626138 0.256921
0.188999 0.626138 0.256921
0.188999 0.626138 0.256921
0.188999 0.626138 0.256921
0.318437 0.587885 0.319167
0.367526 0.587878 0.316171
0.403006 0.587871 0.316142
0.438122 0.587862 0.316104
0.469446 0.587852 0.316063
0.496263 0.587843 0.316021
0.518498 0.587834 0.315982
0.536821 0.587827 0.315947
0.551896 0.587820 0.315917
0.564147 0.587815 0.315891
0.574157 0.587810 0.315868
0.582291 0.587806 0.315850
0.588757 0.587803 0.315834
0.595328 0.589768 0.319698
0.623359 0.600095 0.338574
0.655879 0.613337 0.360373
0.690926 0.628843 0.383794
0.727291 0.646033 0.408048
0.763842 0.664232 0.432389
0.799399 0.682667 0.456040
0.832596 0.700425 0.478105
0.861713 0.716376 0.497454
0.885375 0.729568 0.513178
0.191027 0.632860 0.259685
0.191027 0.632860 0.259685
0.191027 0.632860 0.259685
0.191027 0.632860 0.259685
0.191027 0.632860 0.259685
0.191027 0.632860 0.259685
0.191027 0.632860 0.259685
0.191027 0.632860 0.259685
0.191027 0.632860 0.259685
0.191027 0.632860 0.259685
0.191027 0.632860 0.259685
0.348694 0.594191 0.318284
0.389598 0.594182 0.318249
0.426228 0.594173 0.318207
0.460495 0.594162 0.318158
0.489729 0.594151 0.318110
0.513993 0.594141 0.318064
0.533840 0.594132 0.318024
0.550063 0.594125 0.317988
0.563223 0.594119 0.317958
0.573882 0.594114 0.317933
0.582533 0.594109 0.317911
0.589419 0.594106 0.317894
0.594712 0.594103 0.317880
0.617921 0.601891 0.332647
0.650161 0.614521 0.354270
0.685174 0.629554 0.377678
0.721689 0.646414 0.402042
0.758547 0.664427 0.426596
0.794561 0.682820 0.450557
0.828376 0.700690 0.473039
0.858311 0.716923 0.492935
0.882662 0.730381 0.509119
0.199661 0.661288 0.271326
0.199661 0.661288 0.271326
0.199661 0.661288 0.271326
0.199661 0.661288 0.271326
0.199661 0.661288 0.271326
0.199661 0.661288 0.271326
0.199661 0.661288 0.271326
0.199661 0.661288 0.271326
0.199661 0.661288 0.271326
0.199661 0.661288 0.271326
0.199661 0.661288 0.271326
0.329624 0.620885 0.336325
0.379581 0.620869 0.327088
0.418264 0.620854 0.327018
0.455612 0.620838 0.326940
0.487704 0.620822 0.326865
0.514415 0.620808 0.326796
0.536082 0.620796 0.326736
0.553664 0.620785 0.326684
0.567888 0.620777 0.326641
0.579304 0.620769 0.326605
0.588546 0.620763 0.326575
0.595909 0.620759 0.326551
0.601595 0.620755 0.326532
0.615419 0.620745 0.326485
0.644254 0.628209 0.340658
0.679183 0.641794 0.364032
0.715823 0.657446 0.388502
0.752978 0.674503 0.413274
0.789449 0.692197 0.437559
0.823894 0.709629 0.460477
0.854664 0.725708 0.480943
0.879828 0.739167 0.497680
0.209389 0.692963 0.284197
0.209389 0.692963 0.284197
0.209389 0.692963 0.284197
0.209389 0.692963 0.284197
0.209389 0.692963 0.284197
0.209389 0.692963 0.284197
0.209389 0.692963 0.284197
0.209389 0.692963 0.284197
0.209389 0.692963 0.284197
0.209389 0.692963 0.284197
0.209389 0.692963 0.284197
0.209389 0.692963 0.284197
0.365296 0.650613 0.336887
0.409754 0.650590 0.336775
0.449529 0.650567 0.336663
0.485039 0.650545 0.336552
0.514576 0.650525 0.336453
0.538426 0.650508 0.336368
0.557612 0.650495 0.336300
0.573061 0.650484 0.336244
0.585369 0.650475 0.336200
0.595283 0.650468 0.336163
0.603180 0.650462 0.336135
0.609303 0.650458 0.336112
0.619950 0.650450 0.336073
0.642427 0.650433 0.335990
0.672857 0.657261 0.349016
0.709593 0.671400 0.373577
0.747035 0.687233 0.398566
0.783965 0.703998 0.423182
0.819051 0.720803 0.446549
0.850676 0.736571 0.467602
0.876790 0.749978 0.484987
0.220044 0.727242 0.298009
0.220044 0.727242 0.298009
0.220044 0.727242 0.298009
0.220044 0.727242 0.298009
0.220044 0.727242 0.298009
0.220044 0.727242 0.298009
0.220044 0.727242 0.298009
0.220044 0.727242 0.298009
0.220044 0.727242 0.298009
0.220044 0.727242 0.298009
0.220044 0.727242 0.298009
0.220044 0.727242 0.298009
0.350960 0.682806 0.365968
0.399819 0.682778 0.347266
0.441885 0.682749 0.347117
0.481253 0.682721 0.346974
0.514022 0.682697 0.346854
0.540492 0.682677 0.346756
0.561583 0.682662 0.346677
0.578441 0.682649 0.346613
0.591815 0.682639 0.346562
0.602493 0.682631 0.346522
0.610994 0.682625 0.346489
0.617606 0.682620 0.346464
0.624949 0.682614 0.346436
0.647173 0.682597 0.346351
0.671897 0.682578 0.346255
0.702995 0.688422 0.357471
0.740706 0.702736 0.382672
0.778093 0.718318 0.407623
0.813827 0.734281 0.431449
0.846323 0.749563 0.453106
0.873532 0.762845 0.471240
0.231308 0.763090 0.312340
0.231308 0.763090 0.312340
0.231308 0.763090 0.312340
0.231308 0.763090 0.312340
0.231308 0.763090 0.312340
0.231308 0.763090 0.312340
0.231308 0.763090 0.312340
0.231308 0.763090 0.312340
0.231308 0.763090 0.312340
0.231308 0.763090 0.312340
0.231308 0.763090 0.312340
0.231308 0.763090 0.312340
0.231308 0.763090 0.312340
0.384409 0.716454 0.358205
0.432699 0.716418 0.358025
0.475493 0.716386 0.357864
0.512100 0.716358 0.357724
0.541741 0.716336 0.357610
0.565124 0.716318 0.357519
0.583639 0.716304 0.357447
0.598281 0.716292 0.357390
0.609839 0.716283 0.357345
0.619026 0.716276 0.357309
0.626186 0.716271 0.357281
0.631557 0.716267 0.357260
0.652170 0.716251 0.357179
0.676700 0.716231 0.357082
0.703012 0.716211 0.356978
0.733978 0.720846 0.365926
0.771814 0.734982 0.391214
0.808199 0.749881 0.415507
0.841577 0.764490 0.437782
0.869960 0.777525 0.456721
0.242795 0.799522 0.326868
0.242795 0.799522 0.326868
0.242795 0.799522 0.326868
0.242795 0.799522 0.326868
0.242795 0.799522 0.326868
0.242795 0.799522 0.326868
0.242795 0.799522 0.326868
0.242795 0.799522 0.326868
0.242795 0.799522 0.326868
0.242795 0.799522 0.326868
0.242795 0.799522 0.326868
0.242795 0.799522 0.326868
0.242795 0.799522 0.326868
0.374720 0.750668 0.399508
0.421645 0.750640 0.369105
0.467146 0.750605 0.368928
0.508309 0.750573 0.368767
