data/luts/JSZ-CEDAR E.cube
# Baked from the Lightroom preset "JSZ-CEDAR E" by scripts/lightroom-preset-lut.lisp
# Colour only; not in this LUT (add the node instead):
#   Clarity +20
#   Sharpening 60, radius 1.4
#   White balance 5050 K, tint +2, taken relative to 5500 K daylight
TITLE "JSZ-CEDAR E"
LUT_3D_SIZE 9
DOMAIN_MIN 0.0 0.0 0.0
DOMAIN_MAX 1.0 1.0 1.0
0.103424 0.095516 0.089468
0.163929 0.110666 0.104924
0.235223 0.128915 0.123676
0.328257 0.153089 0.148656
0.427817 0.179513 0.176133
0.508076 0.201846 0.199592
0.567867 0.219817 0.218725
0.624569 0.237735 0.237945
0.694273 0.259587 0.261338
0.142022 0.173015 0.122034
0.183629 0.184560 0.122401
0.246462 0.207135 0.155654
0.336646 0.240058 0.186144
0.433991 0.268115 0.210837
0.512987 0.290414 0.231281
0.572105 0.307559 0.246931
0.629037 0.324409 0.262203
0.698495 0.343495 0.281945
0.197141 0.267171 0.160980
0.220893 0.272665 0.159034
0.270638 0.282627 0.155315
0.355257 0.308377 0.195210
0.445049 0.352796 0.252831
0.520744 0.380823 0.276361
0.578138 0.399479 0.291010
0.635577 0.417644 0.305715
0.704852 0.438860 0.323321
0.262778 0.388864 0.212335
0.279263 0.392348 0.210295
0.317785 0.399866 0.205808
0.386995 0.411760 0.198433
0.468186 0.431302 0.227106
0.537600 0.459270 0.271413
0.590872 0.484235 0.304900
0.647969 0.512963 0.340346
0.715215 0.547537 0.379748
0.323894 0.492146 0.254375
0.337354 0.494807 0.252466
0.372617 0.501390 0.247655
0.430181 0.511190 0.240280
0.495359 0.521258 0.232473
0.557228 0.533800 0.248005
0.606627 0.550191 0.279179
0.665111 0.573294 0.315620
0.730891 0.602480 0.356041
0.379758 0.567884 0.281852
0.392960 0.570331 0.279878
0.424932 0.576004 0.275236
0.473066 0.583984 0.268563
0.526784 0.592259 0.261478
0.577916 0.599656 0.255026
0.621158 0.607371 0.261591
0.681859 0.625791 0.299601
0.745831 0.649690 0.339227
0.441971 0.643377 0.307058
0.453407 0.645387 0.305294
0.479960 0.649918 0.301283
0.518552 0.656204 0.295641
0.562438 0.662997 0.289471
0.604546 0.669238 0.283780
0.640382 0.674402 0.279109
0.700990 0.684601 0.284403
0.762870 0.703128 0.323075
0.508957 0.728588 0.335805
0.517836 0.730094 0.334403
0.538158 0.733475 0.331244
0.568441 0.738363 0.326650
0.603244 0.743786 0.321528
0.637134 0.748907 0.316692
0.673313 0.754212 0.311674
0.726615 0.761677 0.304482
0.783088 0.770337 0.304598
0.572622 0.813755 0.365245
0.579284 0.814863 0.364180
0.594803 0.817413 0.361725
0.618124 0.821170 0.358100
0.645368 0.825457 0.353961
0.672098 0.829581 0.349999
0.710420 0.835299 0.344443
0.758156 0.842157 0.337719
0.809302 0.849241 0.330743
0.141424 0.123716 0.183651
0.178741 0.123781 0.183917
0.239313 0.136671 0.197368
0.331600 0.159764 0.223494
0.429791 0.184099 0.250179
0.509167 0.206012 0.271800
0.568428 0.223635 0.288385
0.625269 0.241318 0.304576
0.694809 0.262802 0.324251
0.150080 0.174938 0.174244
0.181070 0.175110 0.174522
0.243965 0.190209 0.190289
0.335324 0.212856 0.213658
0.431769 0.237445 0.239017
0.510059 0.257823 0.260099
0.568680 0.273623 0.276517
0.625725 0.289319 0.292864
0.695099 0.308346 0.312653
0.201399 0.259777 0.191120
0.222808 0.266957 0.191812
0.273010 0.280798 0.193017
0.355728 0.308749 0.235534
0.444836 0.345446 0.274214
0.519797 0.367944 0.293687
0.576474 0.384176 0.309045
0.633830 0.400171 0.324809
0.702669 0.418901 0.343583
0.265740 0.388687 0.211510
0.281924 0.392073 0.209528
0.320489 0.399538 0.205071
0.389546 0.411331 0.197760
0.469891 0.431267 0.228520
0.538587 0.459189 0.272353
0.591405 0.484037 0.305545
0.648664 0.512915 0.341087
0.715807 0.547024 0.379482
0.326329 0.492205 0.253789
0.339757 0.494843 0.251895
0.375077 0.501399 0.247099
0.432213 0.511083 0.239805
0.496801 0.521032 0.232090
0.558175 0.533717 0.248781
0.607158 0.550067 0.279684
0.665828 0.573315 0.316235
0.731465 0.602499 0.356561
0.382191 0.568122 0.281367
0.395359 0.570550 0.279405
0.427110 0.576160 0.274810
0.474748 0.584032 0.268222
0.527990 0.592216 0.261212
0.578722 0.599547 0.254818
0.621664 0.607313 0.262001
0.682574 0.625870 0.300136
0.746416 0.649778 0.339676
0.444088 0.643503 0.306596
0.455422 0.645489 0.304853
0.481697 0.649959 0.300894
0.519893 0.656166 0.295320
0.563396 0.662890 0.289213
0.605180 0.669077 0.283571
0.641163 0.674257 0.278884
0.701669 0.684561 0.284936
0.763436 0.703125 0.323531
0.510612 0.728676 0.335439
0.519386 0.730160 0.334057
0.539496 0.733500 0.330936
0.569500 0.738335 0.326391
0.604002 0.743706 0.321318
0.637636 0.748785 0.316522
0.673995 0.754112 0.311482
0.727194 0.761557 0.304308
0.783644 0.770303 0.305031
0.573847 0.813785 0.364956
0.580445 0.814881 0.363902
0.595819 0.817404 0.361473
0.618932 0.821123 0.357884
0.645961 0.825374 0.353781
0.672484 0.829464 0.349852
0.711019 0.835210 0.344268
0.758673 0.842052 0.337559
0.809778 0.849127 0.330591
0.196819 0.157761 0.297421
0.223367 0.157810 0.297623
0.267402 0.157920 0.298060
0.340130 0.167300 0.308120
0.434835 0.194886 0.337609
0.512043 0.214053 0.360037
0.570006 0.228490 0.376869
0.627239 0.242772 0.393518
0.696346 0.263835 0.413268
0.201961 0.205924 0.291295
0.225791 0.206082 0.291500
0.268349 0.206472 0.291953
0.343698 0.219637 0.305394
0.436764 0.244679 0.332801
0.512906 0.264537 0.354089
0.570217 0.280022 0.370223
0.627625 0.295817 0.386457
0.696575 0.314744 0.405795
0.211440 0.267790 0.274506
0.231332 0.267905 0.274704
0.271337 0.268190 0.275167
0.353235 0.286912 0.294966
0.442299 0.308644 0.317650
0.515875 0.327508 0.337176
0.571621 0.342161 0.352386
0.629562 0.357555 0.368360
0.698142 0.375745 0.387133
0.277922 0.376910 0.301316
0.292918 0.375448 0.302478
0.322149 0.384133 0.300104
0.393210 0.407106 0.305653
0.469028 0.429263 0.340077
0.533342 0.459905 0.380459
0.585391 0.478577 0.396345
0.643903 0.496463 0.410808
0.711402 0.515963 0.427612
0.334108 0.482799 0.313044
0.346706 0.486166 0.312160
0.380206 0.494488 0.309890
0.435206 0.506668 0.306433
0.499436 0.519298 0.302838
0.559415 0.532714 0.323467
0.606178 0.548965 0.353743
0.664262 0.573444 0.390958
0.728645 0.604014 0.431867
0.388371 0.568712 0.280139
0.401412 0.571087 0.278214
0.432564 0.576531 0.273743
0.478947 0.584135 0.267367
0.531012 0.592097 0.260541
0.580750 0.599263 0.254292
0.622937 0.607164 0.263038
0.684385 0.626070 0.301492
0.747900 0.650001 0.340816
0.449393 0.643803 0.305439
0.460461 0.645725 0.303748
0.486025 0.650042 0.299918
0.523250 0.656057 0.294511
0.565795 0.662609 0.288560
0.606770 0.668663 0.283042
0.643141 0.673885 0.278313
0.703391 0.684462 0.286287
0.764872 0.703118 0.324688
0.514734 0.728880 0.334526
0.523245 0.730312 0.333191
0.542841 0.733551 0.330162
0.572149 0.738255 0.325738
0.605906 0.743497 0.320787
0.638894 0.748471 0.316093
0.675724 0.753855 0.310994
0.728666 0.761252 0.303867
0.785055 0.770219 0.306131
0.576909 0.813850 0.364231
0.583349 0.814916 0.363205
0.598362 0.817372 0.360840
0.620956 0.820998 0.357340
0.647449 0.825157 0.353326
0.673453 0.829164 0.349481
0.712538 0.834981 0.343822
0.759984 0.841784 0.337151
0.810990 0.848836 0.330205
0.259453 0.197780 0.431205
0.279262 0.197811 0.431341
0.319182 0.197882 0.431648
0.380457 0.198003 0.432159
0.443704 0.198821 0.433477
0.517151 0.221144 0.456713
0.572796 0.238056 0.474518
0.630671 0.254673 0.492763
0.699072 0.271656 0.512990
0.263050 0.238920 0.428221
0.281897 0.239077 0.428359
0.321148 0.239469 0.428676
0.381636 0.240156 0.429203
0.445556 0.243607 0.432364
0.518007 0.266758 0.455318
0.573033 0.284907 0.472952
0.631131 0.301018 0.490232
0.699348 0.319874 0.509931
0.271264 0.306742 0.419808
0.288351 0.306839 0.419942
0.326438 0.307082 0.420262
0.384822 0.307508 0.420792
0.450660 0.315200 0.428649
0.520729 0.336489 0.450603
0.574323 0.350552 0.466230
0.633050 0.366049 0.482824
0.700963 0.383967 0.501493
0.283264 0.389618 0.402859
0.298435 0.389693 0.402990
0.335466 0.389884 0.403313
0.389888 0.390214 0.403840
0.459817 0.405244 0.419564
0.526045 0.421562 0.436704
0.577271 0.433919 0.449462
0.637241 0.449220 0.464980
0.704537 0.466482 0.482356
0.343664 0.480638 0.414547
0.357491 0.479810 0.414714
0.388839 0.477236 0.415046
0.430573 0.485456 0.414461
0.495759 0.507596 0.425439
0.555178 0.526358 0.451790
0.598194 0.545316 0.478601
0.656728 0.567149 0.499431
0.721679 0.585778 0.514170
0.410303 0.545914 0.424951
0.417964 0.546515 0.422232
0.437961 0.555924 0.416582
0.479744 0.569123 0.417647
0.530479 0.583296 0.418680
0.582206 0.596305 0.419652
0.623294 0.605189 0.432399
0.681609 0.623941 0.468226
0.741898 0.649858 0.505484
0.458789 0.633067 0.395709
0.468785 0.635456 0.394870
0.491986 0.640806 0.392982
0.526616 0.648355 0.390318
0.567190 0.656667 0.387465
0.607196 0.664427 0.385024
0.645319 0.671514 0.383110
0.705655 0.683521 0.396569
0.764843 0.701873 0.434348
0.521769 0.729180 0.332954
0.529843 0.730525 0.331698
0.548604 0.733600 0.328818
0.576718 0.738084 0.324599
0.609211 0.743107 0.319855
0.641073 0.747899 0.315337
0.678782 0.753390 0.310129
0.731278 0.760704 0.303081
0.787561 0.770078 0.308087
0.582181 0.813930 0.362971
0.588350 0.814945 0.361994
0.602746 0.817287 0.359737
0.624451 0.820756 0.356390
0.650020 0.824758 0.352529
0.675142 0.828621 0.348824
0.715224 0.834568 0.343032
0.762313 0.841303 0.336427
0.813150 0.848317 0.329518
0.313585 0.227623 0.531011
0.329734 0.227643 0.531106
0.367249 0.227691 0.531333
0.423949 0.227769 0.531696
0.480940 0.227867 0.532125
0.529039 0.227980 0.532587
0.577046 0.239391 0.544543
0.636030 0.257313 0.563179
0.703298 0.277742 0.584420
0.316772 0.253954 0.529680
0.332508 0.254157 0.529777
0.369796 0.254665 0.530012
0.425604 0.255550 0.530385
0.481631 0.256828 0.530828
0.529085 0.258501 0.531311
0.577409 0.272586 0.544046
0.636600 0.292846 0.562767
0.703691 0.315798 0.583936
0.324215 0.331852 0.526328
0.339165 0.331936 0.526419
0.375953 0.332150 0.526646
0.429517 0.332524 0.526998
0.483252 0.333067 0.527416
0.529192 0.333793 0.527875
0.578466 0.348657 0.542505
0.638395 0.367783 0.561252
0.705279 0.387226 0.581256
0.336882 0.419767 0.519119
0.351676 0.419831 0.519201
0.386822 0.419990 0.519392
0.436441 0.420264 0.519675
0.486505 0.420659 0.520013
0.532920 0.424171 0.523401
0.581247 0.439273 0.538338
0.642577 0.455695 0.555918
0.708913 0.472671 0.573737
0.356204 0.492158 0.505866
0.370175 0.492194 0.505920
0.402028 0.492286 0.506048
0.446021 0.492444 0.506247
0.491337 0.492677 0.506511
0.540989 0.502329 0.516274
0.586090 0.514612 0.528810
0.649426 0.529879 0.544340
0.714782 0.544951 0.559443
0.410176 0.555991 0.509318
0.421762 0.555478 0.509155
0.447159 0.554286 0.508630
0.480486 0.554390 0.507602
0.517989 0.559337 0.507887
0.564212 0.571818 0.516562
0.605592 0.584861 0.531995
0.670037 0.612278 0.564712
0.733471 0.632834 0.582711
0.474243 0.618317 0.519799
0.483100 0.617436 0.520124
0.502237 0.615236 0.520863
0.522605 0.619763 0.515518
0.560334 0.634560 0.520940
0.600059 0.648576 0.526018
0.643348 0.662515 0.531038
0.705095 0.679100 0.551303
0.759452 0.698031 0.583346
0.530157 0.699593 0.519311
0.536797 0.701851 0.519373
0.552555 0.707042 0.519507
0.576954 0.714675 0.519699
0.606347 0.723328 0.519941
0.636255 0.731642 0.520267
0.676352 0.742141 0.520634
0.731772 0.755655 0.520983
0.789635 0.768160 0.533294
0.589440 0.800039 0.488899
0.594917 0.801300 0.488440
0.607779 0.804217 0.487390
0.627390 0.808556 0.485878
0.650898 0.813604 0.484228
0.674293 0.818487 0.482852
0.715619 0.826773 0.480184
0.762655 0.835774 0.477426
0.814642 0.845284 0.474703
0.362644 0.249481 0.604132
0.377440 0.249499 0.604219
0.412825 0.249544 0.604433
0.462924 0.249614 0.604758
0.513389 0.249703 0.605143
0.557090 0.249805 0.605564
0.591194 0.249922 0.606014
0.643275 0.259545 0.616198
0.709146 0.279546 0.636971
0.365719 0.249012 0.602571
0.380483 0.249030 0.602658
0.415425 0.249075 0.602870
0.464654 0.249145 0.603193
0.514341 0.249233 0.603576
0.557492 0.249911 0.604004
0.591194 0.252987 0.604495
0.644156 0.266981 0.615501
0.709805 0.291191 0.636266
0.372331 0.344459 0.599879
0.386868 0.344546 0.599964
0.420607 0.344763 0.600165
0.467671 0.345140 0.600470
0.515482 0.345691 0.600835
0.557321 0.346427 0.601236
0.590172 0.347361 0.601669
0.645662 0.360685 0.614489
0.711181 0.381656 0.634787
0.384941 0.435439 0.593605
0.398783 0.435500 0.593665
0.430279 0.435654 0.593803
0.473724 0.435921 0.594009
0.518577 0.436314 0.594265
0.558283 0.436843 0.594567
0.589669 0.437521 0.594924
0.649738 0.453997 0.611009
0.714806 0.474080 0.630661
0.404387 0.512744 0.585742
0.416899 0.512773 0.585761
0.445008 0.512845 0.585802
0.483559 0.512972 0.585865
0.524372 0.513161 0.585950
0.561053 0.513422 0.586064
0.591058 0.514482 0.586936
0.656509 0.533639 0.606142
0.720696 0.549509 0.623004
0.428577 0.565296 0.576360
0.439257 0.565310 0.576364
0.462990 0.565346 0.576374
0.496180 0.565413 0.576398
0.532191 0.565515 0.576446
0.565208 0.565660 0.576534
0.601684 0.572317 0.583097
0.665667 0.589785 0.600497
0.728552 0.604863 0.615509
0.479673 0.624851 0.582871
0.487833 0.624513 0.582687
0.505910 0.624012 0.582213
0.531472 0.624029 0.581517
0.559845 0.625075 0.580983
0.587358 0.627701 0.580806
0.626660 0.637048 0.587721
0.687016 0.656280 0.609257
0.748331 0.680801 0.635349
0.543340 0.699430 0.603155
0.549522 0.698871 0.603229
0.563463 0.697519 0.603370
0.582752 0.696350 0.602970
0.602582 0.697163 0.600683
0.625413 0.707885 0.601199
0.668099 0.723229 0.608199
0.724980 0.741709 0.616477
0.784947 0.759011 0.636080
0.607133 0.773599 0.625455
0.611771 0.773015 0.625866
0.622380 0.771553 0.626899
0.626511 0.777747 0.616190
0.646897 0.785658 0.617915
0.668989 0.793788 0.619700
0.711123 0.808208 0.622665
0.759262 0.823345 0.625706
0.815090 0.839530 0.628879
0.423801 0.277837 0.698991
0.437323 0.277852 0.699065
0.467960 0.277888 0.699237
0.510102 0.277942 0.699493
0.553852 0.278010 0.699795
0.592702 0.278089 0.700123
0.623463 0.278177 0.700469
0.668003 0.278290 0.700920
0.716589 0.281841 0.704897
0.426772 0.277498 0.697863
0.440099 0.277513 0.697936
0.470228 0.277548 0.698107
0.511622 0.277602 0.698360
0.554759 0.277670 0.698660
0.593152 0.277748 0.698987
0.623596 0.277836 0.699332
0.668327 0.277950 0.699785
0.717362 0.282075 0.704344
0.433118 0.360196 0.696077
0.445939 0.360285 0.696144
0.474807 0.360507 0.696295
0.514403 0.360893 0.696512
0.556068 0.361461 0.696767
0.593375 0.362224 0.697046
0.623077 0.363196 0.697349
0.668375 0.364397 0.697730
0.718706 0.371276 0.703626
0.444750 0.455778 0.691656
0.456681 0.455836 0.691689
0.483399 0.455983 0.691764
0.520133 0.456243 0.691877
0.559372 0.456629 0.692025
0.594860 0.457155 0.692207
0.623873 0.457833 0.692434
0.669638 0.458668 0.692698
0.722279 0.467714 0.701014
0.461448 0.537598 0.683655
0.472075 0.537626 0.683662
0.495685 0.537698 0.683683
0.528737 0.537829 0.683722
0.564617 0.538027 0.683793
0.597534 0.538303 0.683907
0.627420 0.538664 0.684073
0.672074 0.539105 0.684248
0.728201 0.551613 0.696295
0.481108 0.591768 0.671974
0.490050 0.591781 0.671971
0.510132 0.591817 0.671967
0.539048 0.591884 0.671973
0.570878 0.591990 0.672009
0.600619 0.592143 0.672095
0.631924 0.592344 0.672225
0.675111 0.592590 0.672368
0.736008 0.610337 0.689768
0.501206 0.636860 0.656163
0.508551 0.636874 0.656157
0.525360 0.636912 0.656149
0.549875 0.636983 0.656155
0.577394 0.637096 0.656196
0.603469 0.637260 0.656294
0.636967 0.637472 0.656421
0.685530 0.644631 0.663405
0.745691 0.661223 0.680015
0.548884 0.704985 0.657859
0.554513 0.704774 0.657727
0.567318 0.704420 0.657403
0.585926 0.704233 0.656916
0.607181 0.704519 0.656427
0.627650 0.705311 0.656138
0.662522 0.707592 0.656032
0.710510 0.718937 0.663736
0.768239 0.736883 0.683707
0.608391 0.779212 0.674742
0.612650 0.778841 0.674780
0.622462 0.777919 0.674876
0.636797 0.776795 0.674802
0.652756 0.776137 0.674340
0.671922 0.776261 0.673311
0.704775 0.789872 0.673306
0.751915 0.806479 0.681251
0.807659 0.824412 0.689745
0.487443 0.305663 0.792067
0.498571 0.305675 0.792126
0.523379 0.305703 0.792263
0.557765 0.305747 0.792466
0.594864 0.305804 0.792714
0.628689 0.305869 0.792982
0.658034 0.305943 0.793272
0.702935 0.306037 0.793647
0.746898 0.306144 0.794054
0.489889 0.305371 0.791097
0.500826 0.305383 0.791156
0.525178 0.305411 0.791290
0.559034 0.305455 0.791492
0.595640 0.305511 0.791738
0.629086 0.305576 0.792005
0.658553 0.305650 0.792296
0.703280 0.305745 0.792671
0.747141 0.305851 0.793078
0.495217 0.369757 0.789382
0.505686 0.369855 0.789427
0.528936 0.370103 0.789530
0.561556 0.370538 0.789683
0.597003 0.371182 0.789871
0.629559 0.372052 0.790084
0.659398 0.373162 0.790330
0.703763 0.374526 0.790630
0.747445 0.376145 0.790963
0.504831 0.471906 0.785436
0.514478 0.471965 0.785452
0.535957 0.472114 0.785491
0.566576 0.472380 0.785554
0.600075 0.472779 0.785643
0.631124 0.473327 0.785766
0.661686 0.474033 0.785925
0.705425 0.474904 0.786102
0.748788 0.475950 0.786311
0.518581 0.560123 0.778376
0.527098 0.560150 0.778372
0.546381 0.560221 0.778364
0.574244 0.560349 0.778363
0.605034 0.560546 0.778382
0.633924 0.560823 0.778440
0.665646 0.561182 0.778525
0.708418 0.561623 0.778610
0.751238 0.562159 0.778741
0.534686 0.617865 0.768461
0.542044 0.617877 0.768451
0.558883 0.617911 0.768430
0.583436 0.617975 0.768413
0.610988 0.618077 0.768421
0.637088 0.618225 0.768473
0.670542 0.618416 0.768541
0.711994 0.618653 0.768625
0.754038 0.618944 0.768754
0.551739 0.663745 0.755685
0.557925 0.663759 0.755677
0.572165 0.663795 0.755664
0.593152 0.663863 0.755657
0.617198 0.663970 0.755675
0.640138 0.664124 0.755738
0.676132 0.664319 0.755794
0.716054 0.664565 0.755883
0.757199 0.664866 0.756016
0.568526 0.719041 0.739505
0.573577 0.719053 0.739502
0.585283 0.719082 0.739499
0.602819 0.719138 0.739505
0.623211 0.719226 0.739539
0.645401 0.719352 0.739608
0.682458 0.719508 0.739664
0.720724 0.719708 0.739765
0.766296 0.725228 0.745110
0.610464 0.786332 0.740256
0.614327 0.786208 0.740174
0.623337 0.785968 0.739977
0.636884 0.785734 0.739678
0.652496 0.785669 0.739359
0.676876 0.785953 0.738905
0.709239 0.787076 0.738572
0.744623 0.789217 0.738808
0.790552 0.798384 0.745255
0.553528 0.337246 0.897664
0.562071 0.337255 0.897705
0.581385 0.337276 0.897798
0.609279 0.337309 0.897943
0.640081 0.337354 0.898125
0.668963 0.337409 0.898337
0.700448 0.337476 0.898591
0.743072 0.337559 0.898902
0.785724 0.337655 0.899249
0.555338 0.336951 0.896681
0.563727 0.336960 0.896721
0.582754 0.336980 0.896814
0.610264 0.337014 0.896957
0.640687 0.337058 0.897139
0.669257 0.337113 0.897350
0.700911 0.337181 0.897605
0.743386 0.337264 0.897915
0.785951 0.337359 0.898262
0.559527 0.371224 0.894462
0.567570 0.371379 0.894495
0.585908 0.371768 0.894571
0.612490 0.372451 0.894691
0.642006 0.373457 0.894847
0.669817 0.374799 0.895034
0.701943 0.376480 0.895263
0.744088 0.378493 0.895531
0.786481 0.380824 0.895832
0.566825 0.487707 0.890172
0.574357 0.487769 0.890179
0.591577 0.487927 0.890198
0.616649 0.488209 0.890234
0.644703 0.488635 0.890296
0.671254 0.489221 0.890394
0.704321 0.489976 0.890514
0.745956 0.490909 0.890649
0.788099 0.492031 0.890815
0.577680 0.583853 0.882687
0.584510 0.583881 0.882678
0.600181 0.583955 0.882661
0.623138 0.584091 0.882649
0.649132 0.584300 0.882661
0.673827 0.584595 0.882716
0.708313 0.584973 0.882776
0.749095 0.585442 0.882857
0.790745 0.586012 0.882981
0.590438 0.645521 0.872724
0.596425 0.645535 0.872717
0.610225 0.645572 0.872704
0.630601 0.645641 0.872696
0.654038 0.645750 0.872712
0.676435 0.645906 0.872772
0.712943 0.646102 0.872820
0.752588 0.646350 0.872900
0.793568 0.646653 0.873024
0.603925 0.691456 0.860267
0.609017 0.691470 0.860263
0.620811 0.691508 0.860256
0.638462 0.691578 0.860258
0.658989 0.691689 0.860284
0.681054 0.691845 0.860343
0.718197 0.692040 0.860387
0.756522 0.692288 0.860472
0.796727 0.692592 0.860599
0.617368 0.747893 0.844820
0.621577 0.747905 0.844819
0.631417 0.747935 0.844820
0.646402 0.747992 0.844833
0.663820 0.748081 0.844872
0.689211 0.748203 0.844920
0.724270 0.748358 0.844975
0.761162 0.748557 0.845070
0.800536 0.748801 0.845207
0.629667 0.801932 0.826484
0.633118 0.801943 0.826486
0.641198 0.801972 0.826496
0.653451 0.802025 0.826521
0.667977 0.802108 0.826574
0.697890 0.802214 0.826610
0.730843 0.802357 0.826680
0.766274 0.802538 0.826789
0.804823 0.802761 0.826938
