data/luts/JSZ-CEDAR A.cube
# Baked from the Lightroom preset "JSZ-CEDAR A" by scripts/lightroom-preset-lut.lisp
# Colour only; not in this LUT (add the node instead):
#   Clarity -5
#   Vignette -17, midpoint 35, feather 66, roundness +14
#   Grain 9, size 25
TITLE "JSZ-CEDAR A"
LUT_3D_SIZE 5
DOMAIN_MIN 0.0 0.0 0.0
DOMAIN_MAX 1.0 1.0 1.0
0.060910 0.067996 0.080277
0.202043 0.127380 0.140139
0.537718 0.277102 0.296045
0.702245 0.353930 0.388563
0.845882 0.423882 0.482466
0.181600 0.240071 0.220366
0.244717 0.248374 0.157845
0.546818 0.348387 0.272904
0.696928 0.368868 0.365400
0.843136 0.417342 0.457039
0.417884 0.560935 0.494675
0.385835 0.576172 0.391823
0.611913 0.534897 0.280615
0.742923 0.559741 0.321746
0.874617 0.619660 0.381609
0.517291 0.723598 0.599900
0.485800 0.739775 0.492583
0.700028 0.774543 0.406148
0.785454 0.663788 0.335694
0.895856 0.684555 0.371365
0.599443 0.870389 0.672943
0.587980 0.889816 0.563378
0.747569 0.917894 0.503926
0.902089 0.933645 0.458757
0.944457 0.805400 0.396432
0.160622 0.161763 0.271520
0.268855 0.200977 0.288081
0.555815 0.306876 0.398126
0.718244 0.382933 0.491334
0.860572 0.452242 0.583969
0.154733 0.259020 0.265914
0.234920 0.245903 0.250749
0.545741 0.360584 0.379169
0.713902 0.390964 0.465578
0.858036 0.446088 0.561616
0.414321 0.561746 0.485986
0.384532 0.576611 0.382543
0.611117 0.531988 0.291678
0.742705 0.580618 0.384530
0.865581 0.633534 0.485990
0.514509 0.724526 0.592106
0.484913 0.740997 0.482345
0.703635 0.774466 0.404788
0.785151 0.659881 0.334105
0.896644 0.684828 0.371749
0.596888 0.871570 0.664709
0.594511 0.891250 0.560217
0.750195 0.918070 0.502959
0.904194 0.933654 0.458064
0.944322 0.803680 0.395684
0.341446 0.320225 0.587715
0.444335 0.353055 0.596153
0.621186 0.389099 0.612583
0.722795 0.422515 0.633041
0.869446 0.484485 0.698306
0.332099 0.396794 0.589979
0.405810 0.397172 0.576852
0.608987 0.435555 0.603106
0.725236 0.424027 0.628649
0.870895 0.483491 0.693177
0.344293 0.615799 0.631429
0.433179 0.616588 0.625411
0.586201 0.591002 0.584213
0.721454 0.626143 0.638410
0.857516 0.664849 0.705156
0.530789 0.742640 0.690892
0.596218 0.718144 0.675641
0.656680 0.751379 0.595929
0.781681 0.732326 0.586628
0.887999 0.775425 0.652926
0.587807 0.875824 0.634132
0.614791 0.895346 0.550906
0.758391 0.918583 0.499949
0.910835 0.933662 0.455873
0.943879 0.798172 0.393333
0.474024 0.417067 0.761933
0.578627 0.450959 0.769471
0.740230 0.506891 0.785571
0.801534 0.493210 0.786216
0.862555 0.507362 0.781925
0.454663 0.479929 0.754512
0.553402 0.493359 0.759280
0.730863 0.544212 0.778372
0.796850 0.489509 0.778880
0.863598 0.507024 0.779957
0.450678 0.664857 0.797136
0.544745 0.667096 0.785328
0.654875 0.647145 0.747592
0.768174 0.678353 0.773925
0.872137 0.690234 0.808162
0.484325 0.788385 0.810762
0.587292 0.793351 0.806460
0.691049 0.786157 0.784558
0.759862 0.759253 0.762006
0.873823 0.787698 0.804777
0.654826 0.916040 0.881497
0.718309 0.899025 0.864243
0.773336 0.861499 0.831208
0.801072 0.887527 0.786431
0.929678 0.920478 0.798369
0.610498 0.500613 0.892139
0.715241 0.536303 0.899516
0.826668 0.580154 0.909180
0.895444 0.578282 0.920347
0.932334 0.565737 0.903685
0.588763 0.537550 0.885596
0.700643 0.568652 0.894475
0.821002 0.594730 0.906346
0.894889 0.576786 0.918595
0.930580 0.564331 0.900866
0.582422 0.719696 0.918028
0.656047 0.719285 0.898589
0.741976 0.715951 0.879380
0.850221 0.746169 0.899429
0.921291 0.721662 0.914051
0.611328 0.825281 0.932950
0.677222 0.825939 0.924670
0.750557 0.815793 0.903555
0.808573 0.797592 0.889949
0.900868 0.816083 0.908970
0.675950 0.949844 0.964710
0.723768 0.951200 0.961727
0.793028 0.949898 0.952572
0.844838 0.929791 0.918435
0.904171 0.913948 0.904246
