data/luts/JSZ-CEDAR C.cube
# Baked from the Lightroom preset "JSZ-CEDAR C" by scripts/lightroom-preset-lut.lisp
# Colour only; not in this LUT (add the node instead):
#   Clarity +30
#   Vignette -12, midpoint 0, feather 74, roundness +14
#   Grain 8, size 33
TITLE "JSZ-CEDAR C"
LUT_3D_SIZE 5
DOMAIN_MIN 0.0 0.0 0.0
DOMAIN_MAX 1.0 1.0 1.0
0.148072 0.148072 0.148072
0.231229 0.174644 0.182650
0.399876 0.209273 0.225542
0.600179 0.250466 0.279048
0.802027 0.286039 0.346091
0.203638 0.252729 0.220482
0.240003 0.251619 0.206570
0.354820 0.269491 0.230630
0.580590 0.341773 0.315978
0.790707 0.356183 0.363164
0.320793 0.499732 0.403210
0.323132 0.498917 0.362222
0.452279 0.496287 0.332719
0.537408 0.471796 0.343845
0.660335 0.505234 0.377940
0.432440 0.731476 0.560451
0.435749 0.730977 0.507330
0.519604 0.729376 0.444629
0.674520 0.726336 0.453513
0.760460 0.688481 0.474066
0.548423 0.965680 0.675206
0.551464 0.965368 0.627997
0.595616 0.964364 0.558397
0.738253 0.962463 0.566620
0.901869 0.959508 0.576254
0.199042 0.166102 0.251184
0.268835 0.175477 0.270579
0.432590 0.201569 0.273259
0.624464 0.236697 0.325936
0.823814 0.269789 0.394249
0.194352 0.233176 0.231687
0.225816 0.225816 0.225816
0.419790 0.280376 0.285325
0.613612 0.310996 0.339782
0.815861 0.334430 0.406407
0.341839 0.494042 0.440144
0.347157 0.493209 0.402882
0.457572 0.490519 0.365125
0.524905 0.458937 0.358759
0.700400 0.523774 0.433248
0.431873 0.728019 0.541596
0.435266 0.727517 0.487668
0.530215 0.725906 0.443704
0.675884 0.722849 0.477115
0.755642 0.685628 0.498490
0.548460 0.963515 0.657717
0.551353 0.963202 0.612918
0.604489 0.962195 0.557944
0.744375 0.960287 0.566014
0.905356 0.957320 0.579543
0.258663 0.181235 0.482961
0.320906 0.184898 0.496176
0.530358 0.195238 0.535127
0.670895 0.210533 0.495794
0.874546 0.236443 0.512292
0.247078 0.230702 0.467159
0.314612 0.235794 0.483425
0.528074 0.248061 0.528586
0.677458 0.258293 0.497051
0.873513 0.274615 0.517238
0.294976 0.451830 0.461891
0.338783 0.453956 0.460236
0.435459 0.435459 0.435459
0.637040 0.496167 0.511216
0.837134 0.535909 0.567946
0.483750 0.712932 0.671289
0.528218 0.714929 0.673932
0.561418 0.714641 0.594096
0.674248 0.711525 0.584673
0.714373 0.649882 0.551853
0.608620 0.956518 0.750131
0.614532 0.956200 0.719411
0.631321 0.955181 0.654458
0.741673 0.953247 0.659065
0.897074 0.950240 0.695185
0.387301 0.202335 0.714132
0.454610 0.204978 0.725312
0.616910 0.211307 0.753749
0.784682 0.216795 0.776889
0.899835 0.229464 0.710459
0.399857 0.202501 0.711816
0.465850 0.205102 0.722834
0.624407 0.211316 0.750837
0.781147 0.216619 0.765622
0.903500 0.229887 0.706212
0.383140 0.442651 0.667899
0.421512 0.442718 0.670814
0.559997 0.448825 0.712066
0.762145 0.466175 0.765475
0.920705 0.477409 0.734499
0.455026 0.663283 0.676059
0.485962 0.665187 0.675429
0.543425 0.660254 0.656904
0.637283 0.637283 0.637283
0.841124 0.693760 0.710725
0.644429 0.934389 0.893564
0.670163 0.935339 0.894104
0.738582 0.938572 0.897622
0.778671 0.936867 0.819058
0.889574 0.928769 0.787154
0.558702 0.224827 0.954847
0.600888 0.226157 0.961568
0.710544 0.229643 0.979843
0.879276 0.234039 1.000000
1.000000 0.235922 1.000000
0.566591 0.224853 0.953273
0.607968 0.226162 0.959900
0.716231 0.229614 0.978035
0.883205 0.234108 1.000000
1.000000 0.235982 1.000000
0.529358 0.388460 0.925232
0.569104 0.389952 0.933192
0.676824 0.393114 0.955233
0.855905 0.396425 0.991794
1.000000 0.389626 1.000000
0.535399 0.656356 0.879946
0.556805 0.657171 0.881756
0.618590 0.657535 0.886459
0.769047 0.668723 0.931470
0.996419 0.702236 1.000000
0.604414 0.878342 0.896035
0.623547 0.879426 0.895761
0.674082 0.881706 0.890401
0.742569 0.866601 0.859401
0.845403 0.845403 0.845403
