data/luts/JSZ-CEDAR E.cube
# Baked from the Lightroom preset "JSZ-CEDAR E" by scripts/lightroom-preset-lut.lisp
# Colour only; not in this LUT (add the node instead):
#   Clarity +20
#   Sharpening 60, radius 1.4
#   White balance 5050 K, tint +2, taken relative to 5500 K daylight
TITLE "JSZ-CEDAR E"
LUT_3D_SIZE 33
DOMAIN_MIN 0.0 0.0 0.0
DOMAIN_MAX 1.0 1.0 1.0
0.103424 0.095516 0.089468
0.116399 0.099285 0.093300
0.130391 0.102727 0.096808
0.147283 0.106554 0.100719
0.163929 0.110666 0.104924
0.180731 0.114929 0.109292
0.198051 0.119350 0.113831
0.216158 0.123997 0.118610
0.235223 0.128915 0.123676
0.255344 0.134128 0.129054
0.277794 0.139953 0.135069
0.302461 0.146362 0.141693
0.328257 0.153089 0.148656
0.354317 0.159922 0.155739
0.379972 0.166696 0.162775
0.404612 0.173261 0.169608
0.427817 0.179513 0.176133
0.449785 0.185502 0.182399
0.470528 0.191231 0.188409
0.489971 0.196682 0.194143
0.508076 0.201846 0.199592
0.524838 0.206721 0.204754
0.540381 0.211339 0.209661
0.554766 0.215714 0.214329
0.567867 0.219817 0.218725
0.579746 0.223661 0.222865
0.590540 0.227283 0.226785
0.606253 0.232165 0.232008
0.624569 0.237735 0.237945
0.642448 0.243242 0.243826
0.659972 0.248707 0.249672
0.677220 0.254148 0.255502
0.694273 0.259587 0.261338
0.111048 0.114139 0.095806
0.122762 0.117751 0.098096
0.136498 0.122501 0.104160
0.151840 0.129205 0.111855
0.167570 0.133812 0.115591
0.183799 0.138282 0.119500
0.200745 0.142871 0.123687
0.218591 0.147673 0.128166
0.237463 0.152740 0.132952
0.257450 0.158109 0.138061
0.279839 0.164111 0.143810
0.304417 0.170695 0.150146
0.330115 0.177599 0.156801
0.356079 0.184616 0.163558
0.381626 0.191421 0.170365
0.406146 0.197873 0.177059
0.429248 0.203998 0.183445
0.451130 0.209848 0.189571
0.471796 0.215424 0.195436
0.491168 0.220710 0.201022
0.509211 0.225698 0.206318
0.525917 0.230387 0.211323
0.541412 0.234810 0.216068
0.555750 0.238972 0.220564
0.568807 0.242818 0.224769
0.580644 0.246370 0.228702
0.591401 0.249660 0.232397
0.607168 0.254193 0.237395
0.625445 0.259348 0.243064
0.643286 0.264394 0.248655
0.660772 0.269350 0.254189
0.677983 0.274233 0.259684
0.694999 0.279062 0.265161
0.120142 0.132723 0.104423
0.130499 0.136715 0.105962
0.143616 0.141128 0.107607
0.158344 0.145208 0.113009
0.172087 0.150513 0.121317
0.186974 0.157704 0.130149
0.203522 0.163017 0.134052
0.221080 0.168321 0.138315
0.239733 0.173747 0.142928
0.259563 0.179374 0.147896
0.281868 0.185582 0.153529
0.306327 0.192298 0.159746
0.331895 0.199264 0.166284
0.357728 0.206282 0.172924
0.383168 0.213199 0.179499
0.407603 0.219873 0.185848
0.430639 0.226213 0.191868
0.452476 0.232276 0.197608
0.473108 0.238064 0.203063
0.492458 0.243561 0.208212
0.510442 0.248368 0.213355
0.527091 0.252806 0.218227
0.542538 0.256946 0.222834
0.556829 0.260800 0.227185
0.569844 0.264338 0.231250
0.581644 0.267577 0.235043
0.592371 0.270550 0.238601
0.608212 0.274800 0.243488
0.626459 0.279647 0.249017
0.644274 0.284386 0.254471
0.661737 0.289034 0.259870
0.678927 0.293611 0.265233
0.695923 0.298137 0.270579
0.130640 0.152582 0.113353
0.139766 0.155815 0.113987
0.150513 0.159239 0.114619
0.163977 0.163110 0.115288
0.178312 0.166466 0.119290
0.192349 0.171149 0.127910
0.207648 0.177941 0.137437
0.224163 0.186287 0.147806
0.242456 0.192873 0.153205
0.262114 0.199064 0.158021
0.284329 0.205747 0.163531
0.308648 0.212818 0.169621
0.334054 0.220032 0.176032
0.359720 0.227208 0.182551
0.384999 0.234211 0.189008
0.409275 0.240911 0.195242
0.432174 0.247233 0.201153
0.453899 0.253246 0.206789
0.474431 0.258957 0.212143
0.493692 0.264353 0.217192
0.511643 0.269430 0.221926
0.528275 0.274191 0.226341
0.543721 0.278672 0.230470
0.558016 0.282885 0.234322
0.571044 0.286803 0.237866
0.582841 0.290238 0.241290
0.593534 0.293060 0.244767
0.609492 0.297209 0.249607
0.627708 0.301918 0.255050
0.645496 0.306507 0.260418
0.662934 0.311000 0.265731
0.680103 0.315415 0.271008
0.697081 0.319774 0.276269
0.142022 0.173015 0.122034
0.150493 0.175686 0.122157
0.159362 0.178271 0.122254
0.170392 0.181252 0.122339
0.183629 0.184560 0.122401
0.198306 0.187815 0.125416
0.213016 0.192305 0.134582
0.229083 0.198889 0.144677
0.246462 0.207135 0.155654
0.265249 0.216847 0.167565
0.287280 0.224716 0.173886
0.311435 0.232388 0.179853
0.336646 0.240058 0.186144
0.362107 0.247571 0.192548
0.387184 0.254818 0.198894
0.411262 0.261683 0.205023
0.433991 0.268115 0.210837
0.455577 0.274199 0.216386
0.475984 0.279947 0.221656
0.495134 0.285352 0.226624
0.512987 0.290414 0.231281
0.529533 0.295141 0.235620
0.544910 0.299573 0.239678
0.559137 0.303721 0.243457
0.572105 0.307559 0.246931
0.583874 0.311107 0.250113
0.594593 0.314405 0.253042
0.610783 0.319134 0.257358
0.629037 0.324409 0.262203
0.646870 0.329593 0.266951
0.664361 0.334707 0.271623
0.681526 0.339194 0.276742
0.698495 0.343495 0.281945
0.154601 0.194381 0.130921
0.162163 0.196557 0.130754
0.169562 0.198567 0.130586
0.178944 0.200976 0.130369
0.190301 0.203717 0.130100
0.203726 0.206755 0.129776
0.218991 0.209969 0.131700
0.234591 0.214445 0.141529
0.251595 0.220995 0.152292
0.270166 0.229364 0.164087
0.291408 0.239917 0.177616
0.314744 0.251393 0.190694
0.339720 0.259715 0.196858
0.364934 0.267730 0.203139
0.389766 0.275358 0.209370
0.413601 0.282506 0.215389
0.436124 0.289151 0.221107
0.457540 0.295401 0.226570
0.477796 0.301272 0.231760
0.496811 0.306765 0.236654
0.514544 0.311889 0.241240
0.530985 0.316652 0.245513
0.546279 0.321104 0.249510
0.560423 0.325253 0.253228
0.573318 0.329077 0.256643
0.585024 0.332597 0.259769
0.595695 0.335859 0.262645
0.612095 0.340643 0.266968
0.630307 0.345910 0.271753
0.648108 0.351074 0.276438
0.665581 0.356159 0.281040
0.682802 0.361185 0.285578
0.699850 0.366177 0.290072
0.168267 0.216995 0.140199
0.174525 0.218670 0.139896
0.180821 0.220287 0.139596
0.188970 0.222291 0.139214
0.198957 0.224630 0.138753
0.210822 0.227263 0.138215
0.224730 0.230182 0.137596
0.240741 0.233374 0.138258
0.257349 0.237914 0.148812
0.275730 0.244655 0.160521
0.296801 0.253788 0.173972
0.319739 0.264846 0.188637
0.343668 0.277211 0.203950
0.368237 0.287848 0.214503
0.392775 0.295996 0.220608
0.416322 0.303541 0.226507
0.438602 0.310501 0.232121
0.459816 0.317004 0.237493
0.479891 0.323076 0.242599
0.498745 0.328728 0.247416
0.516337 0.333975 0.251931
0.532653 0.338833 0.256139
0.547847 0.343361 0.260077
0.561893 0.347561 0.263738
0.574701 0.351418 0.267098
0.586332 0.354957 0.270173
0.596948 0.358226 0.273002
0.613614 0.363139 0.277345
0.631790 0.368451 0.282063
0.649566 0.373648 0.286681
0.667018 0.378755 0.291216
0.684224 0.383795 0.295689
0.701260 0.388793 0.300119
0.182307 0.240885 0.150040
0.187576 0.242218 0.149679
0.193022 0.243554 0.149314
0.200207 0.245258 0.148840
0.209131 0.247292 0.148266
0.219809 0.249621 0.147594
0.232351 0.252228 0.146824
0.246932 0.255111 0.145952
0.263750 0.258270 0.145147
0.281982 0.263080 0.156811
0.302858 0.270497 0.170181
0.325507 0.280052 0.184698
0.349101 0.291127 0.199827
0.372936 0.303126 0.215112
0.396427 0.315527 0.230173
0.419446 0.324755 0.238471
0.441447 0.332132 0.243971
0.462425 0.338978 0.249242
0.482289 0.345330 0.254257
0.500956 0.351210 0.258991
0.518381 0.356641 0.263430
0.534552 0.361650 0.267569
0.549630 0.366302 0.271446
0.563561 0.370599 0.275045
0.576274 0.374530 0.278345
0.587825 0.378122 0.281361
0.598387 0.381433 0.284135
0.615383 0.386545 0.288504
0.633519 0.391953 0.293153
0.651262 0.397232 0.297705
0.668689 0.402410 0.302177
0.685875 0.407512 0.306590
0.702897 0.412564 0.310961
0.197141 0.267171 0.160980
0.201665 0.268266 0.160598
0.206439 0.269395 0.160201
0.212841 0.270869 0.159678
0.220893 0.272665 0.159034
0.230603 0.274752 0.158276
0.242043 0.277113 0.157405
0.255337 0.279739 0.156419
0.270638 0.282627 0.155315
0.289000 0.285922 0.154025
0.309723 0.291175 0.165935
0.332042 0.298885 0.180287
0.355257 0.308377 0.195210
0.378697 0.319029 0.210270
0.401791 0.330285 0.225098
0.423965 0.341630 0.239322
0.445049 0.352796 0.252831
0.465435 0.362139 0.262427
0.485057 0.368891 0.267348
0.503509 0.375108 0.271997
0.520744 0.380823 0.276361
0.536758 0.386071 0.280428
0.551713 0.390931 0.284238
0.565526 0.395401 0.287770
0.578138 0.399479 0.291010
0.589601 0.403196 0.293973
0.600101 0.406619 0.296704
0.617487 0.412049 0.301124
0.635577 0.417644 0.305715
0.653283 0.423094 0.310212
0.670681 0.428428 0.314633
0.687846 0.433675 0.318997
0.704852 0.438860 0.323321
0.213110 0.296636 0.173391
0.217060 0.297557 0.173002
0.221295 0.298528 0.172591
0.227052 0.299820 0.172041
0.234374 0.301421 0.171355
0.243268 0.303306 0.170539
0.253785 0.305460 0.169597
0.266010 0.307871 0.168530
0.280116 0.310543 0.167330
0.297202 0.313637 0.165915
0.317381 0.317118 0.164291
0.339415 0.322383 0.175193
0.362202 0.329917 0.189894
0.385199 0.338899 0.204712
0.407844 0.348733 0.219284
0.429588 0.358875 0.233257
0.450322 0.369047 0.246563
0.470164 0.379148 0.259277
0.488992 0.389009 0.271320
0.506730 0.398498 0.282630
0.523489 0.406429 0.290900
0.539335 0.411983 0.294865
0.554153 0.417108 0.298584
0.567831 0.421794 0.302030
0.580324 0.426054 0.305193
0.591686 0.429923 0.308086
0.602116 0.433478 0.310758
0.619948 0.439304 0.315221
0.637984 0.445129 0.319734
0.655646 0.450784 0.324156
0.673009 0.456304 0.328506
0.690147 0.461719 0.332800
0.707133 0.467057 0.337058
0.229654 0.327585 0.186488
0.233165 0.328380 0.186103
0.236977 0.329231 0.185689
0.242216 0.330381 0.185129
0.248943 0.331825 0.184420
0.257172 0.333546 0.183571
0.266940 0.335530 0.182584
0.278307 0.337763 0.181462
0.291582 0.340280 0.180184
0.307666 0.343207 0.178674
0.326387 0.346469 0.176965
0.347373 0.349965 0.175104
0.369729 0.354964 0.184314
0.392241 0.362047 0.198873
0.414389 0.370252 0.213168
0.435661 0.379013 0.226872
0.456020 0.388033 0.239965
0.475527 0.397145 0.252485
0.494063 0.406150 0.264341
0.511545 0.414899 0.275477
0.527919 0.423288 0.285866
0.543179 0.431255 0.295508
0.557475 0.438834 0.304507
0.570674 0.445922 0.312781
0.582762 0.452360 0.320073
0.594007 0.456411 0.322884
0.604358 0.460127 0.325487
0.622698 0.466446 0.329997
0.640670 0.472548 0.334418
0.658281 0.478453 0.338754
0.675601 0.484198 0.343020
0.692706 0.489817 0.347235
0.709668 0.495341 0.351415
0.246324 0.358672 0.199635
0.249500 0.359373 0.199258
0.252980 0.360133 0.198848
0.257806 0.361171 0.198287
0.264052 0.362489 0.197571
0.271741 0.364076 0.196705
0.280902 0.365919 0.195693
0.291580 0.368007 0.194538
0.304334 0.370419 0.193189
0.319625 0.373207 0.191610
0.337196 0.376286 0.189843
0.356700 0.379569 0.187936
0.377732 0.382971 0.185936
0.399665 0.387549 0.193111
0.421272 0.394016 0.207107
0.442040 0.401293 0.220527
0.462004 0.409060 0.233392
0.481162 0.417085 0.245689
0.499386 0.425145 0.257340
0.516587 0.433075 0.268292
0.532709 0.440753 0.278517
0.547754 0.448106 0.288022
0.561863 0.455147 0.296901
0.574880 0.461758 0.305062
0.586793 0.467898 0.312501
0.597644 0.473563 0.319250
0.608245 0.479153 0.325823
0.626145 0.488617 0.336944
0.643648 0.497988 0.347773
0.661116 0.504839 0.353398
0.678387 0.510847 0.357576
0.695452 0.516705 0.361705
0.712384 0.522448 0.365801
0.262778 0.388864 0.212335
0.265694 0.389494 0.211968
0.268913 0.390182 0.211566
0.273407 0.391131 0.211010
0.279263 0.392348 0.210295
0.286510 0.393824 0.209424
0.295176 0.395550 0.208400
0.305374 0.397529 0.207217
0.317785 0.399866 0.205808
0.332430 0.402532 0.204182
0.349069 0.405455 0.202381
0.367381 0.408557 0.200449
0.386995 0.411760 0.198433
0.407510 0.414996 0.196378
0.428373 0.419053 0.201385
0.448629 0.424827 0.214499
0.468186 0.431302 0.227106
0.486972 0.438198 0.239166
0.504857 0.445272 0.250601
0.521752 0.452343 0.261360
0.537600 0.459270 0.271413
0.552414 0.465972 0.280774
0.566314 0.472437 0.289525
0.579134 0.478539 0.297565
0.590872 0.484235 0.304900
0.601573 0.489513 0.311562
0.612782 0.495108 0.318523
0.630566 0.504059 0.329575
0.647969 0.512963 0.340346
0.665057 0.521829 0.350879
0.681899 0.530673 0.361217
0.698563 0.539515 0.371406
0.715215 0.547537 0.379748
0.278715 0.417265 0.224157
0.281428 0.417839 0.223800
0.284440 0.418471 0.223407
0.288666 0.419348 0.222861
0.294203 0.420481 0.222152
0.301086 0.421865 0.221283
0.309343 0.423493 0.220257
0.319333 0.425415 0.219036
0.331444 0.427680 0.217585
0.345544 0.430238 0.215931
0.361406 0.433022 0.214114
0.378737 0.435964 0.212173
0.397198 0.438994 0.210151
0.416411 0.442046 0.208092
0.435887 0.445048 0.206048
0.455350 0.448569 0.209026
0.474473 0.453791 0.221365
0.492859 0.459580 0.233177
0.510379 0.465681 0.244386
0.526945 0.471894 0.254941
0.542497 0.478068 0.264811
0.557066 0.484115 0.274023
0.570738 0.489996 0.282636
0.583344 0.495580 0.290548
0.594893 0.500823 0.297771
0.605435 0.505706 0.304341
0.617316 0.511294 0.311732
0.634975 0.519717 0.322712
0.652269 0.528142 0.333421
0.669264 0.536570 0.343902
0.686024 0.545011 0.354197
0.702617 0.553480 0.364349
0.719111 0.561998 0.374402
0.294177 0.443925 0.235113
0.296728 0.444455 0.234767
0.299571 0.445041 0.234383
0.303577 0.445860 0.233847
0.308848 0.446923 0.233148
0.315425 0.448229 0.232286
0.323439 0.449791 0.231248
0.333352 0.451678 0.229985
0.345181 0.453873 0.228502
0.358798 0.456327 0.226828
0.373991 0.458984 0.224998
0.390485 0.461780 0.223052
0.407965 0.464654 0.221033
0.426064 0.467541 0.218984
0.444338 0.470376 0.216955
0.462578 0.473133 0.214967
0.480861 0.476209 0.216161
0.498822 0.480942 0.227713
0.515954 0.486103 0.238684
0.532169 0.491484 0.249024
0.547405 0.496922 0.258702
0.561716 0.502325 0.267757
0.575139 0.507627 0.276221
0.587516 0.512697 0.283996
0.598863 0.517488 0.291099
0.609238 0.521979 0.297572
0.621859 0.527546 0.305435
0.639385 0.535443 0.316337
0.656563 0.543387 0.326979
0.673456 0.551374 0.337403
0.690128 0.559408 0.347650
0.706645 0.567501 0.357762
0.723076 0.575669 0.367781
0.309237 0.468926 0.245214
0.311658 0.469420 0.244875
0.314363 0.469968 0.244499
0.318188 0.470736 0.243970
0.323236 0.471739 0.243278
0.329588 0.472982 0.242416
0.337605 0.474523 0.241341
0.347405 0.476368 0.240045
0.358949 0.478488 0.238543
0.372110 0.480842 0.236861
0.386688 0.483378 0.235033
0.402428 0.486039 0.233098
0.419036 0.488768 0.231094
0.436141 0.491502 0.229069
0.453362 0.494185 0.227068
0.470597 0.496805 0.225099
0.487813 0.499363 0.223164
0.504856 0.502021 0.222770
0.521578 0.506295 0.233493
0.537421 0.510881 0.243607
0.552322 0.515610 0.253083
0.566362 0.520390 0.261977
0.579517 0.525125 0.270279
0.591649 0.529693 0.277909
0.602781 0.534039 0.284885
0.612983 0.538145 0.291258
0.626412 0.543680 0.299636
0.643795 0.551054 0.310457
0.660848 0.558521 0.321029
0.677633 0.566070 0.331392
0.694212 0.573700 0.341588
0.710649 0.581417 0.351657
0.727010 0.589235 0.361642
0.323894 0.492146 0.254375
0.326206 0.492609 0.254043
0.328796 0.493125 0.253674
0.332466 0.493851 0.253154
0.337354 0.494807 0.252466
0.343732 0.496037 0.251576
0.351729 0.497554 0.250474
0.361374 0.499347 0.249162
0.372617 0.501390 0.247655
0.385332 0.503646 0.245980
0.399331 0.506065 0.244167
0.414372 0.508598 0.242254
0.430181 0.511190 0.240280
0.446380 0.513781 0.238291
0.462669 0.516323 0.236325
0.479031 0.518819 0.234382
0.495359 0.521258 0.232473
0.511475 0.523618 0.230615
0.527224 0.525887 0.228859
0.542675 0.529735 0.238738
0.557228 0.533800 0.248005
0.570984 0.537990 0.256730
0.583849 0.542185 0.264859
0.595723 0.546271 0.272336
0.606627 0.550191 0.279179
0.616650 0.553926 0.285449
0.630957 0.559419 0.294388
0.648189 0.566290 0.305122
0.665111 0.573294 0.315620
0.681781 0.580417 0.325920
0.698261 0.587652 0.336062
0.714611 0.595003 0.346086
0.730891 0.602480 0.356041
0.338130 0.513544 0.262586
0.340351 0.513982 0.262262
0.342844 0.514470 0.261900
0.346463 0.515174 0.261377
0.351408 0.516127 0.260666
0.357802 0.517342 0.259756
0.365718 0.518823 0.258641
0.375166 0.520557 0.257327
0.386088 0.522521 0.255830
0.398360 0.524678 0.254173
0.411800 0.526985 0.252387
0.426183 0.529394 0.250508
0.441233 0.531855 0.248574
0.456598 0.534309 0.246631
0.472064 0.536724 0.244706
0.487641 0.539105 0.242796
0.503174 0.541432 0.240918
0.518498 0.543685 0.239091
0.533467 0.545848 0.237329
0.547956 0.547911 0.235644
0.562109 0.551222 0.243499
0.575561 0.554865 0.252043
0.588120 0.558555 0.259990
0.599723 0.562190 0.267307
0.610387 0.565708 0.274008
0.620228 0.569094 0.280173
0.635486 0.574542 0.289720
0.652558 0.580935 0.300363
0.669341 0.587499 0.310782
0.685890 0.594216 0.321015
0.702264 0.601074 0.331100
0.718516 0.608076 0.341085
0.734707 0.615226 0.351012
0.352016 0.533205 0.269888
0.354236 0.533635 0.269559
0.356770 0.534124 0.269185
0.360436 0.534826 0.268647
0.365394 0.535766 0.267924
0.371740 0.536954 0.267007
0.379523 0.538390 0.265893
0.388737 0.540060 0.264589
0.399317 0.541942 0.263112
0.411140 0.544001 0.261485
0.424034 0.546198 0.259736
0.437786 0.548488 0.257900
0.452100 0.550819 0.256018
0.466685 0.553144 0.254129
0.481421 0.555443 0.252247
0.496279 0.557716 0.250377
0.511088 0.559938 0.248537
0.525693 0.562092 0.246746
0.539957 0.564161 0.245018
0.553762 0.566134 0.243364
0.567049 0.568008 0.241790
0.580087 0.570874 0.247903
0.592328 0.574103 0.255660
0.603648 0.577323 0.262809
0.614061 0.580467 0.269362
0.623719 0.583530 0.275421
0.640000 0.588935 0.285621
0.656905 0.594882 0.296169
0.673542 0.601035 0.306505
0.689963 0.607370 0.316668
0.706218 0.613876 0.326701
0.722365 0.620548 0.336645
0.738466 0.627391 0.346541
0.365928 0.551379 0.276331
0.368172 0.551807 0.275995
0.370719 0.552290 0.275615
0.374380 0.552979 0.275072
0.379294 0.553896 0.274347
0.385538 0.555048 0.273434
0.393141 0.556432 0.272331
0.402087 0.558033 0.271049
0.412304 0.559830 0.269602
0.423671 0.561791 0.268013
0.436023 0.563878 0.266310
0.449147 0.566051 0.264526
0.462751 0.568256 0.262703
0.476605 0.570457 0.260872
0.490680 0.572650 0.259037
0.504867 0.574818 0.257211
0.519004 0.576941 0.255414
0.532945 0.578999 0.253663
0.546560 0.580978 0.251972
0.559738 0.582867 0.250354
0.572452 0.584666 0.248808
0.584700 0.586379 0.247334
0.596479 0.588807 0.251827
0.607505 0.591646 0.258800
0.617659 0.594447 0.265200
0.627486 0.597315 0.271375
0.644512 0.602574 0.282055
0.661242 0.608109 0.292502
0.677725 0.613880 0.302754
0.694005 0.619860 0.312851
0.710136 0.626035 0.322831
0.726174 0.632398 0.332731
0.742180 0.638950 0.342592
0.379758 0.567884 0.281852
0.381993 0.568303 0.281515
0.384519 0.568774 0.281136
0.388133 0.569444 0.280595
0.392960 0.570331 0.279878
0.399059 0.571439 0.278978
0.406446 0.572765 0.277897
0.415096 0.574294 0.276645
0.424932 0.576004 0.275236
0.435838 0.577867 0.273693
0.447653 0.579847 0.272043
0.460144 0.581900 0.270321
0.473066 0.583984 0.268563
0.486263 0.586073 0.266790
0.499716 0.588163 0.265005
0.513274 0.590232 0.263228
0.526784 0.592259 0.261478
0.540107 0.594226 0.259771
0.553120 0.596119 0.258122
0.565718 0.597927 0.256541
0.577916 0.599656 0.255026
0.589637 0.601299 0.253583
0.600710 0.602837 0.252232
0.611264 0.604876 0.255346
0.621158 0.607371 0.261591
0.632175 0.610337 0.268527
0.648995 0.615200 0.279086
0.665543 0.620365 0.289431
0.681859 0.625791 0.299601
0.697993 0.631450 0.309629
0.713995 0.637323 0.319552
0.729921 0.643403 0.329405
0.745831 0.649690 0.339227
0.393425 0.582787 0.286519
0.395625 0.583193 0.286187
0.398104 0.583647 0.285813
0.401640 0.584292 0.285281
0.406345 0.585143 0.284578
0.412264 0.586204 0.283700
0.419407 0.587468 0.282648
0.427737 0.588922 0.281433
0.437179 0.590546 0.280070
0.447618 0.592310 0.278580
0.458885 0.594183 0.276990
0.470751 0.596119 0.275336
0.483017 0.598086 0.273646
0.495626 0.600072 0.271930
0.508488 0.602063 0.270199
0.521451 0.604037 0.268475
0.534368 0.605972 0.266775
0.547110 0.607852 0.265116
0.559558 0.609663 0.263511
0.571623 0.611395 0.261971
0.583342 0.613058 0.260488
0.594564 0.614633 0.259081
0.605168 0.616107 0.257762
0.615120 0.617480 0.256534
0.624560 0.619188 0.258519
0.636845 0.622254 0.266263
0.653450 0.626770 0.276701
0.669804 0.631610 0.286945
0.685949 0.636730 0.297029
0.701932 0.642101 0.306984
0.717803 0.647705 0.316844
0.733615 0.653531 0.326646
0.749426 0.659578 0.336426
0.407616 0.598193 0.291311
0.409758 0.598583 0.290986
0.412169 0.599020 0.290622
0.415598 0.599638 0.290105
0.420149 0.600453 0.289423
0.425857 0.601466 0.288573
0.432723 0.602671 0.287559
0.440707 0.604054 0.286389
0.449733 0.605597 0.285079
0.459684 0.607272 0.283650
0.470370 0.609044 0.282132
0.481610 0.610877 0.280554
0.493263 0.612749 0.278936
0.505298 0.614651 0.277283
0.517575 0.616561 0.275616
0.529948 0.618458 0.273954
0.542281 0.620322 0.272315
0.554449 0.622137 0.270715
0.566341 0.623889 0.269167
0.577895 0.625572 0.267678
0.589130 0.627193 0.266242
0.599859 0.628729 0.264884
0.610002 0.630170 0.263612
0.619525 0.631517 0.262428
0.628471 0.632778 0.261327
0.641784 0.635157 0.263783
0.658167 0.639341 0.274089
0.674325 0.643868 0.284219
0.690298 0.648696 0.294201
0.706130 0.653793 0.304067
0.721870 0.659140 0.313849
0.737569 0.664727 0.323583
0.753284 0.670550 0.333305
0.424834 0.621101 0.299369
0.426893 0.621471 0.299053
0.429207 0.621884 0.298699
0.432492 0.622469 0.298198
0.436841 0.623238 0.297538
0.442284 0.624193 0.296716
0.448814 0.625327 0.295737
0.456390 0.626628 0.294610
0.464934 0.628076 0.293350
0.474304 0.629643 0.291982
0.484345 0.631299 0.290529
0.494902 0.633016 0.289018
0.505926 0.634782 0.287456
0.517318 0.636580 0.285859
0.528937 0.638389 0.284246
0.540648 0.640187 0.282637
0.552322 0.641955 0.281050
0.563841 0.643679 0.279498
0.575101 0.645346 0.277996
0.586080 0.646955 0.276547
0.596741 0.648503 0.275152
0.606903 0.649967 0.273836
0.616512 0.651344 0.272604
0.625537 0.652631 0.271456
0.634066 0.653844 0.270382
0.648270 0.655805 0.268588
0.663875 0.658275 0.269253
0.679821 0.662284 0.279286
0.695606 0.666625 0.289185
0.711273 0.671265 0.298981
0.726867 0.676182 0.308706
0.742440 0.681362 0.318392
0.758044 0.686801 0.328077
0.441971 0.643377 0.307058
0.443937 0.643725 0.306753
0.446143 0.644115 0.306412
0.449271 0.644665 0.305929
0.453407 0.645387 0.305294
0.458573 0.646284 0.304505
0.464759 0.647347 0.303566
0.471921 0.648566 0.302486
0.479960 0.649918 0.301283
0.488754 0.651380 0.299979
0.498171 0.652926 0.298595
0.508122 0.654538 0.297146
0.518552 0.656204 0.295641
0.529327 0.657904 0.294102
0.540318 0.659615 0.292549
0.551395 0.661319 0.291000
0.562438 0.662997 0.289471
0.573338 0.664636 0.287977
0.584001 0.666222 0.286530
0.594442 0.667761 0.285126
0.604546 0.669238 0.283780
0.614172 0.670635 0.282510
0.623279 0.671950 0.281318
0.631840 0.673181 0.280208
0.640382 0.674402 0.279109
0.655315 0.676475 0.277183
0.670292 0.678527 0.275272
0.685396 0.680734 0.274588
0.700990 0.684601 0.284403
0.716488 0.688794 0.294127
0.731934 0.693288 0.303792
0.747378 0.698069 0.313429
0.762870 0.703128 0.323075
0.458993 0.665140 0.314454
0.460859 0.665467 0.314162
0.462951 0.665832 0.313835
0.465915 0.666347 0.313374
0.469829 0.667023 0.312766
0.474710 0.667862 0.312012
0.480544 0.668856 0.311116
0.487268 0.669991 0.310091
0.494798 0.671249 0.308952
0.503030 0.672610 0.307716
0.511867 0.674055 0.306402
0.521267 0.675574 0.305017
0.531118 0.677147 0.303579
0.541297 0.678753 0.302107
0.551680 0.680372 0.300620
0.562149 0.681985 0.299136
0.572590 0.683577 0.297669
0.582899 0.685133 0.296235
0.593013 0.686645 0.294841
0.602936 0.688116 0.293485
0.612502 0.689523 0.292189
0.621622 0.690856 0.290965
0.630254 0.692111 0.289816
0.638391 0.693290 0.288742
0.648238 0.694696 0.287446
0.662688 0.696716 0.285551
0.677194 0.698718 0.283667
0.691778 0.700708 0.281792
0.706466 0.702688 0.279922
0.721788 0.706429 0.289467
0.737083 0.710509 0.299070
0.752395 0.714895 0.308658
0.767775 0.719580 0.318264
0.475860 0.686513 0.321646
0.477621 0.686819 0.321369
0.479594 0.687159 0.321059
0.482387 0.687640 0.320622
0.486072 0.688272 0.320047
0.490653 0.689052 0.319336
0.496109 0.689975 0.318493
0.502390 0.691029 0.317528
0.509422 0.692199 0.316456
0.517122 0.693467 0.315292
0.525452 0.694825 0.314041
0.534319 0.696255 0.312722
0.543613 0.697737 0.311351
0.553218 0.699253 0.309947
0.563020 0.700783 0.308527
0.572907 0.702310 0.307108
0.582771 0.703819 0.305704
0.592517 0.705296 0.304330
