data/luts/JSZ-CEDAR H.cube
# Baked from the Lightroom preset "JSZ-CEDAR H" by scripts/lightroom-preset-lut.lisp
# Colour only; not in this LUT (add the node instead):
#   Clarity +10
#   Sharpening 25, radius 1.0
TITLE "JSZ-CEDAR H"
LUT_3D_SIZE 9
DOMAIN_MIN 0.0 0.0 0.0
DOMAIN_MAX 1.0 1.0 1.0
0.191419 0.191419 0.191419
0.250014 0.223163 0.221562
0.311540 0.257313 0.251412
0.372272 0.285576 0.275943
0.448306 0.320552 0.306357
0.604144 0.392237 0.368692
0.709939 0.440903 0.411010
0.792034 0.478667 0.443848
0.874566 0.516631 0.476861
0.224957 0.244440 0.226878
0.241571 0.226563 0.199574
0.285062 0.258224 0.229627
0.349993 0.292612 0.258612
0.429860 0.332242 0.293164
0.589938 0.408395 0.359464
0.695508 0.457771 0.402425
0.777933 0.496121 0.435787
0.860853 0.534595 0.469253
0.266769 0.296777 0.269204
0.274176 0.294964 0.257581
0.292102 0.237350 0.194263
0.344712 0.307432 0.258216
0.415932 0.344377 0.282249
0.579718 0.425326 0.352009
0.683377 0.474811 0.394837
0.765597 0.513630 0.428481
0.848716 0.552633 0.462310
0.311715 0.360476 0.315475
0.313793 0.359503 0.305441
0.332355 0.357608 0.293261
0.354812 0.265874 0.195994
0.421055 0.369495 0.294348
0.570488 0.446465 0.344465
0.670607 0.495657 0.386495
0.752109 0.534975 0.420249
0.835304 0.574678 0.454433
0.373801 0.445300 0.383621
0.368993 0.444673 0.370250
0.379770 0.443279 0.358325
0.409175 0.441075 0.341517
0.437995 0.303779 0.198323
0.576778 0.480787 0.357851
0.659029 0.523539 0.381375
0.735703 0.562022 0.410104
0.818890 0.602785 0.444672
0.496460 0.604712 0.527395
0.492390 0.604262 0.517223
0.482614 0.603180 0.490857
0.491042 0.601439 0.466920
0.539324 0.598278 0.438527
0.593764 0.394259 0.237505
0.669223 0.582054 0.419805
0.737791 0.619639 0.439416
0.810830 0.658634 0.460305
0.560716 0.694237 0.595845
0.556954 0.693842 0.586302
0.547940 0.692896 0.562070
0.548164 0.691343 0.533165
0.605435 0.687527 0.496993
0.680150 0.684228 0.465871
0.681848 0.452747 0.272739
0.748299 0.653271 0.462504
0.820916 0.693555 0.483273
0.616116 0.774588 0.651172
0.612724 0.774244 0.642318
0.604408 0.773402 0.619611
0.606662 0.771627 0.586913
0.663645 0.767911 0.550396
0.717130 0.765428 0.526089
0.763306 0.754000 0.505377
0.761137 0.505395 0.304455
0.833289 0.725094 0.504889
0.676735 0.862602 0.711335
0.673577 0.862292 0.702891
0.664187 0.861370 0.676725
0.683020 0.858622 0.636283
0.721432 0.856248 0.612237
0.761706 0.854257 0.592127
0.807392 0.852343 0.572826
0.850303 0.837027 0.552301
0.847970 0.563052 0.339188
0.190071 0.190071 0.246887
0.240489 0.213606 0.246887
0.284528 0.229614 0.262721
0.351367 0.260448 0.291312
0.431065 0.294575 0.321631
0.590027 0.360077 0.378426
0.696840 0.403426 0.415637
0.779471 0.436808 0.444203
0.862409 0.470232 0.472759
0.210570 0.241571 0.241571
0.241571 0.241571 0.241571
0.296924 0.270843 0.269744
0.371633 0.313460 0.307601
0.450478 0.351506 0.340510
0.606876 0.423449 0.403069
0.711258 0.471465 0.444821
0.793047 0.509088 0.477537
0.875483 0.547008 0.510511
0.276181 0.297217 0.287357
0.272450 0.295233 0.268779
0.292102 0.267819 0.233035
0.344712 0.311429 0.274270
0.424035 0.353125 0.308134
0.588238 0.433681 0.378216
0.691834 0.482810 0.420947
0.773982 0.521388 0.454499
0.857028 0.560185 0.488239
0.311715 0.360476 0.315475
0.313793 0.359503 0.305441
0.332355 0.357608 0.293261
0.354812 0.265874 0.195994
0.421055 0.369495 0.294348
0.570488 0.446465 0.344465
0.670607 0.495657 0.386495
0.752109 0.534975 0.420249
0.835304 0.574678 0.454433
0.373801 0.445300 0.383621
0.368993 0.444673 0.370250
0.379770 0.443279 0.358325
0.409175 0.441075 0.341517
0.437995 0.303779 0.198323
0.576778 0.480787 0.357851
0.659029 0.523539 0.381375
0.735703 0.562022 0.410104
0.818890 0.602785 0.444672
0.496460 0.604712 0.527395
0.492390 0.604262 0.517223
0.482614 0.603180 0.490857
0.491042 0.601439 0.466920
0.539324 0.598278 0.438527
0.593764 0.394259 0.237505
0.669223 0.582054 0.419805
0.737791 0.619639 0.439416
0.810830 0.658634 0.460305
0.560716 0.694237 0.595845
0.556954 0.693842 0.586302
0.547940 0.692896 0.562070
0.548164 0.691343 0.533165
0.605435 0.687527 0.496993
0.680150 0.684228 0.465871
0.681848 0.452747 0.272739
0.748299 0.653271 0.462504
0.820916 0.693555 0.483273
0.616116 0.774588 0.651172
0.612724 0.774244 0.642318
0.604408 0.773402 0.619611
0.606662 0.771627 0.586913
0.663645 0.767911 0.550396
0.717130 0.765428 0.526089
0.763306 0.754000 0.505377
0.761137 0.505395 0.304455
0.833289 0.725094 0.504889
0.676735 0.862602 0.711335
0.673577 0.862292 0.702891
0.664187 0.861370 0.676725
0.683020 0.858622 0.636283
0.721432 0.856248 0.612237
0.761706 0.854257 0.592127
0.807392 0.852343 0.572826
0.850303 0.837027 0.552301
0.847970 0.563052 0.339188
0.169228 0.169228 0.302373
0.262684 0.235800 0.302373
0.290263 0.235800 0.302373
0.336569 0.249479 0.316051
0.414481 0.283242 0.348408
0.576236 0.351661 0.409971
0.683978 0.395980 0.448764
0.767103 0.429877 0.478169
0.850417 0.463694 0.507363
0.242669 0.264756 0.299534
0.244619 0.244619 0.299534
0.290850 0.264756 0.299534
0.342236 0.283269 0.317815
0.427267 0.322965 0.354492
0.589799 0.391726 0.414911
0.695897 0.435214 0.452427
0.778558 0.468813 0.481266
0.861639 0.502439 0.510056
0.228227 0.292102 0.292102
0.261109 0.292102 0.292102
0.292102 0.292102 0.292102
0.359065 0.327515 0.326185
0.452566 0.380750 0.373427
0.613077 0.456483 0.439084
0.714585 0.503177 0.479687
0.795615 0.540450 0.512099
0.877816 0.578263 0.544979
0.328641 0.361039 0.356419
0.334266 0.361058 0.353154
0.329077 0.358832 0.328769
0.354812 0.329974 0.289246
0.421055 0.380099 0.336339
0.590339 0.467432 0.410762
0.691082 0.516292 0.453304
0.772763 0.555204 0.487170
0.856014 0.594493 0.521356
0.405568 0.447672 0.430517
0.400511 0.446839 0.420574
0.389305 0.444989 0.393627
0.405947 0.442069 0.371689
0.437995 0.336407 0.256587
0.576778 0.488020 0.386983
0.664660 0.532988 0.417969
0.745848 0.573449 0.452529
0.829669 0.614435 0.487683
0.496460 0.604712 0.527395
0.492390 0.604262 0.517223
0.482614 0.603180 0.490857
0.491042 0.601439 0.466920
0.539324 0.598278 0.438527
0.593764 0.394259 0.237505
0.669223 0.582054 0.419805
0.737791 0.619639 0.439416
0.810830 0.658634 0.460305
0.560716 0.694237 0.595845
0.556954 0.693842 0.586302
0.547940 0.692896 0.562070
0.548164 0.691343 0.533165
0.605435 0.687527 0.496993
0.680150 0.684228 0.465871
0.681848 0.452747 0.272739
0.748299 0.653271 0.462504
0.820916 0.693555 0.483273
0.616116 0.774588 0.651172
0.612724 0.774244 0.642318
0.604408 0.773402 0.619611
0.606662 0.771627 0.586913
0.663645 0.767911 0.550396
0.717130 0.765428 0.526089
0.763306 0.754000 0.505377
0.761137 0.505395 0.304455
0.833289 0.725094 0.504889
0.676735 0.862602 0.711335
0.673577 0.862292 0.702891
0.664187 0.861370 0.676725
0.683020 0.858622 0.636283
0.721432 0.856248 0.612237
0.761706 0.854257 0.592127
0.807392 0.852343 0.572826
0.850303 0.837027 0.552301
0.847970 0.563052 0.339188
0.154929 0.154929 0.373866
0.291281 0.264398 0.373866
0.318861 0.264398 0.373866
0.351488 0.264398 0.373866
0.405311 0.276976 0.386444
0.558940 0.341105 0.448146
0.667756 0.386589 0.489441
0.751456 0.421109 0.520183
0.835211 0.455403 0.550399
0.271480 0.293566 0.371559
0.215574 0.215574 0.371559
0.319661 0.293566 0.371559
0.351956 0.293566 0.371559
0.407275 0.307853 0.385846
0.569246 0.378076 0.452013
0.677270 0.423565 0.492660
0.760923 0.458194 0.523108
0.844741 0.492585 0.553092
0.283437 0.321513 0.365628
0.298126 0.321513 0.365628
0.294558 0.294558 0.365628
0.353079 0.321513 0.365628
0.415420 0.342776 0.386680
0.587619 0.420851 0.457959
0.692485 0.464852 0.496468
0.775174 0.498942 0.525992
0.858568 0.533029 0.555360
0.236530 0.354812 0.354812
0.264618 0.354812 0.354812
0.313124 0.354812 0.354812
0.354812 0.354812 0.354812
0.439467 0.399745 0.397984
0.623304 0.498643 0.484792
0.720411 0.543313 0.523635
0.800160 0.579997 0.555534
0.881977 0.617633 0.588261
0.389023 0.444886 0.440734
0.397828 0.445506 0.441534
0.411375 0.446185 0.438967
0.406340 0.443491 0.408399
0.437995 0.402736 0.350925
0.586244 0.503961 0.440505
0.684504 0.554288 0.484317
0.766358 0.594666 0.519455
0.850493 0.635350 0.554851
0.549744 0.608333 0.601571
0.556879 0.608880 0.602351
0.546493 0.607317 0.586278
0.529852 0.604804 0.552249
0.534883 0.600249 0.499837
0.593764 0.441083 0.321120
0.669223 0.598226 0.479023
0.737791 0.635126 0.498634
0.810830 0.673346 0.519523
0.605647 0.696904 0.659650
0.601773 0.696424 0.652192
0.592495 0.695272 0.632667
0.577298 0.693382 0.595593
0.602222 0.688743 0.540147
0.670212 0.684736 0.508246
0.681848 0.461771 0.288854
0.748299 0.664844 0.504356
0.820916 0.704785 0.525125
0.616116 0.774588 0.651172
0.612724 0.774244 0.642318
0.604408 0.773402 0.619611
0.606662 0.771627 0.586913
0.663645 0.767911 0.550396
0.717130 0.765428 0.526089
0.763306 0.754000 0.505377
0.761137 0.505395 0.304455
0.833289 0.725094 0.504889
0.676735 0.862602 0.711335
0.673577 0.862292 0.702891
0.664187 0.861370 0.676725
0.683020 0.858622 0.636283
0.721432 0.856248 0.612237
0.761706 0.854257 0.592127
0.807392 0.852343 0.572826
0.850303 0.837027 0.552301
0.847970 0.563052 0.339188
0.200638 0.200638 0.501595
0.342373 0.315489 0.501595
0.369952 0.315489 0.501595
0.402580 0.315489 0.501595
0.443825 0.315489 0.501595
0.546203 0.333333 0.519439
0.641852 0.371592 0.557698
0.724292 0.405886 0.590524
0.808719 0.440957 0.623083
0.321742 0.343829 0.497216
0.198886 0.198886 0.497216
0.369923 0.343829 0.497216
0.402219 0.343829 0.497216
0.443251 0.343829 0.497216
0.548674 0.364412 0.517799
0.645959 0.403983 0.556980
0.731108 0.440240 0.591021
0.816049 0.475854 0.623696
0.331534 0.369611 0.485873
0.346224 0.369611 0.485873
0.253348 0.253348 0.485873
0.401177 0.369611 0.485873
0.441700 0.369611 0.485873
0.554280 0.396973 0.513236
0.657806 0.441572 0.556083
0.742870 0.478149 0.589758
0.827995 0.514049 0.622145
0.337523 0.399119 0.465580
0.348035 0.399119 0.465580
0.368599 0.399119 0.465580
0.348742 0.348742 0.465580
0.438865 0.399119 0.465580
0.575232 0.447402 0.512637
0.680839 0.494872 0.556168
0.764610 0.530853 0.588258
0.849218 0.566412 0.619528
0.340916 0.437995 0.437995
0.349186 0.437995 0.437995
0.367613 0.437995 0.437995
0.396871 0.437995 0.437995
0.437995 0.437995 0.437995
0.623215 0.540152 0.533241
0.728565 0.596539 0.581952
0.806920 0.632790 0.613443
0.888239 0.670197 0.645970
0.501908 0.603049 0.595577
0.509485 0.603446 0.596210
0.527904 0.604559 0.597984
0.558301 0.607009 0.601870
0.549379 0.603410 0.557435
0.593764 0.502757 0.422613
0.669223 0.611328 0.528084
0.737791 0.647334 0.547695
0.818600 0.689384 0.578350
0.607919 0.696432 0.687513
0.615120 0.696912 0.688403
0.632572 0.698206 0.690798
0.635706 0.697751 0.678875
0.605464 0.691342 0.596453
0.659031 0.685821 0.562886
0.681848 0.521717 0.395900
0.748299 0.679543 0.557879
0.820916 0.718864 0.578647
0.700668 0.779960 0.765178
0.697095 0.779478 0.759755
0.688341 0.778296 0.745060
0.669943 0.775806 0.707626
0.662353 0.770601 0.631640
0.704066 0.767128 0.606215
0.753360 0.764164 0.584598
0.761137 0.538770 0.364053
0.833289 0.746757 0.583231
0.735683 0.865706 0.799901
0.732438 0.865329 0.793118
0.722792 0.864209 0.771666
0.694150 0.860875 0.696541
0.720912 0.857995 0.669497
0.755144 0.855583 0.648899
0.796485 0.853264 0.629146
0.849612 0.850793 0.608160
0.847970 0.563052 0.339188
0.253453 0.253453 0.633631
0.395187 0.368304 0.633631
0.422767 0.368304 0.633631
0.455394 0.368304 0.633631
0.496639 0.368304 0.633631
0.581175 0.368304 0.633631
0.641852 0.371592 0.636919
0.716073 0.401280 0.666608
0.790690 0.431127 0.696455
0.375757 0.397844 0.632253
0.252901 0.252901 0.632253
0.423938 0.397844 0.632253
0.456234 0.397844 0.632253
0.497266 0.397844 0.632253
0.582106 0.397844 0.632253
0.643045 0.402161 0.636570
0.716989 0.431738 0.666148
0.791519 0.461550 0.695960
0.388667 0.426743 0.628705
0.403357 0.426743 0.628705
0.251482 0.251482 0.628705
0.458309 0.426743 0.628705
0.498833 0.426743 0.628705
0.584050 0.426743 0.628705
0.646052 0.433682 0.635644
0.719311 0.462986 0.664948
0.793629 0.492713 0.694675
0.400181 0.461777 0.622224
0.410693 0.461777 0.622224
0.431256 0.461777 0.622224
0.301330 0.301330 0.622224
0.501523 0.461777 0.622224
0.587005 0.461777 0.622224
0.651320 0.473415 0.633862
0.723420 0.502256 0.662702
0.804958 0.536891 0.696349
0.410194 0.507273 0.611190
0.418464 0.507273 0.611190
0.436891 0.507273 0.611190
0.466149 0.507273 0.611190
0.413220 0.413220 0.611190
0.590543 0.507273 0.611190
0.659029 0.526409 0.630326
0.737585 0.560732 0.663870
0.826742 0.601246 0.701726
0.243775 0.593764 0.593764
0.258034 0.593764 0.593764
0.292369 0.593764 0.593764
0.347800 0.593764 0.593764
0.476142 0.593764 0.593764
0.593764 0.593764 0.593764
0.685924 0.640653 0.639519
0.782714 0.696410 0.691036
0.884285 0.754464 0.742247
0.523240 0.687404 0.681061
0.530069 0.687586 0.681301
0.546520 0.688075 0.681948
0.573802 0.689091 0.683291
0.629004 0.690959 0.676369
0.644894 0.686607 0.633988
0.681848 0.659493 0.594896
0.748299 0.704197 0.644781
0.829225 0.746464 0.676569
0.630235 0.772460 0.762461
0.636581 0.772756 0.762934
0.652238 0.773554 0.764207
0.685763 0.775658 0.767569
0.720471 0.777107 0.751724
0.702167 0.771231 0.693363
0.735849 0.766231 0.670424
0.761137 0.642747 0.539592
0.833289 0.770149 0.669026
0.764039 0.867199 0.856186
0.770158 0.867617 0.856989
0.788511 0.868975 0.859601
0.770554 0.865682 0.817315
0.744599 0.861722 0.756148
0.754334 0.858407 0.722958
0.786384 0.855224 0.702242
0.832981 0.851837 0.680272
0.847970 0.632163 0.462600
0.288149 0.288149 0.720373
0.429884 0.403000 0.720373
0.457463 0.403000 0.720373
0.490091 0.403000 0.720373
0.531336 0.403000 0.720373
0.615871 0.403000 0.720373
0.673260 0.403000 0.720373
0.717793 0.403000 0.720373
0.790690 0.431127 0.748500
0.410603 0.432690 0.719369
0.287747 0.287747 0.719369
0.458784 0.432690 0.719369
0.491080 0.432690 0.719369
0.532112 0.432690 0.719369
0.616952 0.432690 0.719369
0.673574 0.432690 0.719369
0.717941 0.432690 0.719369
0.791519 0.461550 0.748229
0.423905 0.461982 0.716800
0.438595 0.461982 0.716800
0.286720 0.286720 0.716800
0.493548 0.461982 0.716800
0.534071 0.461982 0.716800
0.619288 0.461982 0.716800
0.674352 0.461982 0.716800
0.719311 0.462986 0.717805
0.793629 0.492713 0.747532
0.436163 0.497759 0.712179
0.446675 0.497759 0.712179
0.467238 0.497759 0.712179
0.284872 0.284872 0.712179
0.537505 0.497759 0.712179
0.622987 0.497759 0.712179
0.675663 0.497759 0.712179
0.723420 0.502256 0.716675
0.797391 0.531844 0.746264
0.447764 0.544843 0.705115
0.456034 0.544843 0.705115
0.474461 0.544843 0.705115
0.503719 0.544843 0.705115
0.384572 0.384572 0.705115
0.628112 0.544843 0.705115
0.677463 0.544843 0.705115
0.729532 0.554610 0.714882
0.803052 0.584018 0.744290
0.459337 0.634332 0.695184
0.466467 0.634332 0.695184
0.483634 0.634332 0.695184
0.511317 0.634332 0.695184
0.561794 0.634332 0.695184
0.611427 0.611427 0.695184
0.679607 0.634332 0.695184
0.737791 0.651375 0.712227
0.832140 0.698478 0.757490
0.272739 0.681848 0.681848
0.274684 0.681848 0.681848
0.306540 0.681848 0.681848
0.358934 0.681848 0.681848
0.512040 0.681848 0.681848
0.633169 0.681848 0.681848
0.681848 0.681848 0.681848
0.760503 0.720632 0.719982
0.861276 0.777900 0.773733
0.567707 0.765841 0.760029
0.573848 0.765964 0.760181
0.588955 0.766294 0.760592
0.621026 0.767163 0.761676
0.682349 0.769020 0.758308
0.710138 0.767971 0.741964
0.725100 0.764973 0.715867
0.761137 0.749556 0.692244
0.833289 0.788224 0.733652
0.675184 0.857935 0.847770
0.681041 0.858151 0.848087
0.698544 0.858850 0.849120
0.751566 0.861657 0.853265
0.793016 0.864553 0.854525
0.802788 0.863622 0.836559
0.784233 0.858838 0.785473
0.814410 0.853758 0.764612
0.847970 0.767788 0.664163
0.323421 0.323421 0.808552
0.465156 0.438272 0.808552
0.492735 0.438272 0.808552
0.525362 0.438272 0.808552
0.566608 0.438272 0.808552
0.651143 0.438272 0.808552
0.708532 0.438272 0.808552
0.753065 0.438272 0.808552
0.797835 0.438272 0.808552
0.445910 0.467996 0.807634
0.323054 0.323054 0.807634
0.494091 0.467996 0.807634
0.526386 0.467996 0.807634
0.567419 0.467996 0.807634
0.652258 0.467996 0.807634
0.708880 0.467996 0.807634
0.753247 0.467996 0.807634
0.797965 0.467996 0.807634
0.459305 0.497381 0.805299
0.473994 0.497381 0.805299
0.322119 0.322119 0.805299
0.528947 0.497381 0.805299
0.569470 0.497381 0.805299
0.654687 0.497381 0.805299
0.709751 0.497381 0.805299
0.753706 0.497381 0.805299
0.798297 0.497381 0.805299
0.471746 0.533342 0.801136
0.482258 0.533342 0.801136
0.502821 0.533342 0.801136
0.320455 0.320455 0.801136
0.573088 0.533342 0.801136
0.658570 0.533342 0.801136
0.711246 0.533342 0.801136
0.754507 0.533342 0.801136
0.798889 0.533342 0.801136
0.483669 0.580748 0.794876
0.491938 0.580748 0.794876
0.510366 0.580748 0.794876
0.539624 0.580748 0.794876
0.366619 0.366619 0.794876
0.664017 0.580748 0.794876
0.713368 0.580748 0.794876
0.755670 0.580748 0.794876
0.803052 0.584018 0.798147
0.495778 0.670772 0.786284
0.502907 0.670772 0.786284
0.520074 0.670772 0.786284
0.547757 0.670772 0.786284
0.598234 0.670772 0.786284
0.580273 0.580273 0.786284
0.716047 0.670772 0.786284
0.757188 0.670772 0.786284
0.810830 0.680590 0.796102
0.508943 0.719159 0.775127
0.515577 0.719159 0.775127
0.531505 0.719159 0.775127
0.557703 0.719159 0.775127
0.622320 0.719159 0.775127
0.678470 0.719159 0.775127
0.703860 0.703860 0.775127
0.759030 0.719159 0.775127
0.820916 0.737475 0.793443
0.304455 0.761137 0.761137
0.304455 0.761137 0.761137
0.327531 0.761137 0.761137
0.389844 0.761137 0.761137
0.539325 0.761137 0.761137
0.649393 0.761137 0.761137
0.716868 0.761137 0.761137
0.761137 0.761137 0.761137
0.846271 0.802979 0.802305
0.627954 0.852974 0.846671
0.633687 0.853081 0.846804
0.650788 0.853432 0.847238
0.702196 0.854835 0.848975
0.744491 0.856280 0.848389
0.771284 0.856283 0.839286
0.792854 0.855092 0.824948
0.807798 0.852133 0.798993
0.847970 0.836370 0.774626
0.363476 0.363476 0.908690
0.505211 0.478327 0.908690
0.532790 0.478327 0.908690
0.565418 0.478327 0.908690
0.606663 0.478327 0.908690
0.691198 0.478327 0.908690
0.748587 0.478327 0.908690
0.793120 0.478327 0.908690
0.837890 0.478327 0.908690
0.485985 0.508071 0.907822
0.363129 0.363129 0.907822
0.534166 0.508071 0.907822
0.566461 0.508071 0.907822
0.607494 0.508071 0.907822
0.692333 0.508071 0.907822
0.748955 0.508071 0.907822
0.793322 0.508071 0.907822
0.838040 0.508071 0.907822
0.499430 0.537506 0.905612
0.514119 0.537506 0.905612
0.362245 0.362245 0.905612
0.569072 0.537506 0.905612
0.609596 0.537506 0.905612
0.694813 0.537506 0.905612
0.749876 0.537506 0.905612
0.793831 0.537506 0.905612
0.838422 0.537506 0.905612
0.511960 0.573557 0.901673
0.522472 0.573557 0.901673
0.543036 0.573557 0.901673
0.360669 0.360669 0.901673
0.613302 0.573557 0.901673
0.698784 0.573557 0.901673
0.751461 0.573557 0.901673
0.794721 0.573557 0.901673
0.839103 0.573557 0.901673
0.524018 0.621097 0.895750
0.532287 0.621097 0.895750
0.550715 0.621097 0.895750
0.579973 0.621097 0.895750
0.358300 0.358300 0.895750
0.704366 0.621097 0.895750
0.753717 0.621097 0.895750
0.796019 0.621097 0.895750
0.840131 0.621097 0.895750
0.536315 0.711309 0.887627
0.543444 0.711309 0.887627
0.560611 0.711309 0.887627
0.588294 0.711309 0.887627
0.638771 0.711309 0.887627
0.536483 0.536483 0.887627
0.756584 0.711309 0.887627
0.797725 0.711309 0.887627
0.841548 0.711309 0.887627
0.549733 0.759950 0.877103
0.556368 0.759950 0.877103
0.572296 0.759950 0.877103
0.598493 0.759950 0.877103
0.663111 0.759950 0.877103
0.719261 0.759950 0.877103
0.678057 0.678057 0.877103
0.799820 0.759950 0.877103
0.843391 0.759950 0.877103
0.564695 0.802270 0.863969
0.570707 0.802270 0.863969
0.585467 0.802270 0.863969
0.616623 0.802270 0.863969
0.682099 0.802270 0.863969
0.726023 0.802270 0.863969
0.763668 0.802270 0.863969
0.785717 0.785717 0.863969
0.845561 0.802270 0.863969
0.339188 0.847970 0.847970
0.339188 0.847970 0.847970
0.357896 0.847970 0.847970
0.457762 0.847970 0.847970
0.553238 0.847970 0.847970
0.649844 0.847970 0.847970
0.733213 0.847970 0.847970
0.798743 0.847970 0.847970
0.847970 0.847970 0.847970
