data/luts/JSZ-CEDAR D.cube
# Baked from the Lightroom preset "JSZ-CEDAR D" by scripts/lightroom-preset-lut.lisp
# Colour only; not in this LUT (add the node instead):
#   Clarity +33
#   Dehaze +21
#   Vignette -10, midpoint 0, feather 100, roundness +7
#   Grain 12, size 33
#   Sharpening 60, radius 1.4
TITLE "JSZ-CEDAR D"
LUT_3D_SIZE 9
DOMAIN_MIN 0.0 0.0 0.0
DOMAIN_MAX 1.0 1.0 1.0
0.175649 0.168808 0.163576
0.264909 0.210825 0.206336
0.359896 0.249784 0.246095
0.469198 0.293892 0.291143
0.545503 0.324673 0.322562
0.587884 0.341758 0.339984
0.672670 0.375847 0.374620
0.805295 0.428781 0.427856
0.904430 0.468043 0.466902
0.169804 0.277322 0.177764
0.256783 0.260949 0.202864
0.351872 0.305796 0.262193
0.464613 0.354925 0.308692
0.543185 0.387755 0.340955
0.586673 0.405664 0.358658
0.670327 0.439737 0.392353
0.803885 0.493384 0.445187
0.904236 0.533225 0.484129
0.133161 0.382601 0.166728
0.253798 0.359245 0.237490
0.340628 0.359306 0.237847
0.453804 0.401864 0.302093
0.538500 0.450872 0.361178
0.584821 0.471901 0.380167
0.665140 0.506787 0.412028
0.800246 0.563303 0.464622
0.902946 0.605257 0.504138
0.152211 0.501136 0.204667
0.152211 0.501136 0.204667
0.345119 0.470571 0.276467
0.443739 0.470606 0.276690
0.530057 0.493855 0.316716
0.581767 0.518585 0.352104
0.656032 0.557998 0.402394
0.793251 0.632890 0.485474
0.899916 0.679296 0.526395
0.175836 0.582097 0.238692
0.175836 0.582097 0.238692
0.308291 0.546540 0.302297
0.438276 0.546542 0.302348
0.524642 0.546529 0.302310
0.576614 0.556991 0.321790
0.642160 0.585076 0.366036
0.781254 0.656214 0.458791
0.894214 0.720478 0.533801
0.188999 0.626138 0.256921
0.188999 0.626138 0.256921
0.188999 0.626138 0.256921
0.403006 0.587871 0.316142
0.518498 0.587834 0.315982
0.574157 0.587810 0.315868
0.623359 0.600095 0.338574
0.763842 0.664232 0.432389
0.885375 0.729568 0.513178
0.220044 0.727242 0.298009
0.220044 0.727242 0.298009
0.220044 0.727242 0.298009
0.350960 0.682806 0.365968
0.514022 0.682697 0.346854
0.591815 0.682639 0.346562
0.624949 0.682614 0.346436
0.740706 0.702736 0.382672
0.873532 0.762845 0.471240
0.264998 0.869785 0.354847
0.264998 0.869785 0.354847
0.264998 0.869785 0.354847
0.264998 0.869785 0.354847
0.491512 0.816575 0.390091
0.613769 0.816480 0.389612
0.657408 0.816447 0.389443
0.743017 0.816383 0.389118
0.856657 0.828344 0.411573
0.296809 0.970555 0.395001
0.296809 0.970555 0.395001
0.296809 0.970555 0.395001
0.296809 0.970555 0.395001
0.296809 0.970555 0.395001
0.608043 0.911136 0.420206
0.676549 0.911091 0.419977
0.743876 0.911048 0.419763
0.856396 0.910983 0.419431
0.228967 0.206560 0.255865
0.274862 0.209766 0.259272
0.366435 0.244736 0.293304
0.472613 0.287583 0.335791
0.546961 0.317574 0.365960
0.588459 0.334304 0.382845
0.674591 0.368941 0.417777
0.806828 0.421730 0.470613
0.905204 0.460701 0.509248
0.211096 0.258164 0.254075
0.248501 0.243073 0.238923
0.355656 0.293306 0.290159
0.468242 0.341363 0.339202
0.544772 0.372207 0.370643
0.587321 0.389307 0.388007
0.672259 0.423295 0.422313
0.805343 0.476160 0.475118
0.904858 0.515388 0.513858
0.243362 0.357540 0.290995
0.273543 0.357561 0.291120
0.343560 0.355901 0.284181
0.457499 0.407590 0.353965
0.540080 0.445187 0.389390
0.585413 0.464468 0.407593
0.667026 0.498370 0.440005
0.801729 0.552968 0.492531
0.903640 0.593667 0.531772
0.279347 0.469681 0.328996
0.279347 0.469681 0.328996
0.350279 0.469711 0.317073
0.446662 0.469744 0.317280
0.531822 0.494962 0.359095
0.582437 0.520451 0.393693
0.658011 0.562467 0.444775
0.794841 0.628560 0.509163
0.900696 0.673465 0.549795
0.304473 0.546186 0.345818
0.304473 0.546186 0.345818
0.330754 0.546188 0.338910
0.442124 0.546186 0.328520
0.526073 0.546172 0.328476
0.577390 0.557155 0.348710
0.644084 0.586414 0.393692
0.783005 0.659218 0.486266
0.895110 0.721533 0.555542
0.188957 0.625999 0.256864
0.188957 0.625999 0.256864
0.188957 0.625999 0.256864
0.408020 0.587739 0.316094
0.520449 0.587704 0.315936
0.574792 0.587680 0.315824
0.625192 0.600730 0.339853
0.765599 0.665069 0.433604
0.886275 0.730026 0.513824
0.219879 0.726716 0.297798
0.219879 0.726716 0.297798
0.219879 0.726716 0.297798
0.350770 0.682316 0.349315
0.516792 0.682201 0.346684
0.592553 0.682145 0.346400
0.626078 0.682119 0.346272
0.742533 0.703178 0.384071
0.874490 0.763089 0.472056
0.264870 0.869382 0.354687
0.264870 0.869382 0.354687
0.264870 0.869382 0.354687
0.264870 0.869382 0.354687
0.496093 0.816193 0.389951
0.614957 0.816101 0.389485
0.657652 0.816068 0.389320
0.744258 0.816003 0.388991
0.857835 0.828547 0.412501
0.296744 0.970346 0.394917
0.296744 0.970346 0.394917
0.296744 0.970346 0.394917
0.296744 0.970346 0.394917
0.296744 0.970346 0.394917
0.610146 0.910938 0.420135
0.677033 0.910894 0.419912
0.745192 0.910851 0.419695
0.857344 0.910786 0.419365
0.287920 0.239787 0.354294
0.318404 0.239808 0.354420
0.382219 0.246342 0.361256
0.480818 0.281701 0.396281
0.550463 0.309794 0.423021
0.589815 0.325659 0.438404
0.679446 0.361706 0.473705
0.810694 0.414103 0.525157
0.907199 0.452338 0.562571
0.277652 0.287305 0.353426
0.309921 0.285753 0.351912
0.374474 0.291622 0.358118
0.476770 0.330758 0.396184
0.548417 0.359637 0.424479
0.588740 0.375852 0.440531
0.677128 0.411242 0.475632
0.809203 0.463733 0.527522
0.906794 0.502226 0.565293
0.241877 0.353152 0.350377
0.289925 0.350364 0.347717
0.335130 0.331560 0.328830
0.459987 0.389279 0.387653
0.543959 0.428706 0.427595
0.586880 0.445860 0.444876
0.671835 0.479662 0.478721
0.805506 0.532464 0.531030
0.905452 0.571710 0.569562
0.278563 0.467453 0.392058
0.278563 0.467453 0.392058
0.369738 0.466760 0.391416
0.448984 0.462553 0.381164
0.536144 0.498871 0.432290
0.584086 0.526307 0.464972
0.662908 0.561746 0.497431
0.798837 0.618269 0.549818
0.902663 0.660353 0.589711
0.304157 0.545274 0.416244
0.304157 0.545274 0.416244
0.356686 0.545275 0.416268
0.451381 0.545268 0.405122
0.529554 0.545252 0.405064
0.579310 0.557831 0.427173
0.649035 0.591373 0.474060
0.787416 0.665730 0.557827
0.897213 0.713082 0.599957
0.318302 0.587415 0.423507
0.318302 0.587415 0.423507
0.318302 0.587415 0.423507
0.420521 0.587393 0.409245
0.525246 0.587354 0.409065
0.576425 0.587329 0.408947
0.630004 0.602939 0.436331
0.770246 0.673130 0.529787
0.888740 0.737319 0.600005
0.350441 0.681037 0.447360
0.350441 0.681037 0.447360
0.350441 0.681037 0.447360
0.396939 0.681005 0.447200
0.523558 0.680919 0.426571
0.594457 0.680866 0.426303
0.629022 0.680839 0.426170
0.747278 0.704948 0.467920
0.877058 0.767536 0.554388
0.397494 0.815280 0.480968
0.397494 0.815280 0.480968
0.397494 0.815280 0.480968
0.397494 0.815280 0.480968
0.507289 0.815202 0.451767
0.617926 0.815116 0.451335
0.658320 0.815086 0.451179
0.747487 0.815019 0.450843
0.860852 0.829162 0.477003
0.430893 0.910547 0.489501
0.430893 0.910547 0.489501
0.430893 0.910547 0.489501
0.430893 0.910547 0.489501
0.456163 0.910528 0.489408
0.615274 0.910426 0.452639
0.678251 0.910385 0.452430
0.748577 0.910341 0.452208
0.859756 0.910277 0.451885
0.352581 0.277099 0.466135
0.376559 0.277116 0.466236
0.429263 0.277153 0.466455
0.493944 0.284319 0.473932
0.556165 0.305432 0.495513
0.592006 0.317588 0.507928
0.688076 0.354671 0.543021
0.817444 0.406309 0.591775
0.910728 0.443269 0.626969
0.345876 0.315801 0.465889
0.370741 0.315818 0.465992
0.424655 0.315856 0.466212
0.490446 0.322253 0.472907
0.554388 0.343937 0.495050
0.591083 0.356707 0.507833
0.685802 0.394663 0.543174
0.815955 0.446428 0.592439
0.910229 0.483646 0.628062
0.327036 0.386021 0.464809
0.356014 0.386040 0.464921
0.408071 0.381390 0.460239
0.478410 0.387301 0.466475
0.550265 0.414915 0.493765
0.589284 0.430516 0.508387
0.680483 0.466823 0.543195
0.812362 0.518938 0.593675
0.908945 0.556872 0.630418
0.149709 0.493513 0.492094
0.197281 0.493535 0.492227
0.342641 0.479860 0.478731
0.436733 0.435074 0.433814
0.522185 0.470816 0.469855
0.573521 0.496272 0.495344
0.669771 0.543276 0.542056
0.805770 0.598216 0.596072
0.906091 0.637567 0.634651
0.303592 0.543609 0.490214
0.303592 0.543609 0.490214
0.381895 0.543607 0.490231
0.459241 0.530497 0.475580
0.516254 0.524278 0.466692
0.569848 0.546301 0.494127
0.655643 0.596146 0.550087
0.794770 0.656389 0.606518
0.900878 0.699192 0.647286
0.318119 0.586802 0.502033
0.318119 0.586802 0.502033
0.318119 0.586802 0.502033
0.451996 0.586762 0.501864
0.524599 0.577244 0.485257
0.569656 0.577223 0.485157
0.635730 0.604910 0.523743
0.778189 0.679353 0.606211
0.892638 0.727605 0.650156
0.349755 0.678775 0.530184
0.349755 0.678775 0.530184
0.349755 0.678775 0.530184
0.423747 0.678723 0.529920
0.534314 0.678645 0.516738
0.597509 0.678597 0.516497
0.634198 0.678569 0.516355
0.755594 0.708982 0.565082
0.881498 0.776117 0.648858
0.397009 0.813523 0.571310
0.397009 0.813523 0.571310
0.397009 0.813523 0.571310
0.397009 0.813523 0.571310
0.547087 0.813406 0.570720
0.622739 0.813354 0.549663
0.659372 0.813326 0.549523
0.753185 0.813257 0.549173
0.866007 0.830452 0.579923
0.430712 0.909623 0.594794
0.430712 0.909623 0.594794
0.430712 0.909623 0.594794
0.430712 0.909623 0.594794
0.491555 0.909580 0.594575
0.623635 0.909497 0.567148
0.680316 0.909461 0.566965
0.754664 0.909416 0.566738
0.863982 0.909356 0.566434
0.410254 0.302723 0.542969
0.432116 0.302738 0.543059
0.475889 0.302768 0.543236
0.523356 0.302800 0.543426
0.563737 0.308032 0.548852
0.594817 0.318572 0.559614
0.700974 0.354466 0.596102
0.827229 0.403005 0.641406
0.915919 0.438136 0.673999
0.404839 0.322899 0.542910
0.427175 0.322914 0.543000
0.472350 0.322945 0.543180
0.521327 0.322977 0.543372
0.562354 0.327925 0.548508
0.594165 0.338706 0.559504
0.698816 0.374032 0.595320
0.825749 0.423611 0.641183
0.915265 0.459004 0.674108
0.390736 0.403959 0.543092
0.413741 0.403971 0.543166
0.462659 0.403995 0.543310
0.515746 0.404017 0.543446
0.558601 0.408189 0.547722
0.592460 0.419584 0.559222
0.693476 0.456067 0.594253
0.822356 0.507012 0.641671
0.914126 0.543063 0.675724
0.363794 0.485894 0.542219
0.389783 0.485898 0.542253
0.440941 0.482077 0.538397
0.487156 0.467107 0.523125
0.534807 0.471221 0.527317
0.579275 0.490663 0.546847
0.684130 0.538175 0.591990
0.816120 0.590312 0.642076
0.911430 0.627698 0.678315
0.174017 0.576213 0.575275
0.174017 0.576213 0.575275
0.302242 0.576204 0.575269
0.460454 0.533042 0.532107
0.509265 0.507957 0.507032
0.554754 0.524708 0.523737
0.652534 0.570447 0.569044
0.804758 0.643465 0.640801
0.906288 0.683936 0.680473
0.317816 0.585852 0.555467
0.317816 0.585852 0.555467
0.377765 0.585836 0.555401
0.472929 0.582537 0.551797
0.518279 0.557710 0.525518
0.551612 0.554872 0.522124
0.630542 0.591297 0.561441
0.788171 0.671889 0.641705
0.898357 0.717129 0.685563
0.348645 0.675385 0.586809
0.348645 0.675385 0.586809
0.348645 0.675385 0.586809
0.455278 0.675309 0.586424
0.551906 0.669491 0.579479
0.588698 0.660513 0.564190
0.628232 0.660483 0.564039
0.765213 0.713432 0.633113
0.887732 0.776464 0.698730
0.396171 0.810874 0.633916
0.396171 0.810874 0.633916
0.396171 0.810874 0.633916
0.396171 0.810874 0.633916
0.567849 0.810741 0.633242
0.628871 0.810698 0.617914
0.661437 0.810674 0.617790
0.761536 0.810601 0.617419
0.873137 0.832552 0.654724
0.430325 0.908246 0.665574
0.430325 0.908246 0.665574
0.430325 0.908246 0.665574
0.430325 0.908246 0.665574
0.525924 0.908179 0.665237
0.655262 0.908095 0.664811
0.682945 0.908082 0.644019
0.763683 0.908034 0.643779
0.869934 0.907978 0.643492
0.462976 0.316746 0.585055
0.479745 0.316757 0.585122
0.513051 0.316779 0.585252
0.549766 0.316804 0.585394
0.578238 0.316822 0.585503
0.606741 0.322630 0.591466
0.718477 0.360370 0.629765
0.839866 0.404091 0.671786
0.922800 0.436925 0.701770
0.458899 0.316704 0.584923
0.476235 0.316716 0.584992
0.510606 0.316739 0.585127
0.548393 0.316764 0.585273
0.577568 0.316783 0.585385
0.604860 0.321993 0.590739
0.716454 0.359689 0.629001
0.838446 0.403538 0.671203
0.922013 0.436625 0.701414
0.446926 0.406781 0.585661
0.465824 0.406789 0.585711
0.503124 0.406803 0.585801
0.543905 0.406817 0.585887
0.575026 0.406826 0.585944
0.599324 0.410478 0.589647
0.711159 0.447969 0.627246
0.835324 0.496259 0.671483
0.920993 0.529922 0.702677
0.424767 0.494145 0.585574
0.446431 0.494145 0.585585
0.482770 0.487255 0.578510
0.527628 0.485352 0.576562
0.562482 0.485350 0.576559
0.586185 0.488467 0.579700
0.702346 0.535036 0.624585
0.829620 0.585038 0.671315
0.918525 0.619912 0.704600
0.388867 0.553475 0.584741
0.412987 0.553470 0.584723
0.464763 0.552189 0.583394
0.504191 0.533504 0.564547
0.535058 0.522915 0.553844
0.560786 0.524777 0.555689
0.674762 0.576788 0.606292
0.819627 0.643076 0.670292
0.913675 0.680034 0.706314
0.188001 0.622519 0.621551
0.188001 0.622519 0.621551
0.278997 0.622492 0.621430
0.454038 0.597267 0.596077
0.525704 0.557298 0.556229
0.550317 0.548753 0.547694
0.639708 0.584481 0.582976
0.797722 0.661623 0.658768
0.905991 0.709780 0.706020
0.347062 0.670744 0.615367
0.347062 0.670744 0.615367
0.378616 0.670722 0.615256
0.492596 0.670640 0.614839
0.559671 0.659345 0.602369
0.584179 0.644082 0.585712
0.625741 0.642308 0.582195
0.774358 0.711955 0.661329
0.895818 0.771798 0.719611
0.394930 0.807207 0.665178
0.394930 0.807207 0.665178
0.394930 0.807207 0.665178
0.467800 0.807150 0.664891
0.590043 0.807056 0.664415
0.646635 0.804742 0.661478
0.668235 0.801870 0.647144
0.767755 0.801797 0.646773
0.881805 0.835147 0.697120
0.429709 0.906352 0.700609
0.429709 0.906352 0.700609
0.429709 0.906352 0.700609
0.429709 0.906352 0.700609
0.566375 0.906258 0.700134
0.666141 0.906194 0.699812
0.694752 0.906179 0.691103
0.775854 0.906133 0.681990
0.877374 0.906080 0.681721
0.530790 0.348067 0.678930
0.542581 0.348073 0.678968
0.566099 0.348086 0.679042
0.593155 0.348099 0.679122
0.615091 0.348109 0.679183
0.646130 0.348122 0.679262
0.740656 0.367842 0.699238
0.854741 0.406049 0.737496
0.931324 0.431556 0.762807
0.527817 0.347921 0.678487
0.539995 0.347928 0.678528
0.564228 0.347940 0.678604
0.592015 0.347954 0.678687
0.614455 0.347964 0.678749
0.644664 0.347977 0.678827
0.738688 0.367181 0.698286
0.853479 0.405628 0.736791
0.930572 0.431306 0.762274
0.519264 0.422405 0.677978
0.532530 0.422408 0.677997
0.558764 0.422413 0.678031
0.588579 0.422417 0.678063
0.612414 0.422419 0.678084
0.640639 0.422421 0.678103
0.733630 0.440245 0.695931
0.850659 0.479197 0.734543
0.929460 0.508728 0.761467
0.503293 0.515660 0.676131
0.518632 0.515657 0.676118
0.548974 0.515650 0.676087
0.582826 0.515640 0.676044
0.609414 0.515631 0.676004
0.634358 0.515622 0.675961
0.725111 0.530994 0.691057
0.845685 0.573647 0.731256
0.927244 0.605642 0.760375
0.475018 0.579586 0.672911
0.494152 0.579577 0.672867
0.531117 0.578764 0.671967
0.561780 0.568294 0.661255
0.590023 0.565240 0.658087
0.610563 0.565229 0.658030
0.702926 0.582645 0.675180
0.836826 0.637968 0.727046
0.922763 0.671673 0.758686
0.427423 0.611841 0.668731
0.450758 0.611828 0.668666
0.501439 0.611797 0.668511
0.549679 0.604955 0.661507
0.575009 0.590545 0.646939
0.591266 0.583872 0.640172
0.667576 0.593988 0.650043
0.818617 0.663202 0.716087
0.915539 0.704173 0.755257
0.214510 0.707977 0.706382
0.214510 0.707977 0.706382
0.240835 0.707959 0.706288
0.414847 0.705586 0.703422
0.538215 0.670226 0.668085
0.580344 0.646355 0.644355
0.626864 0.624027 0.622135
0.776717 0.687299 0.684207
0.896565 0.746468 0.742323
0.393303 0.802381 0.710831
0.393303 0.802381 0.710831
0.393303 0.802381 0.710831
0.522265 0.802281 0.710323
0.610789 0.802213 0.709981
0.650547 0.797881 0.705000
0.678428 0.784692 0.690109
0.763052 0.778296 0.678695
0.883172 0.829532 0.743477
0.428900 0.903872 0.744084
0.428900 0.903872 0.744084
0.428900 0.903872 0.744084
0.439251 0.903865 0.744046
0.605177 0.903753 0.743480
0.676840 0.903708 0.743255
0.707381 0.903511 0.742948
0.786425 0.897872 0.723884
0.880122 0.897822 0.723634
0.606474 0.393059 0.813560
0.614268 0.393060 0.813569
0.630270 0.393062 0.813587
0.649324 0.393065 0.813606
0.665429 0.393066 0.813619
0.709487 0.393068 0.813646
0.783526 0.393066 0.813658
0.870620 0.411325 0.831835
0.941560 0.434916 0.855185
0.604513 0.392947 0.813224
0.612530 0.392948 0.813233
0.628961 0.392951 0.813252
0.648487 0.392953 0.813271
0.664959 0.392955 0.813285
0.708002 0.392957 0.813312
0.782166 0.392955 0.813325
0.869580 0.410979 0.831269
0.940839 0.434677 0.854728
0.599200 0.444706 0.812475
0.607835 0.444705 0.812475
0.625450 0.444703 0.812471
0.646270 0.444701 0.812465
0.663734 0.444698 0.812456
0.704295 0.444691 0.812428
0.778841 0.444671 0.812343
0.867218 0.462035 0.829466
0.939554 0.485990 0.853008
0.589347 0.548611 0.810493
0.599253 0.548606 0.810466
0.619273 0.548594 0.810410
0.642681 0.548580 0.810340
0.662066 0.548568 0.810279
0.698384 0.548544 0.810157
0.773500 0.548491 0.809888
0.863309 0.564610 0.825558
0.937575 0.589144 0.849573
0.571597 0.620095 0.807436
0.583888 0.620086 0.807390
0.608337 0.620068 0.807299
0.636361 0.620047 0.807193
0.658982 0.620030 0.807107
0.689314 0.620007 0.806991
0.764730 0.619949 0.806699
0.855893 0.634061 0.820356
0.933437 0.659673 0.845421
0.539284 0.655607 0.803904
0.555809 0.655594 0.803841
0.588640 0.655569 0.803715
0.624871 0.655503 0.803535
0.649446 0.651920 0.799802
0.671389 0.650479 0.798262
0.746368 0.650420 0.797967
0.841696 0.664502 0.811682
0.926697 0.693986 0.840522
0.481954 0.705517 0.799271
0.505036 0.705499 0.799181
0.553230 0.705462 0.798991
0.605487 0.705421 0.798785
0.641414 0.703088 0.796319
0.658297 0.697722 0.790850
0.710460 0.682149 0.774949
0.805758 0.692080 0.784551
0.911364 0.738078 0.828813
0.258844 0.848047 0.844710
0.258844 0.848047 0.844710
0.258844 0.848047 0.844710
0.360698 0.847968 0.844311
0.485745 0.846590 0.842565
0.561314 0.833178 0.829075
0.665545 0.793357 0.789384
0.753018 0.747439 0.743720
0.863372 0.790675 0.786154
0.427917 0.900742 0.828242
0.427917 0.900742 0.828242
0.427917 0.900742 0.828242
0.536051 0.900668 0.827868
0.637385 0.900603 0.827540
0.686523 0.900574 0.827391
0.722059 0.898155 0.824689
0.783961 0.867379 0.791209
0.855517 0.860862 0.782305
0.662945 0.425110 0.909314
0.667942 0.425110 0.909313
0.678383 0.425108 0.909309
0.691404 0.425107 0.909303
0.707148 0.425104 0.909294
0.764683 0.425092 0.909246
0.835792 0.425070 0.909151
0.895531 0.425046 0.909041
0.953438 0.438824 0.922603
0.661706 0.425053 0.909142
0.666838 0.425052 0.909140
0.677530 0.425051 0.909137
0.690845 0.425049 0.909131
0.705821 0.425046 0.909122
0.763246 0.425034 0.909075
0.834581 0.425013 0.908980
0.894840 0.424989 0.908870
0.952739 0.438592 0.922260
0.658410 0.426300 0.908700
0.663901 0.426299 0.908699
0.675277 0.426298 0.908695
0.689371 0.426296 0.908688
0.702405 0.426294 0.908681
0.759589 0.426282 0.908633
0.831477 0.426260 0.908538
0.893078 0.426235 0.908424
0.950972 0.439394 0.921372
0.652972 0.564442 0.906976
0.659170 0.564437 0.906954
0.671983 0.564428 0.906907
0.687635 0.564417 0.906851
0.700917 0.564407 0.906802
0.754327 0.564368 0.906604
0.827282 0.564313 0.906328
0.891444 0.564265 0.906080
0.949505 0.576599 0.918088
0.642781 0.646539 0.904776
0.650232 0.646533 0.904747
0.665566 0.646521 0.904687
0.683901 0.646507 0.904615
0.699438 0.646495 0.904554
0.745538 0.646459 0.904372
0.819626 0.646401 0.904079
0.887563 0.646348 0.903810
0.945740 0.657469 0.914618
0.623997 0.686618 0.902666
0.633764 0.686610 0.902628
0.653523 0.686595 0.902549
0.676651 0.686576 0.902458
0.695832 0.686561 0.902382
0.732644 0.686533 0.902236
0.807751 0.686474 0.901940
0.880791 0.686418 0.901655
0.939453 0.695835 0.910784
0.589856 0.733432 0.900020
0.604243 0.733420 0.899963
0.632588 0.733398 0.899851
0.664504 0.733373 0.899726
0.689783 0.733354 0.899627
0.715183 0.732170 0.898340
0.786209 0.727941 0.893802
0.864983 0.727882 0.893503
0.927521 0.737115 0.902522
0.525331 0.825955 0.896348
0.547920 0.825938 0.896263
0.593721 0.825904 0.896094
0.643369 0.825869 0.895914
0.680016 0.825843 0.895783
0.701434 0.825758 0.895638
0.755536 0.809977 0.879641
0.816501 0.786903 0.856267
0.881911 0.793010 0.862173
0.292722 0.955260 0.950631
0.292722 0.955260 0.950631
0.292722 0.955260 0.950631
0.317168 0.955244 0.950549
0.446332 0.955162 0.950138
0.515712 0.955122 0.949935
0.636854 0.937620 0.932310
0.790632 0.869335 0.864248
0.849402 0.841926 0.836941
