data/luts/JSZ-CEDAR H.cube
# Baked from the Lightroom preset "JSZ-CEDAR H" by scripts/lightroom-preset-lut.lisp
# Colour only; not in this LUT (add the node instead):
#   Clarity +10
#   Sharpening 25, radius 1.0
TITLE "JSZ-CEDAR H"
LUT_3D_SIZE 5
DOMAIN_MIN 0.0 0.0 0.0
DOMAIN_MAX 1.0 1.0 1.0
0.191419 0.191419 0.191419
0.311540 0.257313 0.251412
0.448306 0.320552 0.306357
0.709939 0.440903 0.411010
0.874566 0.516631 0.476861
0.266769 0.296777 0.269204
0.292102 0.237350 0.194263
0.415932 0.344377 0.282249
0.683377 0.474811 0.394837
0.848716 0.552633 0.462310
0.373801 0.445300 0.383621
0.379770 0.443279 0.358325
0.437995 0.303779 0.198323
0.659029 0.523539 0.381375
0.818890 0.602785 0.444672
0.560716 0.694237 0.595845
0.547940 0.692896 0.562070
0.605435 0.687527 0.496993
0.681848 0.452747 0.272739
0.820916 0.693555 0.483273
0.676735 0.862602 0.711335
0.664187 0.861370 0.676725
0.721432 0.856248 0.612237
0.807392 0.852343 0.572826
0.847970 0.563052 0.339188
0.169228 0.169228 0.302373
0.290263 0.235800 0.302373
0.414481 0.283242 0.348408
0.683978 0.395980 0.448764
0.850417 0.463694 0.507363
0.228227 0.292102 0.292102
0.292102 0.292102 0.292102
0.452566 0.380750 0.373427
0.714585 0.503177 0.479687
0.877816 0.578263 0.544979
0.405568 0.447672 0.430517
0.389305 0.444989 0.393627
0.437995 0.336407 0.256587
0.664660 0.532988 0.417969
0.829669 0.614435 0.487683
0.560716 0.694237 0.595845
0.547940 0.692896 0.562070
0.605435 0.687527 0.496993
0.681848 0.452747 0.272739
0.820916 0.693555 0.483273
0.676735 0.862602 0.711335
0.664187 0.861370 0.676725
0.721432 0.856248 0.612237
0.807392 0.852343 0.572826
0.847970 0.563052 0.339188
0.200638 0.200638 0.501595
0.369952 0.315489 0.501595
0.443825 0.315489 0.501595
0.641852 0.371592 0.557698
0.808719 0.440957 0.623083
0.331534 0.369611 0.485873
0.253348 0.253348 0.485873
0.441700 0.369611 0.485873
0.657806 0.441572 0.556083
0.827995 0.514049 0.622145
0.340916 0.437995 0.437995
0.367613 0.437995 0.437995
0.437995 0.437995 0.437995
0.728565 0.596539 0.581952
0.888239 0.670197 0.645970
0.607919 0.696432 0.687513
0.632572 0.698206 0.690798
0.605464 0.691342 0.596453
0.681848 0.521717 0.395900
0.820916 0.718864 0.578647
0.735683 0.865706 0.799901
0.722792 0.864209 0.771666
0.720912 0.857995 0.669497
0.796485 0.853264 0.629146
0.847970 0.563052 0.339188
0.288149 0.288149 0.720373
0.457463 0.403000 0.720373
0.531336 0.403000 0.720373
0.673260 0.403000 0.720373
0.790690 0.431127 0.748500
0.423905 0.461982 0.716800
0.286720 0.286720 0.716800
0.534071 0.461982 0.716800
0.674352 0.461982 0.716800
0.793629 0.492713 0.747532
0.447764 0.544843 0.705115
0.474461 0.544843 0.705115
0.384572 0.384572 0.705115
0.677463 0.544843 0.705115
0.803052 0.584018 0.744290
0.272739 0.681848 0.681848
0.306540 0.681848 0.681848
0.512040 0.681848 0.681848
0.681848 0.681848 0.681848
0.861276 0.777900 0.773733
0.675184 0.857935 0.847770
0.698544 0.858850 0.849120
0.793016 0.864553 0.854525
0.784233 0.858838 0.785473
0.847970 0.767788 0.664163
0.363476 0.363476 0.908690
0.532790 0.478327 0.908690
0.606663 0.478327 0.908690
0.748587 0.478327 0.908690
0.837890 0.478327 0.908690
0.499430 0.537506 0.905612
0.362245 0.362245 0.905612
0.609596 0.537506 0.905612
0.749876 0.537506 0.905612
0.838422 0.537506 0.905612
0.524018 0.621097 0.895750
0.550715 0.621097 0.895750
0.358300 0.358300 0.895750
0.753717 0.621097 0.895750
0.840131 0.621097 0.895750
0.549733 0.759950 0.877103
0.572296 0.759950 0.877103
0.663111 0.759950 0.877103
0.678057 0.678057 0.877103
0.843391 0.759950 0.877103
0.339188 0.847970 0.847970
0.357896 0.847970 0.847970
0.553238 0.847970 0.847970
0.733213 0.847970 0.847970
0.847970 0.847970 0.847970
