data/luts/JSZ-CEDAR A.cube
# Baked from the Lightroom preset "JSZ-CEDAR A" by scripts/lightroom-preset-lut.lisp
# Colour only; not in this LUT (add the node instead):
#   Clarity -5
#   Vignette -17, midpoint 35, feather 66, roundness +14
#   Grain 9, size 25
TITLE "JSZ-CEDAR A"
LUT_3D_SIZE 33
DOMAIN_MIN 0.0 0.0 0.0
DOMAIN_MAX 1.0 1.0 1.0
0.060910 0.067996 0.080277
0.066073 0.067508 0.078509
0.076248 0.070787 0.080695
0.086940 0.074982 0.084123
0.107096 0.084650 0.094092
0.126792 0.093398 0.103514
0.149150 0.103459 0.114319
0.174237 0.114795 0.126525
0.202043 0.127380 0.140139
0.234180 0.141870 0.155669
0.275388 0.160249 0.174758
0.327059 0.183122 0.197964
0.383434 0.208045 0.223149
0.434500 0.230678 0.246240
0.474253 0.248446 0.264902
0.508153 0.263702 0.281300
0.537718 0.277102 0.296045
0.563568 0.288915 0.309389
0.587310 0.299835 0.321973
0.609196 0.309974 0.333906
0.629282 0.319357 0.345216
0.647604 0.328000 0.355926
0.664397 0.336009 0.366136
0.679872 0.343475 0.375936
0.702245 0.353930 0.388563
0.724793 0.364487 0.401381
0.745530 0.374293 0.413615
0.764413 0.383332 0.425252
0.782131 0.391901 0.436569
0.798889 0.400090 0.447656
0.814827 0.408001 0.458752
0.830409 0.415889 0.470293
0.845882 0.423882 0.482466
0.062987 0.080541 0.085400
0.069524 0.079226 0.083906
0.075375 0.076596 0.081571
0.089044 0.079722 0.084604
0.105724 0.086597 0.090858
0.126019 0.094038 0.100274
0.148831 0.102495 0.110993
0.173963 0.113887 0.123229
0.201795 0.126510 0.136865
0.234012 0.141089 0.152584
0.275375 0.159637 0.172117
0.327133 0.182622 0.195634
0.383498 0.207574 0.220936
0.434496 0.230227 0.244200
0.474195 0.248010 0.263005
0.508075 0.263288 0.279531
0.537623 0.276705 0.294381
0.563465 0.288536 0.307816
0.587201 0.299471 0.320477
0.609084 0.309623 0.332474
0.629166 0.319016 0.343840
0.647484 0.327668 0.354597
0.664275 0.335685 0.364847
0.679748 0.343157 0.374682
0.702147 0.353630 0.387349
0.724692 0.364191 0.400193
0.745425 0.374001 0.412448
0.764304 0.383042 0.424104
0.782020 0.391614 0.435438
0.798775 0.399804 0.446534
0.814704 0.407699 0.457578
0.830270 0.415558 0.469014
0.845729 0.423525 0.481095
0.071282 0.097216 0.096255
0.077281 0.095006 0.093772
0.081903 0.091952 0.089154
0.090737 0.091853 0.086308
0.106543 0.095589 0.091856
0.124111 0.102755 0.100208
0.146436 0.110206 0.108908
0.172462 0.118086 0.119725
0.201062 0.127877 0.133316
0.233791 0.140149 0.148864
0.275288 0.158813 0.168631
0.327172 0.181973 0.192679
0.383550 0.207006 0.218288
0.434467 0.229671 0.241713
0.474112 0.247484 0.260728
0.507974 0.262795 0.277432
0.537506 0.276238 0.292425
0.563340 0.288092 0.305979
0.587073 0.299049 0.318740
0.608953 0.309217 0.330820
0.629032 0.318624 0.342255
0.647347 0.327288 0.353071
0.664135 0.335314 0.363371
0.679607 0.342795 0.373248
0.702035 0.353288 0.385964
0.724577 0.363855 0.398838
0.745305 0.373668 0.411119
0.764180 0.382713 0.422798
0.781894 0.391288 0.434152
0.798647 0.399480 0.445266
0.814567 0.407363 0.456266
0.830115 0.415191 0.467592
0.845559 0.423127 0.479564
0.084308 0.114538 0.110104
0.089864 0.111944 0.107629
0.094674 0.107853 0.104056
0.096078 0.107487 0.096843
0.113504 0.110952 0.096339
0.130601 0.115821 0.101621
0.150930 0.123301 0.110331
0.174396 0.133197 0.122109
0.200721 0.143381 0.133988
0.231069 0.155155 0.149577
0.273792 0.165284 0.164606
0.326708 0.183231 0.187872
0.383551 0.206054 0.213956
0.434383 0.228796 0.237839
0.473952 0.246650 0.257156
0.507799 0.262032 0.274200
0.537316 0.275528 0.289457
0.563145 0.287426 0.303223
0.586878 0.298419 0.316155
0.608756 0.308617 0.328376
0.628831 0.318047 0.339926
0.647144 0.326731 0.350838
0.663930 0.334773 0.361219
0.679400 0.342268 0.371164
0.701872 0.352792 0.383955
0.724411 0.363368 0.396877
0.745131 0.373187 0.409197
0.764001 0.382237 0.420911
0.781712 0.390817 0.432297
0.798462 0.399015 0.443439
0.814373 0.406886 0.454406
0.829901 0.414678 0.465603
0.845320 0.422568 0.477410
0.099264 0.134213 0.126788
0.104766 0.131546 0.124580
0.109613 0.127811 0.121726
0.110702 0.127188 0.115403
0.118178 0.131394 0.108904
0.136611 0.127892 0.104467
0.156098 0.135094 0.111124
0.179686 0.145925 0.120532
0.205689 0.155804 0.132470
0.236436 0.168965 0.147756
0.276615 0.185902 0.166383
0.326536 0.206745 0.190843
0.380845 0.228199 0.218139
0.432711 0.238993 0.235713
0.473380 0.247148 0.251967
0.507491 0.260863 0.269297
0.537010 0.274473 0.285076
0.562847 0.286459 0.299236
0.586588 0.297521 0.312474
0.608471 0.307772 0.324934
0.628547 0.317243 0.336676
0.646859 0.325960 0.347743
0.663645 0.334029 0.358253
0.679116 0.341546 0.368306
0.701651 0.352117 0.381210
0.724182 0.362705 0.394204
0.744894 0.372534 0.406585
0.763758 0.381593 0.418352
0.781465 0.390181 0.429784
0.798212 0.398386 0.440967
0.814119 0.406259 0.451952
0.829627 0.414016 0.463029
0.845011 0.421841 0.474600
0.116217 0.156296 0.145984
0.121766 0.153604 0.144024
0.126590 0.150189 0.141700
0.126791 0.150299 0.135064
0.127158 0.153394 0.123988
0.144403 0.156995 0.120409
0.161328 0.145912 0.112578
0.184151 0.156122 0.121293
0.210764 0.170182 0.132179
0.241473 0.181830 0.144800
0.281687 0.198816 0.163994
0.332105 0.221187 0.188116
0.386705 0.244703 0.213062
0.435034 0.264648 0.236904
0.471515 0.279228 0.259205
0.504233 0.286258 0.274872
0.535070 0.284070 0.281846
0.562322 0.285436 0.293520
0.586157 0.296255 0.307300
0.608063 0.306607 0.320198
0.628151 0.316153 0.332273
0.646472 0.324928 0.343602
0.663264 0.333043 0.354320
0.678739 0.340597 0.364543
0.701358 0.351233 0.377616
0.723881 0.361842 0.390720
0.744584 0.371687 0.403192
0.763441 0.380760 0.415037
0.781145 0.389361 0.426537
0.797889 0.397576 0.437779
0.813795 0.405459 0.448816
0.829289 0.413197 0.459834
0.844638 0.420956 0.471167
0.135335 0.180977 0.167725
0.140896 0.178292 0.165986
0.145677 0.175121 0.164041
0.144661 0.176009 0.156758
0.141359 0.178529 0.143354
0.152135 0.181380 0.137232
0.174132 0.184671 0.132116
0.188780 0.165914 0.121775
0.215002 0.179193 0.132324
0.246445 0.195901 0.145259
0.287150 0.213867 0.161850
0.337463 0.234627 0.184627
0.391842 0.258692 0.210670
0.440272 0.279707 0.233627
0.477699 0.294791 0.251097
0.509325 0.306774 0.267739
0.535753 0.316720 0.286948
0.558293 0.324322 0.304724
0.582625 0.321747 0.311720
0.606113 0.313723 0.314674
0.627594 0.314675 0.326303
0.645944 0.323559 0.338105
0.662757 0.331757 0.349183
0.678246 0.339375 0.359686
0.700976 0.350104 0.373019
0.723495 0.360748 0.386296
0.744190 0.370619 0.398909
0.763041 0.379714 0.410871
0.780744 0.388335 0.422471
0.797485 0.396566 0.433797
0.813390 0.404463 0.444908
0.828885 0.412212 0.455981
0.844208 0.419927 0.467162
0.156686 0.208300 0.191994
0.162162 0.205665 0.190459
0.166879 0.202696 0.188799
0.164355 0.204407 0.180590
0.160779 0.206579 0.167759
0.163959 0.209007 0.156361
0.180823 0.211750 0.150962
0.207563 0.214888 0.144406
0.219751 0.189635 0.132465
0.251051 0.205711 0.145213
0.292472 0.228000 0.162314
0.343357 0.251777 0.183184
0.397401 0.273522 0.206845
0.445356 0.294038 0.229753
0.482498 0.309590 0.247943
0.514374 0.322358 0.263592
0.541976 0.332623 0.277064
0.565734 0.340867 0.290278
0.586311 0.348222 0.308464
0.604817 0.354008 0.325491
0.622394 0.356102 0.338318
0.642292 0.347106 0.339945
0.660924 0.337760 0.343413
0.677600 0.337799 0.353417
0.700476 0.348669 0.367177
0.723000 0.359375 0.380742
0.743694 0.369293 0.393581
0.762544 0.378425 0.405726
0.780248 0.387078 0.417477
0.796990 0.395334 0.428927
0.812897 0.403253 0.440144
0.828395 0.411021 0.451308
0.843716 0.418740 0.462522
0.181600 0.240071 0.220366
0.186790 0.237464 0.218958
0.190036 0.235445 0.216557
0.186974 0.237039 0.207956
0.183129 0.238824 0.195454
0.179124 0.240812 0.178426
0.192591 0.243036 0.172743
0.213451 0.245538 0.165935
0.244717 0.248374 0.157845
0.256253 0.217091 0.145152
0.297690 0.238742 0.162173
0.349077 0.266650 0.183479
0.403502 0.292643 0.205920
0.450871 0.310731 0.226008
0.487639 0.325272 0.243327
0.519334 0.337824 0.258978
0.546818 0.348387 0.272904
0.570788 0.357080 0.285242
0.592710 0.364458 0.296555
0.612636 0.370636 0.307655
0.629360 0.376776 0.326397
0.644156 0.380776 0.342842
0.657426 0.383205 0.356985
0.672206 0.378110 0.363122
0.696928 0.368868 0.365400
0.721528 0.363396 0.374512
0.743066 0.367648 0.386960
0.761926 0.376846 0.399408
0.779641 0.385551 0.411399
0.796389 0.393849 0.423041
0.812302 0.401802 0.434416
0.827807 0.409598 0.445713
0.843136 0.417342 0.457039
0.213172 0.280617 0.256674
0.217929 0.278105 0.255395
0.219055 0.277228 0.251677
0.215804 0.278501 0.242970
0.211712 0.279901 0.230740
0.206712 0.281417 0.213958
0.210216 0.283068 0.200705
0.226577 0.284884 0.193575
0.250727 0.286905 0.185192
0.289104 0.289697 0.174723
0.303972 0.252473 0.161865
0.355132 0.279425 0.183045
0.409586 0.308860 0.205782
0.457197 0.333524 0.225739
0.493410 0.345648 0.240672
0.524785 0.356329 0.254565
0.552028 0.365804 0.267739
0.575863 0.373998 0.279912
0.597732 0.381400 0.291424
0.617769 0.387876 0.302200
0.635963 0.393231 0.312165
0.652361 0.397371 0.321252
0.665674 0.402522 0.340655
0.677483 0.405326 0.357288
0.696990 0.410617 0.374856
0.715720 0.414768 0.391066
0.737670 0.406485 0.394207
0.758395 0.393180 0.393931
0.778488 0.386577 0.404390
0.795658 0.392063 0.415942
0.811587 0.400072 0.427568
0.827107 0.407914 0.439066
0.842449 0.415695 0.450558
0.250287 0.328726 0.299802
0.254789 0.326314 0.298647
0.253423 0.326662 0.293348
0.250095 0.327743 0.284691
0.245894 0.328926 0.272801
0.240762 0.330185 0.256872
0.234610 0.331522 0.235796
0.246516 0.332941 0.227340
0.265562 0.334469 0.218820
0.295656 0.336631 0.208197
0.340273 0.332845 0.194012
0.362361 0.295706 0.182335
0.416224 0.324023 0.204806
0.463173 0.349005 0.224571
0.499805 0.368335 0.240172
0.531538 0.383879 0.253750
0.558406 0.391174 0.265036
0.581958 0.397121 0.275261
0.603577 0.402741 0.285679
0.623353 0.407746 0.296061
0.641372 0.412285 0.306039
0.657685 0.416208 0.315425
0.672485 0.419393 0.324211
0.685979 0.421889 0.332359
0.705816 0.430222 0.355403
0.724414 0.436949 0.377247
0.741269 0.440863 0.394476
0.756243 0.443166 0.409620
0.771585 0.440835 0.419924
0.790184 0.427616 0.419245
0.808197 0.415258 0.421651
0.826271 0.405919 0.431168
0.841638 0.413761 0.442921
0.289501 0.379642 0.345496
0.292244 0.378187 0.343393
0.289808 0.379082 0.337439
0.286551 0.380154 0.329001
0.282425 0.381357 0.317563
0.277382 0.382662 0.302476
0.271345 0.384055 0.282859
0.270836 0.385525 0.264228
0.286599 0.387093 0.255885
0.311336 0.389268 0.245431
0.353264 0.392740 0.231564
0.397401 0.375040 0.213447
0.423749 0.342069 0.203577
0.469811 0.365959 0.222950
0.505886 0.384588 0.238306
0.537403 0.400735 0.251853
0.564815 0.414560 0.263773
0.588935 0.426469 0.274395
0.610746 0.434098 0.283948
0.630334 0.437197 0.292447
0.648125 0.439449 0.300464
0.664190 0.441328 0.308687
0.678755 0.442882 0.316975
0.692026 0.444127 0.325146
0.713264 0.449155 0.337313
0.733449 0.454000 0.348996
0.750495 0.460408 0.371047
0.765247 0.465964 0.393670
0.779017 0.468734 0.410996
0.791789 0.469832 0.425779
0.803582 0.469822 0.439423
0.818822 0.460759 0.443534
0.836184 0.444416 0.441022
0.325056 0.425165 0.386465
0.324641 0.425321 0.382408
0.322343 0.426272 0.376651
0.319254 0.427459 0.368519
0.315332 0.428849 0.357568
0.310538 0.430417 0.343252
0.304808 0.432147 0.324844
0.298076 0.434026 0.301464
0.308699 0.436097 0.290174
0.330540 0.438877 0.280181
0.366655 0.442933 0.266976
0.422281 0.448098 0.250465
0.453274 0.410437 0.227917
0.476609 0.383600 0.221351
0.512187 0.401759 0.236412
0.543413 0.417649 0.249749
0.570600 0.431310 0.261488
0.594601 0.443136 0.271979
0.616692 0.453797 0.281752
0.636971 0.463316 0.290851
0.655430 0.471676 0.299271
0.671904 0.476854 0.306825
0.686349 0.476745 0.313371
0.699675 0.475849 0.319540
0.720768 0.478590 0.329826
0.740683 0.481339 0.340716
0.758750 0.483648 0.351492
0.775011 0.485418 0.361808
0.788959 0.488924 0.382414
0.801258 0.493173 0.406739
0.813011 0.495437 0.425443
0.824449 0.495838 0.440445
0.835573 0.495363 0.454334
0.354870 0.465714 0.421134
0.352793 0.466660 0.416041
0.350593 0.467613 0.410435
0.347616 0.468833 0.402514
0.343821 0.470300 0.391874
0.339178 0.471990 0.378039
0.333634 0.473893 0.360381
0.327138 0.475996 0.338158
0.329102 0.478378 0.319490
0.349293 0.481569 0.309752
0.382133 0.486061 0.296937
0.431524 0.491633 0.281114
0.494583 0.497189 0.263904
0.501216 0.441496 0.240531
0.517966 0.417157 0.234904
0.548899 0.432877 0.248018
0.575882 0.446527 0.259550
0.599820 0.458518 0.269871
0.621902 0.469435 0.279480
0.642210 0.479274 0.288418
0.660717 0.487987 0.296679
0.677498 0.495585 0.304299
0.692761 0.502156 0.311372
0.707170 0.508056 0.318179
0.729115 0.517357 0.328157
0.749016 0.518812 0.337013
0.767013 0.519024 0.345187
0.783146 0.518540 0.353493
0.798108 0.517888 0.362408
0.812042 0.517070 0.371671
0.824146 0.517996 0.390488
0.834846 0.520865 0.416903
0.845617 0.522353 0.437819
0.379664 0.502650 0.450468
0.377704 0.503594 0.445541
0.375609 0.504567 0.440093
0.372756 0.505842 0.432382
0.369105 0.507404 0.422027
0.364627 0.509237 0.408600
0.359280 0.511329 0.391544
0.353021 0.513666 0.370218
0.348201 0.516366 0.345597
0.367370 0.519950 0.336076
0.398195 0.524867 0.323537
0.443441 0.530791 0.308258
0.499763 0.536633 0.291914
0.540960 0.525802 0.277064
0.543624 0.477578 0.256035
0.554015 0.446769 0.246587
0.580720 0.460234 0.257938
0.604517 0.472165 0.268130
0.626508 0.483107 0.277618
0.646768 0.493063 0.286433
0.665263 0.501984 0.294564
0.682080 0.509893 0.302050
0.697426 0.516886 0.308977
0.712256 0.523489 0.315744
0.734444 0.534165 0.325613
0.755403 0.543995 0.335052
0.774459 0.552546 0.343800
0.791501 0.558511 0.351752
0.806695 0.557735 0.358742
0.820780 0.555771 0.365382
0.833906 0.553000 0.372292
0.846516 0.550182 0.380199
0.858085 0.548818 0.396678
0.400343 0.533936 0.474578
0.398487 0.534877 0.469799
0.396486 0.535866 0.464490
0.393747 0.537183 0.456955
0.390225 0.538824 0.446828
0.385895 0.540776 0.433712
0.380722 0.543030 0.417107
0.374676 0.545572 0.396442
0.367428 0.548570 0.369866
0.383680 0.552540 0.358057
0.413348 0.557873 0.345743
0.455898 0.564159 0.330946
0.507584 0.570313 0.315397
0.558174 0.574988 0.301542
0.578176 0.551847 0.289470
0.580524 0.508919 0.269494
0.585165 0.472474 0.256635
0.608823 0.484398 0.266691
0.630718 0.495396 0.276052
0.650915 0.505464 0.284745
0.669370 0.514543 0.292757
0.686180 0.522658 0.300127
0.701544 0.529897 0.306944
0.716730 0.536949 0.313733
0.738953 0.547869 0.323486
0.759953 0.558016 0.332789
0.779091 0.567006 0.341381
0.796427 0.574851 0.349291
0.812647 0.581924 0.356808
0.827853 0.588274 0.363975
0.842069 0.592837 0.370764
0.855145 0.591142 0.376908
0.867875 0.588452 0.383024
0.417884 0.560935 0.494675
0.416114 0.561867 0.490019
0.414193 0.562860 0.484824
0.411547 0.564199 0.477426
0.408129 0.565888 0.467468
0.403916 0.567916 0.454576
0.398878 0.570276 0.438288
0.392991 0.572952 0.418093
0.385835 0.576172 0.391823
0.398390 0.580443 0.376494
0.427387 0.586068 0.364296
0.468075 0.592571 0.349841
0.516342 0.598861 0.334918
0.562664 0.603682 0.321843
0.605273 0.607188 0.310466
0.609938 0.572790 0.298978
0.611913 0.534897 0.280615
0.613270 0.496222 0.266123
0.634444 0.505862 0.274846
0.654550 0.515995 0.283428
0.672943 0.525196 0.291326
0.689726 0.533495 0.298588
0.705099 0.540981 0.305295
0.720663 0.548523 0.312115
0.742923 0.559741 0.321746
0.763954 0.570216 0.330912
0.783140 0.579578 0.339364
0.800559 0.587844 0.347138
0.816889 0.595376 0.354519
0.832215 0.602202 0.361550
0.846710 0.608401 0.368307
0.860774 0.614185 0.374962
0.874617 0.619660 0.381609
0.432362 0.583753 0.510847
0.430669 0.584679 0.506297
0.428821 0.585677 0.501197
0.426262 0.587037 0.493915
0.422942 0.588769 0.484094
0.418839 0.590865 0.471377
0.413926 0.593320 0.455335
0.408176 0.596123 0.435459
0.401090 0.599552 0.409308
0.411560 0.604126 0.391723
0.440252 0.610023 0.379617
0.479650 0.616720 0.365479
0.525264 0.623117 0.351154
0.568256 0.628059 0.338800
0.608119 0.631846 0.327988
0.634934 0.622932 0.317917
0.637310 0.590554 0.306567
0.639142 0.556324 0.289742
0.640533 0.521134 0.276304
0.657820 0.525091 0.282397
0.676117 0.534340 0.290196
0.692838 0.542728 0.297365
0.708175 0.550340 0.303985
0.724096 0.558244 0.310872
0.746346 0.569627 0.320408
0.767360 0.580307 0.329463
0.786551 0.589934 0.337796
0.804021 0.598544 0.345452
0.820436 0.606494 0.352709
0.835876 0.613813 0.359604
0.850519 0.620576 0.366221
0.864756 0.626972 0.372729
0.878792 0.633101 0.379223
0.444073 0.602805 0.523452
0.442441 0.603717 0.518979
0.440650 0.604708 0.513948
0.438158 0.606069 0.506743
0.434914 0.607816 0.497010
0.430892 0.609945 0.484401
0.426072 0.612448 0.468514
0.420392 0.615343 0.448732
0.413302 0.618937 0.422407
0.423193 0.623749 0.403853
0.451837 0.629842 0.391786
0.490348 0.636652 0.377910
0.533835 0.643068 0.364126
0.574205 0.648058 0.352398
0.611994 0.652046 0.342060
0.648643 0.655395 0.332487
0.658100 0.632892 0.323720
0.660344 0.603046 0.311568
0.662209 0.571347 0.296047
0.663678 0.539480 0.284238
0.678934 0.542054 0.289346
0.695579 0.550518 0.296425
0.710868 0.558240 0.302960
0.727159 0.566498 0.309931
0.749379 0.578012 0.319379
0.770350 0.588838 0.328333
0.789511 0.598643 0.336564
0.806989 0.607477 0.344125
0.823438 0.615688 0.351290
0.838926 0.623300 0.358090
0.853648 0.630411 0.364609
0.867994 0.637228 0.371012
0.882169 0.643856 0.377388
0.454477 0.620136 0.534299
0.452894 0.621029 0.529882
0.451148 0.622006 0.524899
0.448709 0.623355 0.517745
0.445521 0.625097 0.508064
0.441561 0.627229 0.495521
0.436807 0.629745 0.479732
0.431135 0.632702 0.459858
0.423948 0.636433 0.433042
0.434202 0.641402 0.414385
0.462895 0.647599 0.402310
0.500668 0.654414 0.388638
0.542228 0.660718 0.375331
0.580348 0.665623 0.364108
0.616407 0.669650 0.354107
0.651278 0.673070 0.344873
0.675883 0.667546 0.336434
0.678282 0.640196 0.327971
0.680336 0.611621 0.314671
0.682046 0.581940 0.300518
0.683391 0.552959 0.290432
0.697998 0.556999 0.295739
0.713211 0.564757 0.302203
0.729872 0.573313 0.309280
0.752040 0.584900 0.318652
0.772943 0.595819 0.327515
0.792052 0.605759 0.335650
0.809524 0.614786 0.343124
0.825990 0.623225 0.350204
0.841508 0.631094 0.356917
0.856289 0.638500 0.363352
0.870711 0.645646 0.369668
0.884981 0.652636 0.375956
0.463887 0.636188 0.543767
0.462346 0.637063 0.539392
0.460639 0.638024 0.534444
0.458246 0.639361 0.527327
0.455109 0.641093 0.517682
0.451203 0.643222 0.505184
0.446511 0.645740 0.489470
0.440810 0.648764 0.469358
0.433457 0.652653 0.441753
0.444884 0.657745 0.423790
0.473687 0.664016 0.411711
0.510770 0.670794 0.398259
0.550523 0.676950 0.385433
0.586651 0.681748 0.374676
0.621184 0.685781 0.364984
0.654497 0.689235 0.356054
0.685960 0.692118 0.347899
0.694626 0.672559 0.340158
0.696812 0.646452 0.330739
0.698677 0.619285 0.317416
0.700201 0.591849 0.304829
0.701400 0.565426 0.296148
0.715412 0.570635 0.301583
0.732443 0.579423 0.308789
0.754526 0.590991 0.318100
0.775323 0.601892 0.326890
0.794336 0.611832 0.334952
0.811754 0.620898 0.342367
0.828191 0.629417 0.349390
0.843696 0.637405 0.356041
0.858497 0.644982 0.362417
0.872961 0.652346 0.368670
0.887293 0.659607 0.374887
0.474730 0.654357 0.554882
0.473191 0.655168 0.550498
0.471481 0.656061 0.545532
0.469074 0.657305 0.538377
0.465910 0.658922 0.528675
0.461960 0.660910 0.516106
0.457207 0.663261 0.500322
0.451305 0.666164 0.479691
0.443649 0.669949 0.451210
0.456204 0.674928 0.433615
0.484935 0.680942 0.421334
0.521106 0.687306 0.407892
0.558935 0.692907 0.395283
0.593146 0.697170 0.384655
0.626213 0.700727 0.374915
0.658128 0.704174 0.366255
0.688291 0.707097 0.358353
0.709679 0.701525 0.350836
0.711958 0.677069 0.343532
0.713935 0.652139 0.332790
0.715592 0.626698 0.320194
0.716944 0.601407 0.309071
0.718014 0.577196 0.301489
0.734946 0.585096 0.308411
0.756932 0.596624 0.317662
0.777609 0.607483 0.326380
0.796511 0.617397 0.334372
0.813864 0.626473 0.341733
0.830255 0.635021 0.348706
0.845723 0.643055 0.355309
0.860513 0.650703 0.361643
0.874980 0.658156 0.367858
0.889327 0.665524 0.374037
0.489460 0.678076 0.570711
0.487952 0.678869 0.566360
0.486271 0.679746 0.561424
0.483900 0.680973 0.554309
0.480777 0.682571 0.544659
0.476873 0.684541 0.532168
0.472138 0.686896 0.516387
0.466177 0.689854 0.495502
0.458320 0.693779 0.466238
0.470805 0.698870 0.448128
0.499222 0.704883 0.435894
0.534070 0.711113 0.422765
0.569583 0.716491 0.410683
0.601630 0.720612 0.400481
0.632852 0.724114 0.391044
0.662882 0.727044 0.382311
0.691351 0.729428 0.374255
0.719359 0.731456 0.366518
0.733157 0.719412 0.359059
0.734561 0.695332 0.351623
0.735616 0.670926 0.340850
0.736338 0.646001 0.328559
0.736746 0.621000 0.317375
0.737691 0.591514 0.307940
0.759494 0.602689 0.317182
0.779960 0.613180 0.325881
0.798655 0.622730 0.333860
0.815891 0.631630 0.341199
0.832224 0.640185 0.348126
0.847644 0.648239 0.354683
0.862414 0.655930 0.360982
0.876875 0.663441 0.367163
0.891224 0.670880 0.373310
0.503709 0.701242 0.585797
0.502230 0.702022 0.581475
0.500579 0.702888 0.576567
0.498245 0.704102 0.569489
0.495165 0.705687 0.559891
0.491313 0.707646 0.547481
0.486555 0.710042 0.531532
0.480505 0.713084 0.510246
0.472447 0.717162 0.480134
0.485458 0.722359 0.462135
0.513567 0.728365 0.449991
0.547073 0.734452 0.437235
0.580373 0.739613 0.425711
0.610518 0.743627 0.415919
0.640060 0.747094 0.406795
0.668407 0.750014 0.398365
0.695335 0.752428 0.390571
0.721875 0.754514 0.383075
0.747940 0.756286 0.375854
0.757739 0.742158 0.368918
0.758857 0.719982 0.362122
0.759657 0.697667 0.352631
0.760159 0.674945 0.341475
0.761090 0.645760 0.327926
0.762641 0.610852 0.316372
0.782959 0.621231 0.324999
0.801516 0.630685 0.332908
0.818625 0.639366 0.340228
0.834798 0.647539 0.347172
0.850064 0.655213 0.353754
0.864709 0.662555 0.360085
0.879053 0.669717 0.366305
0.893288 0.676802 0.372496
0.517291 0.723598 0.599900
0.515838 0.724367 0.595600
0.514213 0.725222 0.590716
0.511915 0.726423 0.583669
0.508877 0.727995 0.574117
0.505075 0.729942 0.561779
0.500248 0.732402 0.545491
0.494017 0.735577 0.523435
0.485800 0.739775 0.492583
0.500003 0.745055 0.475395
0.527792 0.751029 0.463376
0.559926 0.756939 0.451040
0.591108 0.761870 0.440087
0.619613 0.765787 0.430662
0.647630 0.769209 0.421841
0.674459 0.772109 0.413699
0.700028 0.774543 0.406148
0.725264 0.776674 0.398876
0.750027 0.778509 0.391877
0.774098 0.780038 0.385167
0.781250 0.765291 0.378773
0.782161 0.744937 0.372609
0.782790 0.724576 0.364439
0.783945 0.697355 0.351211
0.785454 0.663788 0.335694
0.786643 0.630736 0.324775
0.804369 0.638531 0.332004
0.821395 0.647170 0.339273
0.837499 0.655316 0.346169
0.852707 0.662975 0.352706
0.867316 0.670302 0.359006
0.881637 0.677463 0.365200
0.895856 0.684555 0.371365
0.530184 0.745117 0.612987
0.528756 0.745876 0.608705
0.527157 0.746721 0.603840
0.524892 0.747910 0.596820
0.521896 0.749469 0.587312
0.518101 0.751428 0.574892
0.513206 0.753949 0.558254
0.506771 0.757268 0.535315
0.498364 0.761600 0.503563
0.514418 0.766938 0.487904
0.541858 0.772855 0.476048
0.572568 0.778557 0.464184
0.601707 0.783246 0.453815
0.628821 0.787083 0.444712
0.655445 0.790455 0.436188
0.680894 0.793330 0.428326
0.705258 0.795780 0.421002
0.729329 0.797949 0.413942
0.752931 0.799837 0.407153
0.775839 0.801433 0.400654
0.797815 0.802726 0.394470
0.803736 0.788585 0.388562
0.804478 0.769845 0.382893
0.805844 0.744503 0.373006
0.807479 0.713709 0.357989
0.808802 0.682247 0.343635
0.809758 0.652013 0.333435
0.824121 0.654728 0.338389
0.840149 0.662838 0.345237
0.855295 0.670476 0.351729
0.869870 0.677804 0.357996
0.884171 0.684978 0.364160
0.898373 0.692091 0.370295
0.542314 0.765696 0.624957
0.540909 0.766446 0.620689
0.539335 0.767281 0.615840
0.537103 0.768460 0.608846
0.534150 0.770006 0.599380
0.530297 0.772016 0.586652
0.525333 0.774597 0.569636
0.518676 0.778068 0.545710
0.510072 0.782537 0.512983
0.528647 0.787907 0.499600
0.555672 0.793739 0.487960
0.584914 0.799210 0.476615
0.612161 0.803665 0.466814
0.638042 0.807429 0.458016
0.663390 0.810750 0.449784
0.687578 0.813598 0.442197
0.710877 0.816064 0.435088
0.733901 0.818269 0.428233
0.756465 0.820207 0.421645
