data/luts/JSZ-CEDAR H.cube
# Baked from the Lightroom preset "JSZ-CEDAR H" by scripts/lightroom-preset-lut.lisp
# Colour only; not in this LUT (add the node instead):
#   Clarity +10
#   Sharpening 25, radius 1.0
TITLE "JSZ-CEDAR H"
LUT_3D_SIZE 33
DOMAIN_MIN 0.0 0.0 0.0
DOMAIN_MAX 1.0 1.0 1.0
0.191419 0.191419 0.191419
0.203465 0.197003 0.196962
0.217996 0.204784 0.204501
0.233911 0.213824 0.213010
0.250014 0.223163 0.221562
0.265965 0.232399 0.229816
0.281586 0.241278 0.237596
0.296790 0.249628 0.244812
0.311540 0.257313 0.251412
0.325811 0.264204 0.257359
0.340255 0.270848 0.263136
0.355665 0.277937 0.269301
0.372272 0.285576 0.275943
0.390003 0.293733 0.283036
0.408515 0.302248 0.290440
0.427912 0.311171 0.298199
0.448306 0.320552 0.306357
0.469875 0.330474 0.314985
0.507647 0.347849 0.330093
0.558891 0.371421 0.350591
0.604144 0.392237 0.368692
0.634364 0.406138 0.380780
0.662392 0.419031 0.391991
0.688125 0.430869 0.402285
0.709939 0.440903 0.411010
0.731045 0.450612 0.419452
0.751641 0.460086 0.427691
0.771912 0.469411 0.435799
0.792034 0.478667 0.443848
0.812178 0.487933 0.451906
0.832520 0.497290 0.460043
0.853248 0.506825 0.468334
0.874566 0.516631 0.476861
0.198248 0.204778 0.197384
0.204408 0.204008 0.196194
0.215173 0.208653 0.200980
0.228512 0.215547 0.207455
0.243202 0.223746 0.215053
0.258267 0.232299 0.222798
0.273424 0.240867 0.230413
0.288512 0.249215 0.237736
0.303444 0.257164 0.244665
0.318160 0.264554 0.251127
0.333152 0.271785 0.257474
0.349035 0.279375 0.264125
0.366057 0.287452 0.271192
0.384135 0.295980 0.278646
0.402943 0.304813 0.286359
0.422599 0.314012 0.294386
0.443220 0.323636 0.302779
0.465032 0.333791 0.311632
0.503429 0.351627 0.327172
0.554973 0.375509 0.347970
0.600175 0.396417 0.366171
0.630388 0.410378 0.378323
0.658466 0.423346 0.389608
0.684198 0.435224 0.399944
0.706046 0.445306 0.408717
0.727184 0.455058 0.417202
0.747810 0.464572 0.425479
0.768111 0.473933 0.433624
0.788261 0.483224 0.441706
0.808433 0.492523 0.449796
0.828804 0.501913 0.457965
0.849560 0.511479 0.466286
0.870906 0.521316 0.474843
0.205406 0.218196 0.205215
0.211487 0.217593 0.203784
0.217021 0.214376 0.199143
0.227505 0.220375 0.206594
0.238215 0.225200 0.210435
0.251158 0.232046 0.216270
0.265887 0.240353 0.223740
0.280857 0.248722 0.231157
0.295939 0.256938 0.238381
0.311050 0.264818 0.245308
0.326525 0.272608 0.252165
0.342830 0.280682 0.259257
0.360227 0.289184 0.266711
0.378616 0.298074 0.274496
0.397691 0.307219 0.282493
0.417582 0.316689 0.290768
0.438413 0.326553 0.299380
0.460466 0.336949 0.308451
0.499509 0.355266 0.324423
0.551326 0.379456 0.345502
0.596425 0.400436 0.363774
0.626614 0.414453 0.375978
0.654734 0.427493 0.387331
0.680450 0.439408 0.397703
0.702325 0.449537 0.406518
0.723490 0.459332 0.415042
0.744143 0.468885 0.423356
0.764469 0.478283 0.431534
0.784644 0.487608 0.439649
0.804841 0.496941 0.447769
0.825238 0.506363 0.455967
0.846020 0.515960 0.464317
0.867394 0.525829 0.472903
0.214642 0.231437 0.215666
0.219046 0.230702 0.212487
0.224805 0.230059 0.210604
0.229367 0.221847 0.200117
0.239676 0.231250 0.212650
0.250276 0.236194 0.216414
0.261152 0.241480 0.219915
0.273976 0.248311 0.225122
0.289155 0.256780 0.232592
0.304595 0.265125 0.239929
0.320480 0.273440 0.247235
0.337152 0.281974 0.254721
0.354882 0.290886 0.262527
0.373540 0.300124 0.270610
0.392850 0.309570 0.278866
0.412950 0.319305 0.287368
0.433968 0.329405 0.296183
0.456291 0.340060 0.305477
0.496111 0.358932 0.321929
0.548171 0.383423 0.343267
0.593021 0.404412 0.361544
0.623133 0.418462 0.373777
0.651271 0.431568 0.385185
0.676931 0.443503 0.395574
0.698821 0.453675 0.404427
0.720002 0.463509 0.412985
0.740672 0.473099 0.421330
0.761016 0.482532 0.429538
0.781210 0.491890 0.437681
0.801428 0.501255 0.445830
0.821847 0.510709 0.454055
0.842653 0.520338 0.462432
0.864052 0.530238 0.471045
0.224957 0.244440 0.226878
0.227378 0.243688 0.222371
0.232046 0.243049 0.220180
0.238337 0.242334 0.217734
0.241571 0.226563 0.199574
0.251839 0.241633 0.219067
0.262482 0.246808 0.222742
0.273528 0.252343 0.226223
0.285062 0.258224 0.229627
0.298759 0.265536 0.234956
0.314981 0.274336 0.242651
0.331968 0.283306 0.250488
0.349993 0.292612 0.258612
0.368878 0.302181 0.266961
0.388391 0.311918 0.275451
0.408675 0.321912 0.284163
0.429860 0.332242 0.293164
0.452506 0.343189 0.302700
0.493245 0.362696 0.319687
0.545507 0.387475 0.341257
0.589938 0.408395 0.359464
0.619926 0.422460 0.371703
0.648057 0.435623 0.383156
0.673618 0.447561 0.393542
0.695508 0.457771 0.402425
0.716693 0.467640 0.411011
0.737371 0.477264 0.419383
0.757725 0.486730 0.427618
0.777933 0.496121 0.435787
0.798167 0.505517 0.443960
0.818603 0.515002 0.452211
0.839430 0.524663 0.460614
0.860853 0.534595 0.469253
0.235524 0.257276 0.237716
0.236457 0.256611 0.232936
0.240070 0.256018 0.230632
0.245247 0.255330 0.227960
0.252124 0.254575 0.225040
0.253776 0.229258 0.198115
0.264145 0.251883 0.225742
0.274993 0.257400 0.229316
0.286385 0.263310 0.232769
0.298425 0.269597 0.236240
0.311255 0.276221 0.239910
0.327233 0.284724 0.246519
0.345513 0.294408 0.254930
0.364586 0.304292 0.263515
0.384273 0.314308 0.272218
0.404716 0.324554 0.281121
0.426050 0.335112 0.290296
0.449110 0.346403 0.300108
0.490901 0.366623 0.317683
0.543310 0.391671 0.339456
0.587131 0.412435 0.357507
0.616960 0.426501 0.369736
0.645059 0.439711 0.381221
0.670474 0.451632 0.391585
0.692351 0.461876 0.400491
0.713529 0.471778 0.409100
0.734204 0.481434 0.417495
0.754562 0.490931 0.425753
0.774776 0.500352 0.433944
0.795021 0.509780 0.442141
0.815472 0.519296 0.450415
0.836317 0.528988 0.458842
0.857762 0.538953 0.467507
0.246193 0.270157 0.248551
0.246075 0.269595 0.243769
0.248825 0.269068 0.241498
0.252961 0.268435 0.238774
0.258687 0.267723 0.235719
0.266146 0.266956 0.232432
0.266144 0.231039 0.196343
0.276767 0.262338 0.232580
0.287995 0.268318 0.236046
0.299919 0.274721 0.239487
0.312668 0.281459 0.243133
0.326402 0.288602 0.247061
0.341392 0.296314 0.251441
0.360615 0.306497 0.260236
0.380446 0.316785 0.269130
0.401028 0.327278 0.278208
0.422493 0.338061 0.287544
0.446103 0.349773 0.297690
0.489066 0.370780 0.315902
0.541546 0.396068 0.337840
0.584539 0.416574 0.355638
0.614197 0.430639 0.367850
0.642239 0.443889 0.379356
0.667459 0.455773 0.389677
0.689309 0.466046 0.398601
0.710467 0.475978 0.407228
0.731132 0.485663 0.415642
0.751484 0.495189 0.423919
0.771700 0.504641 0.432130
0.791950 0.514099 0.440349
0.812413 0.523647 0.448645
0.833273 0.533372 0.457096
0.854739 0.543371 0.465785
0.256712 0.283263 0.259175
0.255943 0.282797 0.254518
0.258078 0.282343 0.252382
0.261382 0.281781 0.249743
0.266090 0.281135 0.246712
0.272380 0.280425 0.243390
0.279663 0.278893 0.239832
0.278853 0.233236 0.194852
0.289899 0.273327 0.239497
0.301693 0.279870 0.242892
0.314352 0.286737 0.246513
0.328028 0.294007 0.250424
0.342872 0.301771 0.254669
0.358573 0.309876 0.259160
0.376858 0.319390 0.266148
0.397557 0.330126 0.275388
0.419139 0.341135 0.284875
0.443493 0.353377 0.295438
0.487718 0.375236 0.314325
0.540167 0.400721 0.336378
0.582088 0.420853 0.353817
0.611592 0.434930 0.366018
0.639552 0.448212 0.377535
0.664527 0.460038 0.387791
0.686334 0.470338 0.396726
0.707463 0.480297 0.405367
0.728106 0.490010 0.413796
0.748446 0.499565 0.422089
0.768657 0.509046 0.430319
0.788910 0.518535 0.438557
0.809380 0.528115 0.446874
0.830254 0.537874 0.455348
0.851741 0.547909 0.464062
0.266769 0.296777 0.269204
0.265743 0.296397 0.264841
0.267505 0.296016 0.262906
0.270242 0.295533 0.260456
0.274176 0.294964 0.257581
0.279491 0.294329 0.254372
0.286376 0.293639 0.250887
0.292896 0.290742 0.247151
0.292102 0.237350 0.194263
0.303755 0.285111 0.246503
0.316317 0.292126 0.250095
0.329930 0.299541 0.253989
0.344712 0.307432 0.258216
0.360322 0.315630 0.262681
0.376728 0.324135 0.267373
0.394248 0.333141 0.272620
0.415932 0.344377 0.282249
0.441287 0.357297 0.293343
0.486829 0.380057 0.312930
0.539112 0.405683 0.335036
0.579718 0.425326 0.352009
0.609094 0.439432 0.364208
0.636945 0.452740 0.375725
0.661626 0.464488 0.385896
0.683377 0.474811 0.394837
0.704463 0.484795 0.403487
0.725077 0.494535 0.411927
0.745397 0.504119 0.420234
0.765597 0.513630 0.428481
0.785848 0.523151 0.436737
0.806323 0.532765 0.445074
0.827210 0.542560 0.453571
0.848716 0.552633 0.462310
0.276591 0.310965 0.278930
0.275517 0.310657 0.274920
0.277063 0.310341 0.273204
0.279433 0.309933 0.270985
0.282821 0.309443 0.268330
0.287397 0.308886 0.265317
0.293339 0.308272 0.262000
0.300855 0.307605 0.258405
0.306886 0.303570 0.254534
0.306112 0.243682 0.194630
0.318570 0.297685 0.253934
0.332118 0.305268 0.257809
0.346821 0.313300 0.262014
0.362331 0.321607 0.266450
0.378657 0.330213 0.271119
0.395876 0.339174 0.276044
0.414072 0.348543 0.281248
0.439494 0.361621 0.291399
0.486361 0.385311 0.311691
0.538304 0.411002 0.333771
0.577425 0.430075 0.350201
0.606644 0.444204 0.362387
0.634364 0.457533 0.373894
0.658697 0.469182 0.383958
0.680378 0.479527 0.392900
0.701411 0.489535 0.401555
0.721986 0.499302 0.410004
0.742281 0.508916 0.418323
0.762465 0.518458 0.426584
0.782709 0.528013 0.434857
0.803186 0.537663 0.443215
0.824085 0.547496 0.451734
0.845611 0.557611 0.460499
0.287255 0.326197 0.289756
0.285887 0.325943 0.285787
0.287250 0.325677 0.284252
0.289319 0.325328 0.282233
0.292265 0.324901 0.279775
0.296240 0.324410 0.276943
0.301413 0.323861 0.273783
0.307977 0.323258 0.270322
0.316172 0.322603 0.266564
0.321892 0.317479 0.262494
0.321120 0.250521 0.195050
0.334601 0.311246 0.261941
0.349205 0.319433 0.266117
0.364605 0.327868 0.270522
0.380845 0.336594 0.275166
0.397997 0.345668 0.280072
0.416142 0.355145 0.285261
0.440045 0.367482 0.292098
0.486266 0.391063 0.310576
0.537650 0.416723 0.332533
0.575148 0.435159 0.348356
0.604181 0.449305 0.360517
0.631745 0.462651 0.372005
0.655679 0.474183 0.381941
0.677276 0.484549 0.390879
0.698246 0.494582 0.399535
0.718774 0.504377 0.407990
0.739035 0.514021 0.416320
0.759198 0.523598 0.424594
0.779432 0.533189 0.432884
0.799911 0.542878 0.441262
0.820819 0.552754 0.449805
0.842366 0.562915 0.458596
0.298996 0.342739 0.301985
0.297690 0.342525 0.298362
0.298222 0.342299 0.296305
0.300037 0.341997 0.294456
0.302612 0.341623 0.292172
0.306087 0.341186 0.289503
0.310617 0.340691 0.286488
0.316381 0.340143 0.283153
0.323605 0.339543 0.279500
0.332567 0.338887 0.275517
0.338171 0.332711 0.271179
0.337388 0.257934 0.195506
0.351868 0.325882 0.270588
0.367151 0.334467 0.274959
0.383298 0.343337 0.279577
0.400377 0.352547 0.284462
0.418467 0.362152 0.289635
0.444090 0.375557 0.296964
0.486483 0.397373 0.309550
0.537040 0.422881 0.331264
0.572821 0.440635 0.346434
0.601636 0.454795 0.358559
0.629022 0.468157 0.370020
0.652504 0.479551 0.379805
0.674005 0.489940 0.388735
0.694901 0.500000 0.397390
0.715373 0.509826 0.405850
0.735595 0.519504 0.414188
0.755733 0.529118 0.422475
0.775954 0.538750 0.430782
0.796431 0.548483 0.439180
0.817349 0.558407 0.447747
0.838917 0.568619 0.456568
0.311715 0.360476 0.315475
0.310539 0.360294 0.312222
0.309923 0.360098 0.309278
0.311526 0.359834 0.307574
0.313793 0.359503 0.305441
0.316852 0.359111 0.302918
0.320847 0.358663 0.300037
0.325946 0.358162 0.296816
0.332355 0.357608 0.293261
0.340334 0.356999 0.289359
0.350214 0.356330 0.285086
0.355598 0.348786 0.280407
0.354812 0.265874 0.195994
0.369973 0.341336 0.279739
0.386022 0.350372 0.284329
0.403024 0.359740 0.289192
0.421055 0.369495 0.294348
0.448834 0.384252 0.302293
0.491458 0.406442 0.314484
0.536460 0.429412 0.329969
0.570488 0.446465 0.344465
0.599055 0.460633 0.356541
0.626239 0.474009 0.367965
0.649215 0.485245 0.377577
0.670607 0.495657 0.386495
0.691417 0.505746 0.395145
0.711826 0.515604 0.403606
0.732001 0.525320 0.411950
0.752109 0.534975 0.420249
0.772313 0.544651 0.428572
0.792786 0.554432 0.436992
0.813714 0.564408 0.445583
0.835304 0.574678 0.454433
0.325130 0.379076 0.329851
0.324060 0.378918 0.326901
0.322901 0.378746 0.323630
0.323600 0.378513 0.321321
0.325617 0.378217 0.319320
0.328338 0.377862 0.316926
0.331895 0.377453 0.314164
0.336447 0.376990 0.311049
0.342185 0.376476 0.307583
0.349352 0.375906 0.303755
0.358250 0.375279 0.299541
0.369232 0.374589 0.294918
0.373853 0.365362 0.289994
0.373074 0.274196 0.196505
0.389021 0.357574 0.289350
0.405943 0.367118 0.294190
0.423918 0.377046 0.299331
0.454323 0.393467 0.308027
0.497404 0.416174 0.320348
0.538479 0.437413 0.332095
0.568259 0.452562 0.342518
0.596545 0.466728 0.354528
0.623502 0.480112 0.365904
0.645917 0.491167 0.375318
0.667184 0.501601 0.384217
0.687898 0.511718 0.392857
0.708234 0.521610 0.401316
0.728356 0.531364 0.409664
0.748426 0.541061 0.417973
0.768610 0.550785 0.426311
0.789077 0.560618 0.434750
0.810012 0.570651 0.443367
0.831624 0.580983 0.452247
0.339340 0.398665 0.345227
0.338357 0.398526 0.342529
0.337284 0.398374 0.339524
0.336327 0.398165 0.335808
0.338136 0.397898 0.333921
0.340576 0.397575 0.331642
0.343771 0.397198 0.328987
0.347867 0.396769 0.325967
0.353045 0.396288 0.322583
0.359529 0.395753 0.318821
0.367602 0.395160 0.314659
0.377527 0.394509 0.310102
0.389339 0.393817 0.305254
0.393081 0.382886 0.300115
0.392300 0.282956 0.197043
0.409139 0.374705 0.299488
0.427510 0.385079 0.304742
0.460585 0.403258 0.314201
0.503835 0.426356 0.326571
0.543094 0.446879 0.337799
0.569662 0.460598 0.345397
0.594075 0.473103 0.352504
0.620749 0.486474 0.363806
0.642581 0.497340 0.373012
0.663710 0.507795 0.381887
0.684317 0.517941 0.390513
0.704569 0.527868 0.398965
0.724630 0.537663 0.407315
0.744659 0.547406 0.415632
0.764817 0.557181 0.423983
0.785275 0.567070 0.432442
0.806217 0.577164 0.441083
0.827852 0.587564 0.449995
0.354446 0.419374 0.361718
0.353535 0.419250 0.359230
0.352533 0.419114 0.356448
0.351145 0.418925 0.352513
0.351412 0.418682 0.349357
0.353617 0.418385 0.347178
0.356507 0.418036 0.344618
0.360219 0.417636 0.341684
0.364923 0.417183 0.338372
0.370827 0.416677 0.334670
0.378196 0.416114 0.330554
0.387183 0.415500 0.326074
0.397872 0.414845 0.321300
0.410501 0.414148 0.316224
0.413406 0.401466 0.310834
0.412617 0.292214 0.197612
0.432179 0.393825 0.310709
0.467628 0.413667 0.320848
0.510691 0.436989 0.333164
0.547705 0.456572 0.343750
0.573100 0.469829 0.351013
0.597047 0.482224 0.357862
0.619606 0.493824 0.364313
0.639179 0.503785 0.370644
0.660157 0.514262 0.379489
0.680644 0.524438 0.388096
0.700805 0.534403 0.396539
0.720798 0.544242 0.404888
0.740780 0.554035 0.413210
0.760909 0.563865 0.421574
0.781356 0.573815 0.430052
0.802304 0.583976 0.438719
0.823961 0.594450 0.447662
0.373801 0.445300 0.383621
0.372949 0.445189 0.381327
0.372008 0.445066 0.378755
0.370696 0.444895 0.375104
0.368993 0.444673 0.370250
0.369692 0.444400 0.366902
0.372260 0.444077 0.364427
0.375567 0.443703 0.361570
0.379770 0.443279 0.358325
0.385061 0.442802 0.354678
0.391667 0.442269 0.350613
0.399656 0.441692 0.346218
0.409175 0.441075 0.341517
0.420442 0.440416 0.336504
0.433706 0.439713 0.331167
0.438964 0.428676 0.325491
0.437995 0.303779 0.198323
0.475433 0.425893 0.328866
0.517882 0.449313 0.341007
0.552167 0.467748 0.350812
0.576778 0.480787 0.357851
0.600358 0.493158 0.364595
0.622163 0.504508 0.370831
0.640843 0.514174 0.376174
0.659029 0.523539 0.381375
0.676859 0.532681 0.386474
0.695843 0.542251 0.393416
0.715768 0.552156 0.401770
0.735703 0.562022 0.410104
0.755806 0.571929 0.418487
0.776245 0.581963 0.426990
0.797204 0.592214 0.435689
0.818890 0.602785 0.444672
0.410507 0.492425 0.427538
0.409706 0.492327 0.425473
0.408817 0.492218 0.423153
0.407571 0.492066 0.419851
0.405944 0.491867 0.415451
0.403933 0.491620 0.409870
0.401537 0.491327 0.403017
0.402728 0.490985 0.398753
0.406146 0.490595 0.395571
0.410477 0.490153 0.391977
0.415872 0.489662 0.387986
0.422390 0.489132 0.383677
0.430189 0.488563 0.379053
0.439457 0.487953 0.374105
0.450408 0.487301 0.368824
0.463286 0.486605 0.363196
0.484582 0.485576 0.354887
0.483949 0.324719 0.199610
0.525289 0.467863 0.353603
0.556528 0.485243 0.362537
0.580689 0.498443 0.369447
0.603888 0.510956 0.376082
0.624894 0.522172 0.382090
0.643347 0.531947 0.387367
0.661345 0.541420 0.392515
0.679021 0.550672 0.397570
0.696502 0.559775 0.402570
0.713916 0.568803 0.407550
0.731391 0.577827 0.412548
0.749062 0.586917 0.417602
0.767074 0.596151 0.422753
0.786803 0.606087 0.429750
0.808544 0.616848 0.438805
0.449535 0.542440 0.474026
0.448775 0.542352 0.472138
0.447929 0.542254 0.470012
0.446737 0.542115 0.466980
0.445174 0.541934 0.462929
0.443230 0.541707 0.457778
0.440899 0.541436 0.451437
0.438175 0.541119 0.443797
0.435376 0.540755 0.435046
0.438974 0.540341 0.431497
0.443421 0.539886 0.427592
0.448814 0.539392 0.423363
0.455296 0.538860 0.418809
0.463030 0.538288 0.413921
0.472201 0.537676 0.408692
0.483067 0.537019 0.403084
0.504072 0.535897 0.393520
0.534320 0.529850 0.380116
0.532757 0.353751 0.213103
0.561129 0.502722 0.374981
0.584829 0.516143 0.381759
0.607633 0.528852 0.388281
0.627797 0.539948 0.394048
0.646014 0.549873 0.399258
0.663817 0.559493 0.404350
0.681332 0.568888 0.409359
0.698683 0.578135 0.414321
0.715992 0.587307 0.419272
0.733386 0.596474 0.424247
0.750997 0.605710 0.429283
0.768969 0.615093 0.434423
0.787462 0.624707 0.439712
0.806664 0.634649 0.445204
0.475319 0.576371 0.503665
0.474592 0.576289 0.501878
0.473779 0.576197 0.499862
0.472632 0.576068 0.496980
0.471118 0.575897 0.493118
0.469227 0.575683 0.488194
0.466948 0.575425 0.482115
0.464271 0.575123 0.474771
0.461182 0.574773 0.466023
0.459593 0.574378 0.457693
0.463589 0.573945 0.453867
0.468444 0.573473 0.449708
0.474289 0.572964 0.445215
0.481275 0.572415 0.440380
0.489572 0.571826 0.435195
0.500178 0.571145 0.429216
0.521978 0.569924 0.418500
0.554543 0.568384 0.405011
0.566957 0.544151 0.392540
0.565970 0.375804 0.226388
0.589190 0.528477 0.390579
0.611588 0.541248 0.396985
0.630870 0.552086 0.402499
0.648842 0.562078 0.407639
0.666443 0.571771 0.412673
0.683793 0.581245 0.417635
0.701008 0.590576 0.422559
0.718209 0.599836 0.427479
0.735519 0.609097 0.432429
0.753068 0.618433 0.437448
0.770999 0.627921 0.442577
0.789473 0.637648 0.447860
0.808676 0.647711 0.453352
0.496460 0.604712 0.527395
0.495759 0.604635 0.525677
0.494974 0.604548 0.523737
0.493862 0.604425 0.520957
0.492390 0.604262 0.517223
0.490542 0.604058 0.512449
0.488305 0.603810 0.506539
0.485666 0.603518 0.499381
0.482614 0.603180 0.490857
0.479203 0.602802 0.481014
0.481102 0.602386 0.475450
0.485610 0.601932 0.471357
0.491042 0.601439 0.466920
0.497538 0.600907 0.462136
0.505260 0.600335 0.456992
0.516763 0.599571 0.450127
0.539324 0.598278 0.438527
0.570138 0.596787 0.425190
0.595504 0.590191 0.413727
0.594610 0.564769 0.405755
0.593764 0.394259 0.237505
0.615749 0.551787 0.404512
0.634107 0.562295 0.409762
0.651829 0.572318 0.414831
0.669223 0.582054 0.419805
0.686401 0.591581 0.424718
0.703478 0.600973 0.429602
0.720568 0.610302 0.434490
0.737791 0.619639 0.439416
0.755278 0.629057 0.444417
0.773168 0.638636 0.449534
0.791623 0.648462 0.454812
0.810830 0.658634 0.460305
0.515918 0.631083 0.548928
0.515239 0.631009 0.547262
0.514476 0.630927 0.545378
0.513392 0.630809 0.542673
0.511953 0.630653 0.539032
0.510141 0.630455 0.534366
0.507937 0.630216 0.528576
0.505328 0.629932 0.521549
0.502342 0.629607 0.513283
0.499005 0.629244 0.503760
0.497747 0.628843 0.495320
0.501995 0.628403 0.491288
0.507113 0.627925 0.486905
0.513236 0.627408 0.482167
0.520517 0.626850 0.477062
0.533760 0.625950 0.468831
0.556796 0.624615 0.456639
0.585703 0.623196 0.443714
0.611818 0.622074 0.433504
0.621233 0.609230 0.425874
0.620421 0.585383 0.418509
0.619651 0.411448 0.247860
0.637508 0.571774 0.416637
0.654974 0.581815 0.421632
0.672155 0.591582 0.426546
0.689158 0.601151 0.431409
0.706092 0.610596 0.436252
0.723068 0.619986 0.441107
0.740204 0.629394 0.446008
0.757627 0.638891 0.450991
0.775477 0.648558 0.456096
0.793915 0.658481 0.461370
0.813129 0.668761 0.466865
0.531521 0.652845 0.565532
0.530859 0.652774 0.563900
0.530114 0.652695 0.562050
0.529053 0.652581 0.559390
0.527640 0.652429 0.555804
0.525854 0.652238 0.551198
0.523677 0.652004 0.545470
0.521120 0.651730 0.538590
0.518206 0.651417 0.530541
0.514937 0.651066 0.521250
0.511995 0.650676 0.511314
0.516087 0.650249 0.507339
0.521012 0.649783 0.503007
0.526902 0.649277 0.498311
0.534450 0.648690 0.492867
0.549733 0.647649 0.483217
0.573097 0.646301 0.470749
0.600010 0.644977 0.458515
0.622182 0.644007 0.449577
0.642256 0.643199 0.442139
0.642417 0.621745 0.434941
0.641697 0.599938 0.428328
0.641066 0.425668 0.256426
0.658272 0.589901 0.427458
0.675237 0.599668 0.432310
0.692062 0.609253 0.437122
0.708851 0.618725 0.441924
0.725711 0.628155 0.446746
0.742759 0.637613 0.451622
0.760118 0.647171 0.456586
0.777929 0.656909 0.461680
0.796352 0.666914 0.466949
0.815577 0.677288 0.472448
0.546393 0.673819 0.581102
0.545744 0.673750 0.579491
0.545013 0.673673 0.577664
0.543969 0.673562 0.575034
0.542576 0.673414 0.571482
0.540812 0.673227 0.566914
0.538682 0.673002 0.561295
0.536191 0.672737 0.554585
0.533341 0.672435 0.546719
0.530134 0.672094 0.537627
0.526570 0.671716 0.527223
0.529887 0.671299 0.522648
0.534661 0.670843 0.518362
0.540366 0.670348 0.513708
0.549271 0.669653 0.507184
0.566143 0.668515 0.496508
0.589366 0.667189 0.484096
0.613773 0.665986 0.472849
0.632874 0.665138 0.464935
0.651752 0.664361 0.457693
0.663606 0.655852 0.450663
0.662936 0.636051 0.444426
0.662324 0.617119 0.438738
0.661723 0.439384 0.264689
0.678469 0.607483 0.437944
0.695113 0.617076 0.442705
0.711755 0.626572 0.447464
0.728498 0.636037 0.452253
0.745457 0.645542 0.457103
0.762753 0.655159 0.462050
0.780526 0.664967 0.467133
0.798937 0.675055 0.472398
0.818175 0.685525 0.477900
0.560716 0.694237 0.595845
0.560077 0.694170 0.594247
0.559356 0.694094 0.592433
0.558325 0.693986 0.589819
0.556954 0.693842 0.586302
0.555235 0.693662 0.581831
0.553162 0.693444 0.576343
0.550730 0.693189 0.569778
0.547940 0.692896 0.562070
0.544790 0.692565 0.553146
0.541280 0.692196 0.542924
0.543510 0.691789 0.537406
0.548164 0.691343 0.533165
0.553857 0.690846 0.528440
0.564921 0.689988 0.520299
0.582916 0.688796 0.509003
0.605435 0.687527 0.496993
0.626746 0.686474 0.487043
0.643835 0.685704 0.479777
0.661635 0.684957 0.472734
0.680150 0.684228 0.465871
0.683606 0.670361 0.460020
0.683012 0.652439 0.454435
0.682427 0.634044 0.448937
0.681848 0.452747 0.272739
0.698310 0.624707 0.448207
0.714803 0.634222 0.452924
0.731429 0.643720 0.457680
0.748299 0.653271 0.462504
0.765533 0.662946 0.467433
0.783270 0.672825 0.472506
0.801673 0.682996 0.477769
0.820916 0.693555 0.483273
0.574657 0.714314 0.609955
0.574028 0.714249 0.608370
0.573322 0.714175 0.606579
0.572318 0.714071 0.604017
0.570988 0.713933 0.600582
0.569316 0.713759 0.596209
0.567293 0.713549 0.590833
0.564915 0.713302 0.584392
0.562178 0.713017 0.576820
0.559081 0.712695 0.568042
0.555620 0.712335 0.557974
0.557065 0.711937 0.551792
0.561624 0.711499 0.547591
0.568395 0.710910 0.541942
0.581340 0.709927 0.532515
0.599928 0.708725 0.521012
0.621096 0.707547 0.509759
0.638954 0.706661 0.501303
0.655040 0.705925 0.494290
0.671864 0.705206 0.487442
0.689054 0.704516 0.480870
0.703929 0.703408 0.475291
0.703352 0.686403 0.469808
0.702782 0.668916 0.464396
0.702216 0.650883 0.459029
0.701651 0.465896 0.280661
0.717996 0.641750 0.458353
0.734505 0.651280 0.463074
0.751286 0.660875 0.467874
0.768460 0.670609 0.472786
0.786165 0.680559 0.477849
0.804563 0.690817 0.483111
0.823797 0.701459 0.488612
0.588415 0.734260 0.623715
0.587805 0.734197 0.622166
0.587120 0.734127 0.620415
0.586146 0.734026 0.617907
0.584851 0.733893 0.614543
0.583220 0.733725 0.610253
0.581243 0.733522 0.604974
0.578913 0.733282 0.598640
0.576225 0.733005 0.591185
0.573175 0.732690 0.582532
0.569759 0.732338 0.572598
0.570662 0.731948 0.565972
0.575280 0.731506 0.561688
0.584099 0.730751 0.554381
0.598438 0.729694 0.544158
0.617000 0.728524 0.532864
0.636092 0.727474 0.522734
0.651268 0.726717 0.515442
0.666493 0.726011 0.508647
0.682423 0.725319 0.501992
0.697977 0.724681 0.495866
