data/luts/JSZ-CEDAR C.cube
# Baked from the Lightroom preset "JSZ-CEDAR C" by scripts/lightroom-preset-lut.lisp
# Colour only; not in this LUT (add the node instead):
#   Clarity +30
#   Vignette -12, midpoint 0, feather 74, roundness +14
#   Grain 8, size 33
TITLE "JSZ-CEDAR C"
LUT_3D_SIZE 33
DOMAIN_MIN 0.0 0.0 0.0
DOMAIN_MAX 1.0 1.0 1.0
0.148072 0.148072 0.148072
0.153850 0.148593 0.149291
0.161449 0.150174 0.151556
0.170841 0.152917 0.155107
0.181127 0.156481 0.159587
0.192367 0.160685 0.164843
0.204605 0.165332 0.170739
0.217692 0.170115 0.176885
0.231229 0.174644 0.182650
0.244877 0.178536 0.187751
0.258271 0.181354 0.191967
0.273625 0.183996 0.196001
0.294094 0.187762 0.200798
0.318050 0.192413 0.206293
0.344319 0.197711 0.212359
0.371863 0.203403 0.218828
0.399876 0.209273 0.225542
0.427738 0.215146 0.232371
0.454940 0.220877 0.239206
0.481069 0.226346 0.245956
0.506168 0.231546 0.252618
0.530650 0.236571 0.259263
0.554241 0.241344 0.265839
0.576911 0.245851 0.272340
0.600179 0.250466 0.279048
0.623914 0.255155 0.285942
0.647971 0.259879 0.292998
0.672397 0.264517 0.300476
0.697394 0.268982 0.308673
0.723257 0.273426 0.317489
0.749347 0.277762 0.326660
0.775633 0.281961 0.336224
0.802027 0.286039 0.346091
0.149876 0.158227 0.149389
0.155339 0.158054 0.149375
0.159792 0.156600 0.149126
0.164336 0.155435 0.149283
0.173776 0.158267 0.153346
0.184997 0.162549 0.159342
0.198129 0.167992 0.166984
0.211690 0.172060 0.173174
0.226318 0.177205 0.180295
0.241426 0.181800 0.186704
0.256398 0.185181 0.191981
0.272616 0.187303 0.196227
0.293631 0.190112 0.200955
0.318042 0.193600 0.206248
0.344613 0.197882 0.212088
0.372153 0.203576 0.218589
0.400149 0.209443 0.225326
0.427987 0.215311 0.232170
0.455160 0.221034 0.239014
0.481260 0.226495 0.245769
0.506337 0.231689 0.252437
0.530800 0.236708 0.259086
0.554370 0.241475 0.265663
0.577029 0.245978 0.272167
0.600294 0.250592 0.278878
0.624024 0.255280 0.285774
0.648075 0.260001 0.292832
0.672482 0.264651 0.300276
0.697466 0.269128 0.308442
0.723322 0.273573 0.317250
0.749400 0.277915 0.326405
0.775678 0.282115 0.335961
0.802066 0.286194 0.345823
0.152950 0.169141 0.153537
0.158257 0.169012 0.152982
0.164677 0.168866 0.153015
0.169429 0.166972 0.152525
0.170465 0.162926 0.150927
0.174255 0.161574 0.151242
0.186213 0.167011 0.158200
0.200333 0.173169 0.166244
0.216441 0.180619 0.176111
0.233718 0.187863 0.185698
0.250141 0.191691 0.191299
0.268652 0.196192 0.197460
0.290418 0.199811 0.202881
0.315259 0.203725 0.208582
0.342227 0.207914 0.214609
0.370345 0.212207 0.220845
0.398846 0.216464 0.227183
0.427141 0.220557 0.233530
0.454731 0.224403 0.239811
0.481243 0.227803 0.245924
0.506529 0.231851 0.252232
0.530969 0.236863 0.258884
0.554515 0.241623 0.265464
0.577162 0.246122 0.271971
0.600425 0.250735 0.278686
0.624149 0.255420 0.285585
0.648193 0.260140 0.292645
0.672580 0.264802 0.300052
0.697549 0.269292 0.308183
0.723395 0.273740 0.316982
0.749460 0.278087 0.326118
0.775730 0.282290 0.335663
0.802110 0.286368 0.345519
0.158542 0.180801 0.161395
0.162006 0.180701 0.158645
0.168453 0.180587 0.158744
0.175403 0.180424 0.158830
0.180425 0.178203 0.158535
0.180600 0.173584 0.156919
0.180155 0.168557 0.153842
0.187537 0.170489 0.157433
0.202933 0.178436 0.166983
0.220013 0.186459 0.176688
0.238565 0.195114 0.187257
0.260796 0.205005 0.199026
0.286444 0.213310 0.208917
0.311857 0.216753 0.213801
0.339147 0.220368 0.218876
0.367432 0.224012 0.224053
0.396011 0.229064 0.230765
0.424336 0.233890 0.237432
0.451937 0.238353 0.243970
0.478444 0.242320 0.250301
0.503957 0.245759 0.256432
0.528882 0.248687 0.262416
0.552955 0.250940 0.268176
0.576153 0.252696 0.273782
0.599961 0.254490 0.279575
0.624227 0.256180 0.285496
0.648363 0.260338 0.292376
0.672721 0.265016 0.299737
0.697669 0.269527 0.307817
0.723501 0.273977 0.316601
0.749548 0.278333 0.325708
0.775804 0.282539 0.335238
0.802174 0.286619 0.345085
0.166078 0.193417 0.171888
0.166881 0.193334 0.166258
0.172974 0.193240 0.166415
0.179761 0.193105 0.166574
0.187094 0.192924 0.166726
0.192692 0.190477 0.166867
0.192113 0.185190 0.164668
0.191173 0.179863 0.161424
0.190312 0.174507 0.157782
0.206096 0.183329 0.167986
0.224394 0.192824 0.178637
0.246783 0.203215 0.190109
0.274149 0.214527 0.202583
0.303775 0.225093 0.214550
0.334671 0.235090 0.226125
0.364565 0.241781 0.234303
0.393348 0.245929 0.239873
0.421775 0.249675 0.245199
0.449406 0.252892 0.250187
0.475887 0.255458 0.254749
0.501348 0.258907 0.260425
0.526172 0.262741 0.266716
0.550083 0.266165 0.272859
0.573133 0.269165 0.278865
0.596838 0.272089 0.285016
0.621010 0.274847 0.291268
0.645529 0.277345 0.297582
0.670394 0.279439 0.304009
0.695928 0.280819 0.310950
0.722426 0.281526 0.318458
0.749113 0.282033 0.326253
0.775903 0.282874 0.334670
0.802259 0.286955 0.344504
0.175286 0.207029 0.184033
0.175521 0.206958 0.178216
0.178399 0.206877 0.175722
0.184848 0.206761 0.175942
0.191980 0.206606 0.176173
0.199687 0.206407 0.176408
0.206162 0.204383 0.176645
0.205053 0.197988 0.174298
0.203703 0.192369 0.170601
0.202787 0.186851 0.166527
0.210220 0.188341 0.169164
0.233146 0.201005 0.182399
0.261220 0.213814 0.195320
0.291756 0.225643 0.207620
0.323382 0.236945 0.219908
0.355352 0.247682 0.231972
0.387149 0.257700 0.243569
0.418381 0.267061 0.254756
0.446779 0.272068 0.261465
0.473320 0.275151 0.266348
0.498826 0.277624 0.270836
0.523666 0.279588 0.275022
0.547562 0.280947 0.278834
0.570605 0.282287 0.282864
0.594299 0.285749 0.289183
0.618428 0.289156 0.295637
0.642870 0.292466 0.302204
0.667594 0.295637 0.308911
0.692921 0.298526 0.316205
0.719158 0.301146 0.324206
0.745638 0.303442 0.332498
0.772353 0.305322 0.341137
0.799222 0.306726 0.350018
0.185506 0.221572 0.196946
0.185758 0.221510 0.192001
0.185986 0.221440 0.187430
0.190567 0.221339 0.186253
0.197395 0.221203 0.186548
0.204891 0.221029 0.186863
0.212999 0.220815 0.187198
0.220558 0.219417 0.187552
0.219357 0.211995 0.185315
0.217836 0.206189 0.180974
0.217142 0.200657 0.176456
0.219932 0.196658 0.173030
0.248729 0.212319 0.188232
0.279937 0.226500 0.201986
0.312137 0.239002 0.214509
0.344552 0.250479 0.226590
0.376666 0.261355 0.238567
0.408106 0.271579 0.250252
0.438531 0.281009 0.261441
0.467690 0.289679 0.272168
0.495846 0.297744 0.282574
0.520924 0.300464 0.287374
0.544857 0.302237 0.291421
0.567955 0.303438 0.295125
0.591710 0.304513 0.298857
0.615875 0.305378 0.302553
0.640339 0.306183 0.306379
0.665054 0.309726 0.313149
0.690342 0.313085 0.320427
0.716524 0.316242 0.328446
0.742968 0.319146 0.336863
0.769614 0.321784 0.345641
0.796391 0.324141 0.354740
0.195467 0.236844 0.209630
0.195717 0.236789 0.205424
0.195956 0.236727 0.201360
0.196249 0.236639 0.196326
0.202699 0.236520 0.196587
0.209992 0.236368 0.196963
0.217979 0.236180 0.197375
0.226625 0.235955 0.197823
0.235691 0.235475 0.198309
0.234740 0.226951 0.196475
0.233505 0.221163 0.191495
0.234325 0.215232 0.185687
0.238724 0.210966 0.181266
0.268275 0.226019 0.195488
0.300845 0.240919 0.209753
0.333565 0.253793 0.222358
0.365903 0.265325 0.234199
0.397487 0.275970 0.245698
0.427982 0.285959 0.257015
0.457151 0.295268 0.268040
0.485316 0.303899 0.278691
0.512809 0.312019 0.289114
0.539377 0.319590 0.299286
0.564915 0.326028 0.308542
0.588780 0.327484 0.312482
0.613028 0.328723 0.316381
0.637559 0.329710 0.320216
0.662326 0.330424 0.323972
0.687613 0.330545 0.327617
0.713783 0.331072 0.332610
0.740251 0.334264 0.341026
0.766898 0.337233 0.349778
0.793681 0.339948 0.358889
0.203638 0.252729 0.220482
0.203865 0.252675 0.216780
0.204092 0.252615 0.213075
0.204380 0.252528 0.208358
0.206696 0.252412 0.204722
0.213862 0.252265 0.205113
0.221824 0.252085 0.205550
0.230546 0.251870 0.206035
0.240003 0.251619 0.206570
0.250169 0.251333 0.207161
0.250791 0.242365 0.206061
0.251073 0.236119 0.199930
0.254442 0.231002 0.194598
0.261308 0.227901 0.191143
0.289537 0.241228 0.203501
0.322385 0.256420 0.217987
0.354820 0.269491 0.230630
0.386456 0.281012 0.242243
0.416951 0.291400 0.253273
0.446079 0.300918 0.263946
0.474225 0.309908 0.274521
0.501665 0.318545 0.285110
0.528143 0.326600 0.295438
0.553968 0.334184 0.305592
0.580590 0.341773 0.315978
0.607704 0.349278 0.326530
0.634317 0.354786 0.335141
0.659178 0.355851 0.339075
0.684510 0.356546 0.342947
0.710686 0.356180 0.346643
0.737208 0.354633 0.350045
0.763885 0.353243 0.354112
0.790707 0.356183 0.363164
0.214276 0.275250 0.236367
0.214470 0.275182 0.233016
0.214668 0.275105 0.229567
0.214924 0.274995 0.225069
0.215233 0.274847 0.219602
0.217914 0.274658 0.215589
0.225860 0.274426 0.215989
0.234671 0.274148 0.216433
0.244326 0.273824 0.216925
0.254811 0.273449 0.217466
0.266633 0.273024 0.218098
0.272608 0.263334 0.218893
0.274983 0.257498 0.212427
0.280432 0.253295 0.207916
0.288712 0.250881 0.205091
0.308468 0.257349 0.210746
0.341003 0.272845 0.225438
0.372748 0.286377 0.238503
0.403348 0.298040 0.250105
0.432562 0.308270 0.260802
0.460838 0.317580 0.271078
0.488379 0.326269 0.281196
0.514927 0.334411 0.291217
0.540887 0.342258 0.301345
0.567655 0.350258 0.311911
0.594891 0.358142 0.322627
0.622514 0.365892 0.333482
0.650482 0.373511 0.344479
0.679047 0.381089 0.355712
0.707007 0.384844 0.363548
0.733615 0.383717 0.367054
0.760385 0.381842 0.370378
0.787276 0.379152 0.373502
0.227836 0.303997 0.257613
0.228007 0.303925 0.254545
0.228185 0.303844 0.251318
0.228419 0.303727 0.247029
0.228706 0.303570 0.241719
0.229041 0.303370 0.235468
0.230517 0.303124 0.229421
0.239374 0.302828 0.229846
0.249173 0.302482 0.230317
0.259908 0.302083 0.230838
0.272577 0.301627 0.231479
0.289611 0.301115 0.232420
0.300543 0.291904 0.233832
0.304510 0.285288 0.229075
0.311404 0.282073 0.225705
0.320383 0.280126 0.223295
0.330987 0.279536 0.222216
0.355645 0.289751 0.231556
0.386061 0.303767 0.245005
0.415111 0.316068 0.257142
0.443292 0.326908 0.268119
0.470729 0.336642 0.278397
0.497160 0.345407 0.288179
0.523111 0.353571 0.297800
0.549900 0.361705 0.307750
0.577164 0.369780 0.318032
0.604831 0.377860 0.328713
0.632863 0.385982 0.339819
0.661538 0.394054 0.351196
0.691157 0.402122 0.363148
0.721856 0.410185 0.376276
0.753405 0.418145 0.390285
0.782076 0.418590 0.396749
0.243143 0.336411 0.281985
0.243299 0.336341 0.279147
0.243463 0.336263 0.276115
0.243683 0.336150 0.272023
0.243957 0.335998 0.266883
0.244280 0.335805 0.260752
0.244651 0.335567 0.253668
0.245070 0.335282 0.245653
0.254358 0.334947 0.245537
0.265248 0.334561 0.246055
0.278865 0.334120 0.246738
0.296750 0.333623 0.247700
0.317263 0.333068 0.248855
0.332453 0.325658 0.250142
0.336799 0.316372 0.247639
0.344678 0.314137 0.245580
0.353943 0.312653 0.243713
0.364297 0.312126 0.242702
0.375154 0.312314 0.242555
0.396415 0.320580 0.250253
0.424309 0.333385 0.262636
0.451460 0.345177 0.274456
0.477594 0.355646 0.285232
0.503383 0.365197 0.295377
0.530018 0.374415 0.305452
0.557126 0.383254 0.315505
0.584641 0.391790 0.325655
0.612524 0.400108 0.336008
0.641095 0.408402 0.346751
0.670375 0.416761 0.358024
0.700543 0.425321 0.370586
0.731698 0.433993 0.384453
0.763398 0.442451 0.398838
0.259250 0.370447 0.307682
0.259394 0.370383 0.305034
0.259549 0.370310 0.302171
0.259759 0.370206 0.298261
0.260024 0.370066 0.293290
0.260341 0.369888 0.287295
0.260710 0.369669 0.280303
0.261128 0.369406 0.272332
0.261599 0.369097 0.263384
0.270805 0.368740 0.262123
0.285510 0.368333 0.262872
0.304025 0.367874 0.263863
0.325179 0.367361 0.265036
0.347845 0.366793 0.266331
0.366167 0.361269 0.267692
0.369944 0.348584 0.266692
0.378457 0.347196 0.265760
0.387738 0.346270 0.264892
0.397625 0.345835 0.264024
0.407722 0.345892 0.263810
0.418032 0.346318 0.264116
0.432435 0.349983 0.267640
0.458123 0.361878 0.279220
0.483641 0.373189 0.290616
0.509996 0.384309 0.302057
0.536823 0.394823 0.313040
0.564058 0.404767 0.323698
0.591663 0.414215 0.334187
0.620000 0.423384 0.344749
0.648965 0.432317 0.355475
0.678471 0.441049 0.366725
0.708929 0.449773 0.379187
0.740074 0.458526 0.392685
0.275476 0.404659 0.333424
0.275612 0.404601 0.330934
0.275761 0.404536 0.328216
0.275964 0.404443 0.324468
0.276224 0.404318 0.319658
0.276538 0.404158 0.313803
0.276906 0.403962 0.306922
0.277328 0.403726 0.299023
0.277805 0.403449 0.290107
0.278356 0.403129 0.279912
0.292518 0.402764 0.279174
0.311501 0.402353 0.280195
0.333096 0.401893 0.281392
0.356178 0.401383 0.282700
0.379873 0.400821 0.284070
0.400205 0.396934 0.285459
0.402764 0.380630 0.285657
0.411632 0.379939 0.285456
0.420712 0.379547 0.285745
0.430066 0.379305 0.285307
0.439729 0.379359 0.285092
0.449482 0.379677 0.285302
0.459037 0.380137 0.285871
0.468809 0.380774 0.286735
0.491041 0.390198 0.295897
0.517505 0.402120 0.307698
0.544382 0.413766 0.319576
0.571631 0.424975 0.331274
0.599661 0.435740 0.342674
0.628273 0.446036 0.353864
0.657201 0.455834 0.364950
0.686885 0.465350 0.376711
0.717377 0.474636 0.389341
0.291323 0.437991 0.358270
0.291454 0.437941 0.355911
0.291598 0.437884 0.353317
0.291796 0.437802 0.349714
0.292053 0.437692 0.345052
0.292366 0.437553 0.339335
0.292736 0.437380 0.332570
0.293163 0.437174 0.324759
0.293648 0.436931 0.315902
0.294250 0.436651 0.305169
0.299723 0.436331 0.295120
0.319220 0.435970 0.296182
0.341100 0.435567 0.297402
0.364407 0.435120 0.298725
0.388339 0.434627 0.300105
0.412243 0.434087 0.301504
0.433499 0.431394 0.302885
0.434482 0.411719 0.304506
0.443439 0.411501 0.304202
0.452253 0.411540 0.305473
0.461366 0.411639 0.305818
0.470602 0.411774 0.305758
0.479705 0.412039 0.305975
0.489156 0.412500 0.306470
0.499167 0.413190 0.307248
0.509560 0.414067 0.308313
0.526327 0.419455 0.313700
0.553173 0.431686 0.325731
0.580856 0.443853 0.338009
0.609070 0.455803 0.350411
0.637566 0.467181 0.362454
0.666478 0.478026 0.374407
0.696173 0.488516 0.386985
0.306398 0.469614 0.381479
0.306525 0.469571 0.379229
0.306666 0.469522 0.376741
0.306861 0.469451 0.373265
0.307115 0.469357 0.368738
0.307429 0.469236 0.363151
0.307801 0.469088 0.356501
0.308234 0.468910 0.348787
0.308728 0.468701 0.339999
0.309406 0.468459 0.328392
0.310320 0.468184 0.313309
0.327193 0.467873 0.311418
0.349232 0.467526 0.312658
0.372614 0.467141 0.313994
0.396608 0.466716 0.315384
0.420605 0.466251 0.316791
0.444121 0.465744 0.318182
0.465195 0.463649 0.319528
0.464601 0.441281 0.322202
0.473433 0.441214 0.321594
0.482216 0.441662 0.323709
0.491041 0.442050 0.324778
0.499771 0.442388 0.325291
0.508949 0.442777 0.325550
0.518673 0.443369 0.326038
0.528801 0.444143 0.326804
0.539269 0.445080 0.327848
0.550019 0.446155 0.329160
0.564032 0.449382 0.332558
0.591824 0.462121 0.345025
0.619898 0.474563 0.357574
0.648218 0.486711 0.370223
0.677088 0.498607 0.383366
0.320793 0.499732 0.403210
0.320916 0.499693 0.401050
0.321053 0.499650 0.398651
0.321245 0.499587 0.395283
0.321496 0.499502 0.390873
0.321807 0.499395 0.385401
0.322179 0.499262 0.378857
0.322614 0.499104 0.371233
0.323132 0.498917 0.362222
0.323887 0.498702 0.349641
0.324831 0.498456 0.334280
0.335476 0.498180 0.325951
0.357569 0.497870 0.327201
0.380911 0.497527 0.328539
0.404835 0.497150 0.329927
0.428778 0.496737 0.331330
0.452279 0.496287 0.332719
0.474927 0.495799 0.334063
0.495272 0.494118 0.335341
0.494706 0.472651 0.337374
0.501899 0.469143 0.337684
0.510532 0.469940 0.340570
0.518983 0.470545 0.342282
0.527934 0.471166 0.343301
0.537408 0.471796 0.343845
0.547294 0.472517 0.344390
0.557534 0.473391 0.345192
0.568076 0.474404 0.346260
0.579188 0.475613 0.347597
0.590571 0.476944 0.349196
0.604290 0.479907 0.352463
0.632188 0.492703 0.365092
0.660335 0.505234 0.377940
0.334655 0.528668 0.423730
0.334775 0.528634 0.421646
0.334910 0.528596 0.419322
0.335099 0.528540 0.416048
0.335348 0.528466 0.411743
0.335658 0.528371 0.406377
0.336031 0.528255 0.399933
0.336468 0.528115 0.392397
0.337046 0.527951 0.382647
0.337852 0.527762 0.369490
0.338832 0.527545 0.353772
0.344122 0.527302 0.339970
0.366179 0.527029 0.341227
0.389391 0.526728 0.342564
0.413150 0.526395 0.343948
0.436931 0.526031 0.345345
0.460298 0.525635 0.346728
0.482846 0.525205 0.348067
0.504300 0.524741 0.349343
0.524242 0.523614 0.350568
0.523706 0.502752 0.352184
0.529104 0.495843 0.352864
0.537538 0.496958 0.356502
0.546346 0.497863 0.358755
0.555624 0.498760 0.360213
0.565305 0.499660 0.361214
0.575345 0.500546 0.361914
0.585697 0.501538 0.362795
0.596657 0.502718 0.363921
0.607869 0.504013 0.365311
0.619266 0.505398 0.366950
0.630793 0.506850 0.368820
0.645377 0.510461 0.372856
0.347794 0.556019 0.442672
0.347913 0.555988 0.440651
0.348045 0.555953 0.438392
0.348231 0.555904 0.435198
0.348478 0.555837 0.430983
0.348786 0.555752 0.425712
0.349158 0.555647 0.419358
0.349613 0.555521 0.411652
0.350269 0.555374 0.400873
0.351106 0.555204 0.387373
0.352113 0.555010 0.371399
0.353261 0.554791 0.353425
0.375034 0.554548 0.354518
0.398035 0.554278 0.355849
0.421543 0.553981 0.357222
0.445073 0.553656 0.358607
0.468203 0.553303 0.359978
0.490547 0.552921 0.361307
0.511858 0.552510 0.362577
0.532445 0.552068 0.363806
0.551595 0.550859 0.364994
0.551090 0.530929 0.366335
0.554803 0.520987 0.367420
0.563774 0.522420 0.371096
0.572946 0.523643 0.373971
0.582485 0.524802 0.375863
0.592373 0.525956 0.377283
0.602594 0.527071 0.378315
0.613418 0.528281 0.379314
0.624489 0.529593 0.380557
0.635756 0.530992 0.382046
0.647167 0.532458 0.383769
0.658656 0.533968 0.385710
0.361203 0.583902 0.461867
0.361318 0.583872 0.459897
0.361447 0.583839 0.457691
0.361630 0.583791 0.454564
0.361873 0.583726 0.450425
0.362177 0.583644 0.445232
0.362546 0.583542 0.438937
0.363060 0.583421 0.430374
0.363766 0.583278 0.418894
0.364626 0.583113 0.405074
0.365644 0.582925 0.388954
0.366789 0.582714 0.371020
0.384308 0.582478 0.368032
0.407036 0.582216 0.369343
0.430233 0.581928 0.370692
0.453449 0.581613 0.372050
0.476273 0.581271 0.373392
0.498342 0.580901 0.374692
0.519464 0.580501 0.375937
0.539995 0.580072 0.377149
0.559844 0.579612 0.378319
0.578765 0.579122 0.379431
0.578600 0.560116 0.380540
0.580750 0.546240 0.382560
0.590150 0.547786 0.385345
0.599578 0.549280 0.388937
0.609316 0.550631 0.391228
0.619408 0.551966 0.392994
0.630057 0.553311 0.394357
0.640958 0.554612 0.395490
0.652064 0.555979 0.396819
0.663322 0.557408 0.398373
0.674670 0.558878 0.400145
0.374931 0.612423 0.481395
0.375044 0.612395 0.479469
0.375171 0.612363 0.477308
0.375351 0.612317 0.474238
0.375590 0.612255 0.470166
0.375891 0.612177 0.465044
0.376299 0.612080 0.458212
0.376881 0.611965 0.448691
0.377608 0.611829 0.436923
0.378493 0.611672 0.422798
0.379517 0.611493 0.406628
0.380656 0.611292 0.388805
0.394007 0.611067 0.381886
0.416409 0.610818 0.383176
0.439245 0.610544 0.384500
0.462096 0.610245 0.385832
0.484560 0.609919 0.387146
0.506301 0.609567 0.388420
0.527211 0.609186 0.389644
0.547634 0.608778 0.390841
0.567389 0.608341 0.391997
0.586228 0.607874 0.393094
0.604738 0.607377 0.394172
0.606850 0.589991 0.395286
0.607253 0.572110 0.398093
0.617002 0.573708 0.399742
0.626670 0.575499 0.404161
0.636681 0.577067 0.406872
0.647188 0.578633 0.408976
0.657943 0.580154 0.410696
0.668905 0.581589 0.412076
0.680025 0.583022 0.413501
0.691241 0.584488 0.415132
0.388869 0.641349 0.501041
0.388980 0.641322 0.499152
0.389105 0.641292 0.497030
0.389283 0.641248 0.494011
0.389520 0.641190 0.489997
0.389850 0.641115 0.484478
0.390322 0.641024 0.476719
0.390937 0.640914 0.466749
0.391691 0.640784 0.454629
0.392589 0.640635 0.440361
0.393613 0.640466 0.424229
0.394743 0.640274 0.406584
0.404092 0.640061 0.395955
0.426116 0.639824 0.397222
0.448543 0.639564 0.398520
0.470980 0.639279 0.399824
0.493032 0.638970 0.401109
0.514396 0.638634 0.402354
0.535080 0.638273 0.403559
0.555344 0.637885 0.404741
0.574950 0.637470 0.405881
0.593661 0.637026 0.406963
0.612362 0.636554 0.408047
0.631494 0.636053 0.409164
0.635523 0.620273 0.410296
0.634962 0.600081 0.413213
0.644110 0.599892 0.414151
0.654139 0.602016 0.419414
0.664547 0.603833 0.422574
0.675183 0.605571 0.425032
0.686021 0.607253 0.427093
0.697016 0.608843 0.428811
0.708111 0.610342 0.430353
0.403009 0.670662 0.520777
0.403118 0.670636 0.518920
0.403242 0.670606 0.516830
0.403421 0.670563 0.513797
0.403690 0.670506 0.509315
0.404074 0.670433 0.502987
0.404586 0.670344 0.494660
0.405219 0.670236 0.484432
0.405992 0.670110 0.472072
0.406894 0.669964 0.457763
0.407911 0.669798 0.441746
0.409025 0.669611 0.424336
0.414537 0.669402 0.410213
0.436134 0.669171 0.411452
0.458109 0.668916 0.412718
0.480082 0.668638 0.413988
0.501679 0.668336 0.415238
0.522622 0.668008 0.416450
0.543076 0.667662 0.417636
0.563133 0.667293 0.418800
0.582541 0.666899 0.419923
0.601129 0.666477 0.420992
0.619987 0.666029 0.422082
0.639234 0.665553 0.423201
0.658650 0.665049 0.424335
0.664517 0.650871 0.425480
0.663955 0.630376 0.427878
0.671573 0.626289 0.428518
0.682015 0.628764 0.434615
0.692576 0.630792 0.438300
0.703316 0.632694 0.441113
0.714207 0.634522 0.443502
0.725194 0.636251 0.445559
0.417645 0.700985 0.541121
0.417761 0.700960 0.539168
0.417902 0.700932 0.536831
0.418117 0.700892 0.533272
0.418430 0.700837 0.528162
0.418848 0.700768 0.521359
0.419375 0.700683 0.512845
0.420031 0.700580 0.502323
0.420813 0.700460 0.489869
0.421715 0.700322 0.475617
0.422722 0.700164 0.459789
0.423819 0.699986 0.442674
0.425374 0.699788 0.424984
0.446506 0.699568 0.426195
0.467992 0.699326 0.427431
0.489462 0.699062 0.428670
0.510571 0.698774 0.429888
0.531090 0.698463 0.431070
0.551292 0.698128 0.432234
0.571103 0.697767 0.433375
0.590270 0.697381 0.434474
0.608765 0.696970 0.435528
0.627743 0.696531 0.436616
0.647074 0.696066 0.437730
0.666595 0.695574 0.438859
0.686234 0.695053 0.439999
0.694504 0.683073 0.441147
0.693926 0.661907 0.443106
0.699690 0.653585 0.444271
0.710376 0.656215 0.450109
0.721049 0.658443 0.454393
0.731849 0.660482 0.457559
0.742735 0.662424 0.460255
0.432440 0.731476 0.560451
0.432579 0.731452 0.558165
0.432743 0.731425 0.555487
0.432989 0.731387 0.551498
0.433316 0.731335 0.546182
0.433748 0.731269 0.539207
0.434297 0.731188 0.530410
0.434964 0.731091 0.519771
0.435749 0.730977 0.507330
0.436644 0.730846 0.493219
0.437638 0.730696 0.477646
0.438714 0.730527 0.460874
0.439853 0.730338 0.443203
0.457130 0.730130 0.441035
0.478090 0.729900 0.442239
0.499017 0.729649 0.443444
0.519604 0.729376 0.444629
0.539716 0.729080 0.445785
0.559629 0.728761 0.446929
0.579153 0.728419 0.448049
0.598038 0.728053 0.449128
0.616484 0.727661 0.450177
0.635542 0.727245 0.451268
0.654927 0.726804 0.452383
0.674520 0.726336 0.453513
0.694255 0.725842 0.454655
0.714073 0.725320 0.455805
0.724772 0.715129 0.456997
0.724195 0.693614 0.458634
0.727958 0.681190 0.460794
0.738876 0.683838 0.465479
0.749638 0.686298 0.470522
0.760460 0.688481 0.474066
0.447376 0.762042 0.578310
0.447527 0.762020 0.575856
0.447697 0.761994 0.573099
0.447948 0.761958 0.569057
0.448293 0.761909 0.563503
0.448741 0.761846 0.556319
0.449300 0.761769 0.547415
0.449971 0.761677 0.536769
0.450752 0.761569 0.524433
0.451636 0.761444 0.510535
0.452612 0.761302 0.495273
0.453664 0.761142 0.478891
0.454775 0.760963 0.461663
0.467976 0.760765 0.455926
0.488371 0.760547 0.457097
0.508725 0.760309 0.458267
0.528759 0.760050 0.459417
0.548491 0.759769 0.460549
0.568079 0.759467 0.461673
0.587279 0.759142 0.462771
0.605841 0.758795 0.463829
0.624297 0.758424 0.464878
0.643394 0.758029 0.465971
0.662804 0.757610 0.467085
0.682439 0.757166 0.468215
0.702235 0.756697 0.469358
0.722145 0.756203 0.470512
0.742681 0.755682 0.471712
0.755135 0.747049 0.472916
0.754562 0.725423 0.474321
0.756266 0.708841 0.477351
0.767365 0.711420 0.480478
0.778163 0.714139 0.486538
0.462343 0.792555 0.595314
0.462501 0.792533 0.592769
0.462682 0.792509 0.589866
0.462944 0.792475 0.585671
0.463299 0.792429 0.580002
0.463755 0.792370 0.572746
0.464316 0.792297 0.563839
0.464985 0.792210 0.553277
0.465757 0.792108 0.541122
0.466626 0.791990 0.527500
0.467581 0.791855 0.512598
0.468607 0.791704 0.496643
0.469689 0.791534 0.479891
0.479006 0.791347 0.470807
0.498800 0.791141 0.471943
0.518556 0.790916 0.473077
0.538027 0.790671 0.474194
0.557399 0.790406 0.475304
0.576628 0.790120 0.476406
