data/luts/JSZ-CEDAR B.cube
# Baked from the Lightroom preset "JSZ-CEDAR B" by scripts/lightroom-preset-lut.lisp
# Colour only; not in this LUT (add the node instead):
#   Clarity -5
#   Vignette -17, midpoint 35, feather 66, roundness +14
#   Grain 9, size 25
TITLE "JSZ-CEDAR B"
LUT_3D_SIZE 9
DOMAIN_MIN 0.0 0.0 0.0
DOMAIN_MAX 1.0 1.0 1.0
0.129267 0.129267 0.129267
0.165568 0.143583 0.144417
0.212369 0.166986 0.169808
0.315773 0.214203 0.218648
0.440920 0.270253 0.275530
0.521860 0.306978 0.315046
0.594598 0.340274 0.352147
0.700030 0.387888 0.403341
0.803376 0.434999 0.455729
0.149105 0.164518 0.154883
0.178450 0.173442 0.150468
0.219499 0.188453 0.166717
0.316275 0.229003 0.216182
0.440584 0.268690 0.269165
0.521470 0.305753 0.310185
0.594392 0.339270 0.347963
0.699824 0.386952 0.399424
0.803040 0.433924 0.451367
0.187836 0.219508 0.199377
0.194117 0.226360 0.183848
0.236049 0.223225 0.173838
0.331933 0.265362 0.213344
0.449754 0.315403 0.267093
0.524247 0.345170 0.309115
0.591324 0.359597 0.348129
0.699233 0.384448 0.388950
0.802362 0.431526 0.441479
0.278729 0.351517 0.308357
0.272963 0.354157 0.289299
0.278434 0.357420 0.260970
0.369692 0.348179 0.229575
0.468591 0.371893 0.263826
0.542823 0.406008 0.299676
0.609890 0.420637 0.330719
0.707208 0.453811 0.386700
0.799868 0.485534 0.449879
0.354520 0.462676 0.398488
0.349877 0.465336 0.383526
0.339510 0.470560 0.345886
0.410947 0.485740 0.312208
0.500305 0.445360 0.270196
0.559460 0.450649 0.289158
0.630881 0.489699 0.325155
0.732767 0.547403 0.376610
0.828780 0.575175 0.416807
0.403295 0.536372 0.454594
0.399169 0.538841 0.441252
0.388730 0.544880 0.403556
0.443505 0.560849 0.361901
0.553869 0.575665 0.331975
0.583473 0.507076 0.296512
0.643124 0.515913 0.317391
0.744960 0.573715 0.367203
0.844358 0.631181 0.416294
0.472533 0.639335 0.535845
0.468394 0.641293 0.523133
0.456364 0.647206 0.482145
0.490685 0.661250 0.428807
0.574488 0.672552 0.400276
0.651781 0.677470 0.376714
0.681654 0.604052 0.338847
0.757547 0.600879 0.358843
0.855520 0.655455 0.407640
0.546931 0.750436 0.622786
0.542959 0.752366 0.610609
0.529250 0.759577 0.564067
0.546956 0.772970 0.503023
0.611800 0.783266 0.477730
0.671372 0.788525 0.456618
0.756058 0.794046 0.430435
0.802063 0.704585 0.381953
0.869916 0.689699 0.395768
0.611794 0.849344 0.696713
0.606980 0.851945 0.681545
0.591927 0.860227 0.629667
0.600569 0.872621 0.567992
0.652868 0.882056 0.545905
0.702068 0.887837 0.526945
0.776395 0.895090 0.502102
0.893058 0.904700 0.468978
0.912728 0.789934 0.418288
0.147917 0.145851 0.169724
0.175661 0.156004 0.176778
0.220767 0.177509 0.196074
0.321770 0.221490 0.239865
0.444830 0.275740 0.293456
0.524873 0.311676 0.331162
0.597478 0.344693 0.367375
0.702863 0.392442 0.419398
0.806670 0.440668 0.476155
0.157249 0.180480 0.180389
0.174166 0.174166 0.174166
0.216698 0.187746 0.190910
0.320407 0.228935 0.236333
0.444851 0.274804 0.289429
0.524610 0.310677 0.327196
0.597330 0.343782 0.363580
0.702513 0.391236 0.414553
0.806131 0.439205 0.470433
0.188381 0.219315 0.198766
0.194371 0.225080 0.186874
0.235748 0.224292 0.184347
0.330871 0.266465 0.230695
0.445935 0.318849 0.292444
0.519326 0.345888 0.331182
0.594807 0.352819 0.354659
0.701979 0.388836 0.404593
0.804922 0.435797 0.456933
0.277827 0.351429 0.306084
0.272238 0.353855 0.287477
0.279107 0.357064 0.260269
0.369494 0.344458 0.227610
0.469486 0.372286 0.264351
0.543224 0.405745 0.299821
0.607678 0.423748 0.351498
0.703075 0.456330 0.411833
0.797592 0.485395 0.463390
0.353961 0.462762 0.396985
0.349400 0.465342 0.382194
0.339000 0.470576 0.344200
0.412726 0.485817 0.311563
0.500204 0.443456 0.269269
0.559934 0.450852 0.289431
0.631464 0.489974 0.325487
0.733249 0.547620 0.376904
0.828644 0.575463 0.421132
0.402859 0.536485 0.453368
0.398768 0.538922 0.440070
0.388237 0.545021 0.401822
0.444957 0.561000 0.361357
0.554968 0.575665 0.331625
0.583405 0.506018 0.296050
0.643717 0.516216 0.317700
0.745458 0.573975 0.367468
0.844742 0.631377 0.416507
0.472080 0.639357 0.534668
0.467956 0.641302 0.521950
0.455777 0.647313 0.480231
0.491802 0.661314 0.428255
0.575275 0.672483 0.399912
0.652379 0.677347 0.376428
0.681553 0.602764 0.338216
0.758036 0.601113 0.359110
0.855895 0.655633 0.407853
0.546521 0.750486 0.621694
0.542555 0.752410 0.609495
0.528665 0.759736 0.562125
0.547848 0.773047 0.502541
0.612382 0.783226 0.477423
0.671812 0.788440 0.456376
0.756790 0.793981 0.430143
0.801981 0.703520 0.381444
0.870286 0.689872 0.395973
0.611407 0.849436 0.695628
0.606485 0.852105 0.680058
0.591364 0.860422 0.627744
0.601309 0.872711 0.567582
0.653328 0.882043 0.545649
0.702426 0.887790 0.526742
0.776999 0.895066 0.501852
0.893706 0.904661 0.468743
0.912670 0.789136 0.417926
0.188572 0.181226 0.236097
0.212036 0.189995 0.240263
0.242868 0.201739 0.248636
0.335276 0.237520 0.283279
0.454833 0.289928 0.337978
0.533712 0.325800 0.378175
0.606938 0.359873 0.418602
0.712305 0.408262 0.474161
0.815515 0.456016 0.530122
0.185715 0.198752 0.233428
0.198007 0.195780 0.229181
0.235025 0.209191 0.239240
0.334789 0.243702 0.279843
0.454546 0.288466 0.332549
0.533116 0.324200 0.372428
0.606449 0.358331 0.412861
0.711823 0.406803 0.468659
0.815061 0.454712 0.525186
0.195993 0.240834 0.242283
0.207106 0.237834 0.236940
0.228813 0.228813 0.228813
0.327707 0.267435 0.268823
0.447648 0.316485 0.322337
0.527486 0.344780 0.361054
0.603700 0.364808 0.399659
0.710509 0.402929 0.453966
0.813775 0.451143 0.511649
0.287341 0.350926 0.330023
0.294461 0.343869 0.325279
0.290155 0.346279 0.301093
0.367800 0.349987 0.272397
0.468271 0.389817 0.317703
0.536249 0.409929 0.355004
0.600822 0.429187 0.395972
0.699509 0.452361 0.442207
0.806002 0.476171 0.488936
0.352595 0.462925 0.393298
0.348194 0.465344 0.378808
0.337644 0.470655 0.339616
0.417279 0.486001 0.309929
0.499831 0.441922 0.277167
0.560522 0.459781 0.315666
0.631250 0.502790 0.363493
0.729825 0.552256 0.421106
0.822398 0.582521 0.478266
0.401770 0.536751 0.450290
0.397751 0.539121 0.437057
0.386951 0.545401 0.397239
0.448654 0.561376 0.359984
0.557743 0.575659 0.330740
0.583229 0.503325 0.294907
0.645224 0.516985 0.318484
0.746724 0.574634 0.368142
0.845513 0.633254 0.421218
0.470937 0.639406 0.531676
0.466844 0.641322 0.518929
0.454268 0.647595 0.475250
0.494639 0.661469 0.426862
0.577260 0.672304 0.398993
0.653901 0.677033 0.375703
0.681296 0.599473 0.336625
0.759279 0.601708 0.359788
0.856846 0.656084 0.408394
0.545483 0.750611 0.618908
0.541475 0.752558 0.606467
0.527168 0.760143 0.557121
0.550104 0.773235 0.501328
0.613849 0.783121 0.476645
0.672927 0.788221 0.455759
0.758656 0.793813 0.429400
0.801771 0.700803 0.380157
0.871226 0.690309 0.396493
0.610352 0.849714 0.692634
0.605200 0.852527 0.676161
0.589935 0.860916 0.622827
0.603176 0.872931 0.566551
0.654487 0.882008 0.545002
0.703335 0.887670 0.526226
0.778538 0.895004 0.501214
0.895357 0.904562 0.468145
0.912521 0.787104 0.417010
0.266903 0.254653 0.383684
0.286292 0.261059 0.386305
0.321401 0.273747 0.391994
0.391375 0.297576 0.404699
0.459186 0.312167 0.417011
0.543390 0.348946 0.456107
0.621617 0.383094 0.491687
0.724947 0.428719 0.540740
0.826151 0.473676 0.589019
0.260873 0.269901 0.376402
0.273522 0.268422 0.377328
0.312670 0.279346 0.384051
0.387537 0.296560 0.398487
0.460611 0.311873 0.414429
0.544381 0.348471 0.453100
0.621559 0.382343 0.488916
0.724888 0.428054 0.538186
0.826071 0.473084 0.586717
0.256017 0.290800 0.369889
0.267803 0.290484 0.367009
0.288905 0.287324 0.361576
0.372336 0.315667 0.379918
0.466112 0.345588 0.413889
0.546633 0.372609 0.449779
0.620681 0.388185 0.482901
0.724652 0.426201 0.531126
0.825796 0.471441 0.580378
0.267738 0.383479 0.385769
0.279334 0.381292 0.383389
0.304432 0.375788 0.377786
0.356597 0.356597 0.356597
0.458867 0.391031 0.398789
0.535147 0.417685 0.437144
0.612072 0.438490 0.474880
0.718121 0.469170 0.524130
0.821321 0.499754 0.572638
0.360704 0.473008 0.444418
0.369030 0.469349 0.441837
0.387213 0.458383 0.434394
0.402928 0.470110 0.391050
0.498082 0.467876 0.378886
0.558192 0.491336 0.413190
0.624406 0.524184 0.455130
0.715789 0.561427 0.515320
0.804303 0.590287 0.568357
0.429285 0.527381 0.489222
0.427116 0.529577 0.481198
0.419449 0.537032 0.452171
0.447315 0.555464 0.400750
0.544657 0.572125 0.382620
0.582383 0.520444 0.359117
0.646220 0.542906 0.394362
0.744859 0.604457 0.457431
0.838940 0.655190 0.519276
0.468920 0.639472 0.526343
0.464867 0.641349 0.513495
0.451524 0.648126 0.466009
0.499666 0.661709 0.424424
0.580739 0.671967 0.397377
0.656606 0.676468 0.374413
0.680835 0.593563 0.333850
0.761064 0.610485 0.384228
0.857047 0.670486 0.450686
0.543640 0.750824 0.613914
0.539330 0.752968 0.600253
0.524484 0.760873 0.548006
0.554076 0.773538 0.499209
0.616413 0.782918 0.475280
0.674906 0.787827 0.454662
0.761996 0.793512 0.428074
0.801395 0.695937 0.377897
0.872892 0.691084 0.397416
0.608268 0.850339 0.686568
0.602831 0.853327 0.668853
0.587421 0.861771 0.614082
0.606452 0.873297 0.564752
0.656525 0.881935 0.543863
0.704947 0.887452 0.525311
0.781288 0.894891 0.500078
0.898303 0.904384 0.467080
0.912253 0.783482 0.415404
0.325842 0.307637 0.489096
0.342182 0.312776 0.490733
0.377795 0.324608 0.494596
0.455326 0.353898 0.503431
0.515501 0.358457 0.515081
0.538236 0.360636 0.502978
0.619322 0.395514 0.540745
0.732833 0.443333 0.587460
0.835444 0.487472 0.632000
0.316497 0.317836 0.484342
0.332981 0.320791 0.486275
0.372440 0.330148 0.490890
0.454730 0.352981 0.500817
0.512999 0.356511 0.511229
0.538902 0.360531 0.502010
0.620063 0.395433 0.539660
0.733475 0.443206 0.586204
0.835530 0.487200 0.630829
0.317998 0.346920 0.485039
0.328332 0.347182 0.481918
0.353841 0.345926 0.479912
0.441433 0.374274 0.491369
0.505466 0.381331 0.504803
0.540909 0.382884 0.503467
0.622037 0.397124 0.537124
0.735126 0.442857 0.582866
0.835733 0.486479 0.627746
0.315338 0.416331 0.498029
0.327155 0.415575 0.496378
0.355477 0.412721 0.490600
0.409168 0.402162 0.470796
0.489433 0.425202 0.490742
0.546285 0.438528 0.509453
0.629255 0.460615 0.544288
0.733226 0.488484 0.586520
0.833393 0.515726 0.628125
0.326726 0.505842 0.516603
0.338449 0.505532 0.515590
0.371158 0.504870 0.512839
0.433909 0.501786 0.501900
0.483126 0.483126 0.483126
0.548550 0.499568 0.507777
0.616455 0.526219 0.538075
0.718294 0.565123 0.584360
0.820342 0.596345 0.629170
0.394282 0.571432 0.551756
0.403979 0.569440 0.549668
0.433395 0.562107 0.542209
0.478095 0.537946 0.519904
0.504323 0.551417 0.491102
0.574817 0.564249 0.500174
0.640195 0.585852 0.531004
0.729001 0.623702 0.578133
0.818431 0.664035 0.629041
0.491508 0.644410 0.599268
0.499013 0.641184 0.597338
0.524014 0.628173 0.589843
0.521618 0.639160 0.541833
0.555314 0.654284 0.512880
0.614145 0.663655 0.508330
0.677647 0.638369 0.496992
0.759167 0.661345 0.538083
0.850497 0.717704 0.596672
0.564748 0.744806 0.643761
0.560835 0.747454 0.630672
0.548610 0.755904 0.585178
0.558740 0.768392 0.529755
0.613125 0.777488 0.513927
0.665320 0.782489 0.502342
0.747353 0.789465 0.487159
0.799969 0.714480 0.454221
0.873769 0.724688 0.496411
0.604910 0.851417 0.676518
0.599132 0.854606 0.657146
0.583743 0.862981 0.601083
0.611237 0.873763 0.562126
0.659559 0.881811 0.542169
0.707351 0.887116 0.523945
0.785443 0.894717 0.498372
0.902743 0.904111 0.465481
0.911845 0.778032 0.413055
0.374790 0.349332 0.570226
0.389607 0.354000 0.571728
0.428536 0.366785 0.575759
0.507758 0.395749 0.584368
0.568386 0.414891 0.594383
0.605043 0.410987 0.603229
0.617891 0.407522 0.582585
0.730460 0.455713 0.635354
0.839467 0.501914 0.682203
0.367053 0.355710 0.566019
0.383335 0.359204 0.567799
0.426692 0.367931 0.572651
0.507110 0.394727 0.581583
0.566862 0.412741 0.591587
0.602258 0.408880 0.599123
0.618660 0.407411 0.581551
0.731138 0.455541 0.634044
0.840041 0.501689 0.680708
0.363533 0.385006 0.561236
0.373062 0.385550 0.558307
0.406738 0.387305 0.561458
0.493364 0.414504 0.571869
0.558085 0.434059 0.582888
0.594666 0.422297 0.591059
0.620625 0.407114 0.578837
0.732869 0.455094 0.630636
0.841507 0.501106 0.676834
0.360712 0.448317 0.575118
0.371301 0.447684 0.572909
0.401177 0.445552 0.564654
0.462322 0.444381 0.552194
0.538200 0.468792 0.566001
0.580461 0.464549 0.578998
0.625044 0.465954 0.584618
0.738030 0.499945 0.633339
0.845269 0.529344 0.675496
0.359040 0.522584 0.587418
0.370822 0.522749 0.586707
0.408198 0.523001 0.583420
0.469235 0.517829 0.570275
0.510945 0.505536 0.560226
0.564435 0.515730 0.570995
0.636943 0.549593 0.597439
0.737689 0.585593 0.639168
0.835610 0.612745 0.680637
0.372511 0.585428 0.600584
0.384276 0.585658 0.599912
0.425961 0.586976 0.597753
0.490543 0.587472 0.591649
0.528645 0.574523 0.570851
0.563653 0.563653 0.563653
0.635818 0.583432 0.589196
0.724831 0.620029 0.625915
0.820041 0.660956 0.669523
0.455954 0.684531 0.666101
0.468316 0.682195 0.663296
0.505007 0.674103 0.653994
0.552070 0.655898 0.635766
0.573514 0.635260 0.609723
0.583812 0.643148 0.581848
0.667160 0.663007 0.593049
0.752951 0.687613 0.629393
0.835131 0.718464 0.672193
0.555333 0.776203 0.730855
0.568000 0.772615 0.727906
0.599985 0.761409 0.719186
0.635509 0.740478 0.704326
0.643839 0.737438 0.680403
0.640339 0.749431 0.644445
0.699791 0.768185 0.636269
0.796053 0.760586 0.625428
0.871161 0.776429 0.654726
0.663163 0.840797 0.777451
0.674195 0.835856 0.775238
0.676532 0.838629 0.753531
0.666296 0.850756 0.707879
0.658764 0.859826 0.661886
0.689080 0.866238 0.653889
0.750831 0.877568 0.645976
0.849804 0.893017 0.636363
0.909020 0.837332 0.614360
0.442909 0.409628 0.689857
0.456952 0.414003 0.691182
0.502404 0.428620 0.695326
0.580242 0.456008 0.703012
0.641031 0.480458 0.710844
0.680139 0.493382 0.718676
0.720573 0.488701 0.729749
0.744058 0.481752 0.708349
0.834606 0.518074 0.744398
0.440689 0.410925 0.687152
0.456602 0.413216 0.688819
0.502487 0.427880 0.693017
0.579842 0.455176 0.700694
0.640104 0.479491 0.708511
0.678815 0.491663 0.716409
0.719430 0.486987 0.727520
0.741861 0.480064 0.704939
0.835123 0.517928 0.743407
0.429940 0.443597 0.677479
0.434714 0.437227 0.678360
0.483775 0.448712 0.683420
0.566600 0.473655 0.692295
0.630432 0.493853 0.701125
0.672972 0.501108 0.709729
0.716508 0.482585 0.721794
0.736216 0.475727 0.696156
0.836442 0.517547 0.740835
0.425644 0.500097 0.689103
0.435860 0.499903 0.686741
0.469696 0.499654 0.676642
0.536312 0.504966 0.674903
0.607439 0.524692 0.686018
0.655174 0.536323 0.695861
0.701527 0.526752 0.709445
0.731989 0.511581 0.692466
0.839468 0.541580 0.740777
0.420305 0.565430 0.695898
0.432652 0.565703 0.694458
0.471791 0.566124 0.688196
0.524847 0.562387 0.671977
0.564201 0.555453 0.658520
0.620800 0.574696 0.671606
0.676831 0.591002 0.688485
0.738160 0.598661 0.702563
0.847682 0.632266 0.751648
0.415272 0.608602 0.687840
0.430613 0.609331 0.687064
0.473879 0.610788 0.683766
0.530884 0.609237 0.674998
0.567459 0.600770 0.662728
0.595304 0.592157 0.659384
0.660136 0.609185 0.673642
0.751731 0.652193 0.708226
0.848033 0.693642 0.750925
0.441322 0.695523 0.707906
0.457786 0.695608 0.706715
0.500911 0.695588 0.703299
0.555864 0.693452 0.697138
0.590813 0.685970 0.683405
0.614433 0.672049 0.666035
0.656876 0.656876 0.656876
0.749096 0.681775 0.690574
0.834207 0.716205 0.727951
0.541293 0.799014 0.773601
0.556566 0.796127 0.770171
0.591852 0.787925 0.761068
0.631385 0.773656 0.747017
0.657373 0.755606 0.731105
0.668225 0.739720 0.710889
0.683962 0.754132 0.677927
0.786940 0.776809 0.691007
0.866682 0.797303 0.724199
0.633664 0.881273 0.833708
0.647491 0.877537 0.830414
0.676358 0.867996 0.822448
0.707530 0.852860 0.810750
0.728694 0.834977 0.797757
0.735583 0.828399 0.780340
0.733115 0.850426 0.732491
0.819092 0.878070 0.729020
0.906688 0.862289 0.716132
0.511163 0.468150 0.804387
0.528321 0.473436 0.805782
0.579180 0.489654 0.809932
0.650506 0.514233 0.816395
0.706135 0.535421 0.822695
0.746712 0.552382 0.828693
0.791843 0.565872 0.836909
0.843815 0.557943 0.849170
0.861952 0.550578 0.824126
0.511250 0.467600 0.802724
0.528671 0.472973 0.804141
0.579581 0.489237 0.808307
0.650384 0.513685 0.814751
0.705595 0.534756 0.821039
0.746017 0.551685 0.827046
0.791007 0.564644 0.835334
0.843058 0.556738 0.847618
0.860423 0.549398 0.821754
0.489616 0.488604 0.794514
0.509220 0.493677 0.796221
0.564240 0.508773 0.801059
0.638812 0.530452 0.808353
0.697344 0.546937 0.815467
0.742502 0.554091 0.822497
0.788856 0.561484 0.831282
0.841116 0.553637 0.843625
0.856492 0.546366 0.815651
0.493567 0.553282 0.801733
0.506811 0.553710 0.798149
0.541622 0.554672 0.786275
0.610570 0.563161 0.794708
0.674232 0.578817 0.803283
0.722000 0.588491 0.811297
0.776563 0.601499 0.820910
0.831184 0.583273 0.835240
0.849261 0.559873 0.807595
0.490827 0.617747 0.812501
0.505774 0.618375 0.809907
0.543990 0.619378 0.801489
0.589595 0.617771 0.785435
0.630818 0.616027 0.780753
0.684461 0.631471 0.790756
0.746938 0.651143 0.803300
0.809483 0.656661 0.820143
0.838368 0.638290 0.804923
0.489886 0.658033 0.809035
0.506250 0.658752 0.807012
0.545818 0.659784 0.800746
0.592400 0.658455 0.789175
0.625172 0.653110 0.774272
0.649731 0.645463 0.765116
0.720947 0.671214 0.780294
0.789952 0.694283 0.800285
0.844741 0.705254 0.811742
0.490452 0.717475 0.805133
0.508369 0.718211 0.804107
0.549439 0.719262 0.800997
0.597864 0.718195 0.795067
0.634731 0.713082 0.786598
0.659536 0.703478 0.776628
0.696480 0.690846 0.770191
0.775408 0.709875 0.787102
0.857782 0.747234 0.816172
0.525793 0.817101 0.831442
0.543274 0.817433 0.830333
0.580931 0.817670 0.827547
0.625523 0.816480 0.823105
0.662057 0.813243 0.817778
0.687282 0.808229 0.808655
0.721699 0.790129 0.784417
0.772902 0.772902 0.772902
0.860034 0.795156 0.804910
0.621076 0.909234 0.886361
0.635308 0.906850 0.883329
0.664570 0.901031 0.876384
0.697878 0.892031 0.866648
0.724519 0.881269 0.856111
0.745615 0.867966 0.843935
0.766436 0.849775 0.814856
0.797170 0.864577 0.784607
0.892567 0.886075 0.801012
0.580853 0.521076 0.901551
0.601270 0.527383 0.903026
0.651082 0.543325 0.906757
0.712293 0.564199 0.911799
0.761117 0.582128 0.916505
0.800157 0.597476 0.920963
0.850740 0.618719 0.926996
0.901462 0.620401 0.936155
0.946293 0.611663 0.941365
0.581644 0.521010 0.900710
0.602102 0.527339 0.902193
0.651712 0.543242 0.905924
0.712472 0.563994 0.910955
0.760991 0.581835 0.915660
0.799917 0.597158 0.920134
0.850538 0.618441 0.926194
0.901135 0.619774 0.935386
0.945509 0.611038 0.940125
0.565750 0.540450 0.895294
0.587695 0.546287 0.897013
0.639946 0.560657 0.901256
0.703578 0.578312 0.906967
0.755612 0.590589 0.912491
0.799268 0.596317 0.917955
0.849996 0.617711 0.924107
0.900293 0.618168 0.933412
0.943531 0.609459 0.936994
0.561178 0.599264 0.894839
0.575337 0.600060 0.890314
0.609525 0.595212 0.890291
0.677812 0.612102 0.897171
0.733340 0.624320 0.903748
0.779173 0.632401 0.910050
0.837064 0.646080 0.917966
0.893327 0.645356 0.928244
0.939700 0.617677 0.932782
0.561049 0.665229 0.910284
0.576382 0.666047 0.906884
0.610261 0.667268 0.897722
0.648301 0.666659 0.882932
0.690195 0.667308 0.885880
0.740593 0.680297 0.893830
0.806681 0.698847 0.904447
0.874279 0.718558 0.916268
0.928153 0.698917 0.931106
0.562975 0.705510 0.911517
0.578795 0.706272 0.908717
0.612497 0.707305 0.901504
0.650796 0.706806 0.890107
0.679957 0.703826 0.876930
0.707475 0.699437 0.872999
0.780345 0.723315 0.885755
0.852485 0.750337 0.900236
0.909650 0.757181 0.917435
0.566604 0.760308 0.913414
0.582614 0.760747 0.911406
0.615959 0.761015 0.906356
0.654441 0.759510 0.898311
0.685382 0.755343 0.888548
0.709794 0.748061 0.875919
0.748256 0.738238 0.863396
0.830267 0.767587 0.880127
0.893312 0.784278 0.899619
0.572129 0.833485 0.915768
0.588004 0.834214 0.915017
0.621129 0.835300 0.913114
0.660464 0.835328 0.909984
0.694703 0.833153 0.905837
0.724637 0.828176 0.899776
0.763673 0.815754 0.885608
0.809002 0.802746 0.879513
0.880965 0.815309 0.893670
0.609803 0.925531 0.942823
0.623740 0.925891 0.942010
0.652643 0.926314 0.940079
0.687311 0.925949 0.937140
0.719336 0.924303 0.933569
0.750779 0.921553 0.929197
0.791647 0.914928 0.914152
0.831548 0.894777 0.888661
0.880192 0.880192 0.880192
